PS/3DLUTs/CH_BW Dark.3dl
#Do not edit
# LUT created by Synthetic Aperture Color Finesse 3 3.0.6(275)
3DMESH
Mesh 4 12
0 64 128 192 256 320 384 448 512 576 640 704 768 832 896 960 1023 
   0    0    0
   6    6    6
  14   14   14
  29   29   29
  56   56   56
  91   91   91
 131  131  131
 171  171  171
 212  212  212
 257  257  257
 301  301  301
 341  341  341
 373  373  373
 401  401  401
 425  425  425
 449  449  449
 467  467  467
  32   32   32
  39   39   39
  47   47   47
  62   62   62
  88   88   88
 124  124  124
 163  163  163
 204  204  204
 245  245  245
 289  289  289
 334  334  334
 374  374  374
 406  406  406
 433  433  433
 458  458  458
 481  481  481
 499  499  499
  74   74   74
  80   80   80
  88   88   88
 103  103  103
 130  130  130
 165  165  165
 205  205  205
 245  245  245
 286  286  286
 331  331  331
 375  375  375
 415  415  415
 447  447  447
 474  474  474
 499  499  499
 522  522  522
 541  541  541
 151  151  151
 157  157  157
 165  165  165
 180  180  180
 207  207  207
 242  242  242
 281  281  281
 322  322  322
 363  363  363
 408  408  408
 452  452  452
 492  492  492
 524  524  524
 551  551  551
 576  576  576
 599  599  599
 618  618  618
 289  289  289
 295  295  295
 303  303  303
 318  318  318
 345  345  345
 380  380  380
 419  419  419
 460  460  460
 501  501  501
 546  546  546
 590  590  590
 630  630  630
 662  662  662
 689  689  689
 714  714  714
 737  737  737
 756  756  756
 470  470  470
 477  477  477
 485  485  485
 500  500  500
 526  526  526
 562  562  562
 601  601  601
 642  642  642
 683  683  683
 727  727  727
 772  772  772
 812  812  812
 844  844  844
 871  871  871
 896  896  896
 919  919  919
 937  937  937
 673  673  673
 679  679  679
 687  687  687
 702  702  702
 729  729  729
 764  764  764
 804  804  804
 844  844  844
 885  885  885
 930  930  930
 975  975  975
1014 1014 1014
1047 1047 1047
1074 1074 1074
1098 1098 1098
1122 1122 1122
1140 1140 1140
 882  882  882
 888  888  888
 896  896  896
 911  911  911
 938  938  938
 973  973  973
1013 1013 1013
1053 1053 1053
1094 1094 1094
1139 1139 1139
1184 1184 1184
1223 1223 1223
1255 1255 1255
1283 1283 1283
1307 1307 1307
1331 1331 1331
1349 1349 1349
1093 1093 1093
1099 1099 1099
1107 1107 1107
1122 1122 1122
1149 1149 1149
1184 1184 1184
1224 1224 1224
1264 1264 1264
1305 1305 1305
1350 1350 1350
1394 1394 1394
1434 1434 1434
1466 1466 1466
1494 1494 1494
1518 1518 1518
1542 1542 1542
1560 1560 1560
1323 1323 1323
1330 1330 1330
1338 1338 1338
1353 1353 1353
1379 1379 1379
1415 1415 1415
1454 1454 1454
1495 1495 1495
1536 1536 1536
1580 1580 1580
1625 1625 1625
1665 1665 1665
1697 1697 1697
1724 1724 1724
1749 1749 1749
1772 1772 1772
1790 1790 1790
1552 1552 1552
1559 1559 1559
1567 1567 1567
1581 1581 1581
1608 1608 1608
1644 1644 1644
1683 1683 1683
1724 1724 1724
1765 1765 1765
1809 1809 1809
1854 1854 1854
1893 1893 1893
1926 1926 1926
1953 1953 1953
1977 1977 1977
2001 2001 2001
2019 2019 2019
1757 1757 1757
1763 1763 1763
1771 1771 1771
1786 1786 1786
1813 1813 1813
1848 1848 1848
1888 1888 1888
1928 1928 1928
1969 1969 1969
2014 2014 2014
2059 2059 2059
2098 2098 2098
2130 2130 2130
2158 2158 2158
2182 2182 2182
2206 2206 2206
2224 2224 2224
1923 1923 1923
1929 1929 1929
1937 1937 1937
1952 1952 1952
1979 1979 1979
2014 2014 2014
2053 2053 2053
2094 2094 2094
2135 2135 2135
2180 2180 2180
2224 2224 2224
2264 2264 2264
2296 2296 2296
2323 2323 2323
2348 2348 2348
2371 2371 2371
2390 2390 2390
2062 2062 2062
2069 2069 2069
2077 2077 2077
2092 2092 2092
2118 2118 2118
2154 2154 2154
2193 2193 2193
2234 2234 2234
2275 2275 2275
2319 2319 2319
2364 2364 2364
2404 2404 2404
2436 2436 2436
2463 2463 2463
2488 2488 2488
2511 2511 2511
2529 2529 2529
2189 2189 2189
2195 2195 2195
2203 2203 2203
2218 2218 2218
2245 2245 2245
2280 2280 2280
2320 2320 2320
2360 2360 2360
2401 2401 2401
2446 2446 2446
2491 2491 2491
2530 2530 2530
2563 2563 2563
2590 2590 2590
2614 2614 2614
2638 2638 2638
2656 2656 2656
2309 2309 2309
2316 2316 2316
2324 2324 2324
2339 2339 2339
2366 2366 2366
2401 2401 2401
2440 2440 2440
2481 2481 2481
2522 2522 2522
2566 2566 2566
2611 2611 2611
2651 2651 2651
2683 2683 2683
2710 2710 2710
2735 2735 2735
2758 2758 2758
2776 2776 2776
2404 2404 2404
2410 2410 2410
2418 2418 2418
2433 2433 2433
2460 2460 2460
2495 2495 2495
2534 2534 2534
2575 2575 2575
2616 2616 2616
2661 2661 2661
2705 2705 2705
2745 2745 2745
2777 2777 2777
2804 2804 2804
2829 2829 2829
2852 2852 2852
2871 2871 2871
  17   17   17
  23   23   23
  31   31   31
  46   46   46
  73   73   73
 108  108  108
 147  147  147
 188  188  188
 229  229  229
 274  274  274
 318  318  318
 358  358  358
 390  390  390
 417  417  417
 442  442  442
 465  465  465
 483  483  483
  49   49   49
  55   55   55
  63   63   63
  78   78   78
 105  105  105
 140  140  140
 180  180  180
 220  220  220
 261  261  261
 306  306  306
 350  350  350
 390  390  390
 422  422  422
 449  449  449
 474  474  474
 497  497  497
 516  516  516
  90   90   90
  97   97   97
 105  105  105
 120  120  120
 146  146  146
 182  182  182
 221  221  221
 262  262  262
 303  303  303
 347  347  347
 392  392  392
 432  432  432
 464  464  464
 491  491  491
 515  515  515
 539  539  539
 557  557  557
 167  167  167
 173  173  173
 182  182  182
 196  196  196
 223  223  223
 259  259  259
 298  298  298
 338  338  338
 379  379  379
 424  424  424
 469  469  469
 508  508  508
 541  541  541
 568  568  568
 592  592  592
 616  616  616
 634  634  634
 305  305  305
 312  312  312
 320  320  320
 335  335  335
 361  361  361
 397  397  397
 436  436  436
 477  477  477
 518  518  518
 562  562  562
 607  607  607
 646  646  646
 679  679  679
 706  706  706
 730  730  730
 754  754  754
 772  772  772
 487  487  487
 493  493  493
 501  501  501
 516  516  516
 543  543  543
 578  578  578
 618  618  618
 658  658  658
 699  699  699
 744  744  744
 788  788  788
 828  828  828
 860  860  860
 887  887  887
 912  912  912
 935  935  935
 954  954  954
 690  690  690
 696  696  696
 704  704  704
 719  719  719
 746  746  746
 781  781  781
 820  820  820
 861  861  861
 902  902  902
 947  947  947
 991  991  991
1031 1031 1031
1063 1063 1063
1090 1090 1090
1115 1115 1115
1138 1138 1138
1156 1156 1156
 899  899  899
 905  905  905
 913  913  913
 928  928  928
 955  955  955
 990  990  990
1029 1029 1029
1070 1070 1070
1111 1111 1111
1156 1156 1156
1200 1200 1200
1240 1240 1240
1272 1272 1272
1299 1299 1299
1324 1324 1324
1347 1347 1347
1365 1365 1365
1110 1110 1110
1116 1116 1116
1124 1124 1124
1139 1139 1139
1166 1166 1166
1201 1201 1201
1240 1240 1240
1281 1281 1281
1322 1322 1322
1367 1367 1367
1411 1411 1411
1451 1451 1451
1483 1483 1483
1510 1510 1510
1535 1535 1535
1558 1558 1558
1576 1576 1576
1340 1340 1340
1346 1346 1346
1354 1354 1354
1369 1369 1369
1396 1396 1396
1431 1431 1431
1471 1471 1471
1511 1511 1511
1552 1552 1552
1597 1597 1597
1641 1641 1641
1681 1681 1681
1713 1713 1713
1740 1740 1740
1765 1765 1765
1788 1788 1788
1807 1807 1807
1569 1569 1569
1575 1575 1575
1583 1583 1583
1598 1598 1598
1625 1625 1625
1660 1660 1660
1699 1699 1699
1740 1740 1740
1781 1781 1781
1826 1826 1826
1870 1870 1870
1910 1910 1910
1942 1942 1942
1969 1969 1969
1994 1994 1994
2017 2017 2017
2036 2036 2036
1774 1774 1774
1780 1780 1780
1788 1788 1788
1803 1803 1803
1830 1830 1830
1865 1865 1865
1904 1904 1904
1945 1945 1945
1986 1986 1986
2031 2031 2031
2075 2075 2075
2115 2115 2115
2147 2147 2147
2174 2174 2174
2199 2199 2199
2222 2222 2222
2240 2240 2240
1939 1939 1939
1946 1946 1946
1954 1954 1954
1968 1968 1968
1995 1995 1995
2031 2031 2031
2070 2070 2070
2111 2111 2111
2151 2151 2151
2196 2196 2196
2241 2241 2241
2280 2280 2280
2313 2313 2313
2340 2340 2340
2364 2364 2364
2388 2388 2388
2406 2406 2406
2079 2079 2079
2085 2085 2085
2093 2093 2093
2108 2108 2108
2135 2135 2135
2170 2170 2170
2210 2210 2210
2250 2250 2250
2291 2291 2291
2336 2336 2336
2380 2380 2380
2420 2420 2420
2452 2452 2452
2479 2479 2479
2504 2504 2504
2527 2527 2527
2546 2546 2546
2206 2206 2206
2212 2212 2212
2220 2220 2220
2235 2235 2235
2262 2262 2262
2297 2297 2297
2336 2336 2336
2377 2377 2377
2418 2418 2418
2463 2463 2463
2507 2507 2507
2547 2547 2547
2579 2579 2579
2606 2606 2606
2631 2631 2631
2654 2654 2654
2672 2672 2672
2326 2326 2326
2332 2332 2332
2340 2340 2340
2355 2355 2355
2382 2382 2382
2417 2417 2417
2457 2457 2457
2497 2497 2497
2538 2538 2538
2583 2583 2583
2627 2627 2627
2667 2667 2667
2699 2699 2699
2726 2726 2726
2751 2751 2751
2774 2774 2774
2793 2793 2793
2420 2420 2420
2427 2427 2427
2435 2435 2435
2450 2450 2450
2476 2476 2476
2512 2512 2512
2551 2551 2551
2592 2592 2592
2633 2633 2633
2677 2677 2677
2722 2722 2722
2762 2762 2762
2794 2794 2794
2821 2821 2821
2845 2845 2845
2869 2869 2869
2887 2887 2887
  38   38   38
  44   44   44
  52   52   52
  67   67   67
  94   94   94
 129  129  129
 168  168  168
 209  209  209
 250  250  250
 295  295  295
 339  339  339
 379  379  379
 411  411  411
 438  438  438
 463  463  463
 486  486  486
 504  504  504
  70   70   70
  76   76   76
  84   84   84
  99   99   99
 126  126  126
 161  161  161
 201  201  201
 241  241  241
 282  282  282
 327  327  327
 371  371  371
 411  411  411
 443  443  443
 471  471  471
 495  495  495
 519  519  519
 537  537  537
 111  111  111
 118  118  118
 126  126  126
 141  141  141
 167  167  167
 203  203  203
 242  242  242
 283  283  283
 324  324  324
 368  368  368
 413  413  413
 453  453  453
 485  485  485
 512  512  512
 537  537  537
 560  560  560
 578  578  578
 188  188  188
 195  195  195
 203  203  203
 218  218  218
 244  244  244
 280  280  280
 319  319  319
 360  360  360
 401  401  401
 445  445  445
 490  490  490
 529  529  529
 562  562  562
 589  589  589
 613  613  613
 637  637  637
 655  655  655
 326  326  326
 333  333  333
 341  341  341
 356  356  356
 382  382  382
 418  418  418
 457  457  457
 498  498  498
 539  539  539
 583  583  583
 628  628  628
 668  668  668
 700  700  700
 727  727  727
 751  751  751
 775  775  775
 793  793  793
 508  508  508
 514  514  514
 522  522  522
 537  537  537
 564  564  564
 599  599  599
 639  639  639
 679  679  679
 720  720  720
 765  765  765
 809  809  809
 849  849  849
 881  881  881
 908  908  908
 933  933  933
 956  956  956
 975  975  975
 711  711  711
 717  717  717
 725  725  725
 740  740  740
 767  767  767
 802  802  802
 841  841  841
 882  882  882
 923  923  923
 968  968  968
1012 1012 1012
1052 1052 1052
1084 1084 1084
1111 1111 1111
1136 1136 1136
1159 1159 1159
1178 1178 1178
 920  920  920
 926  926  926
 934  934  934
 949  949  949
 976  976  976
1011 1011 1011
1050 1050 1050
1091 1091 1091
1132 1132 1132
1177 1177 1177
1221 1221 1221
1261 1261 1261
1293 1293 1293
1320 1320 1320
1345 1345 1345
1368 1368 1368
1386 1386 1386
1131 1131 1131
1137 1137 1137
1145 1145 1145
1160 1160 1160
1187 1187 1187
1222 1222 1222
1261 1261 1261
1302 1302 1302
1343 1343 1343
1388 1388 1388
1432 1432 1432
1472 1472 1472
1504 1504 1504
1531 1531 1531
1556 1556 1556
1579 1579 1579
1597 1597 1597
1361 1361 1361
1367 1367 1367
1375 1375 1375
1390 1390 1390
1417 1417 1417
1452 1452 1452
1492 1492 1492
1532 1532 1532
1573 1573 1573
1618 1618 1618
1662 1662 1662
1702 1702 1702
1734 1734 1734
1761 1761 1761
1786 1786 1786
1809 1809 1809
1828 1828 1828
1590 1590 1590
1596 1596 1596
1604 1604 1604
1619 1619 1619
1646 1646 1646
1681 1681 1681
1721 1721 1721
1761 1761 1761
1802 1802 1802
1847 1847 1847
1891 1891 1891
1931 1931 1931
1963 1963 1963
1990 1990 1990
2015 2015 2015
2038 2038 2038
2057 2057 2057
1795 1795 1795
1801 1801 1801
1809 1809 1809
1824 1824 1824
1851 1851 1851
1886 1886 1886
1925 1925 1925
1966 1966 1966
2007 2007 2007
2052 2052 2052
2096 2096 2096
2136 2136 2136
2168 2168 2168
2195 2195 2195
2220 2220 2220
2243 2243 2243
2261 2261 2261
1960 1960 1960
1967 1967 1967
1975 1975 1975
1990 1990 1990
2016 2016 2016
2052 2052 2052
2091 2091 2091
2132 2132 2132
2173 2173 2173
2217 2217 2217
2262 2262 2262
2302 2302 2302
2334 2334 2334
2361 2361 2361
2385 2385 2385
2409 2409 2409
2427 2427 2427
2100 2100 2100
2106 2106 2106
2114 2114 2114
2129 2129 2129
2156 2156 2156
2191 2191 2191
2231 2231 2231
2271 2271 2271
2312 2312 2312
2357 2357 2357
2401 2401 2401
2441 2441 2441
2473 2473 2473
2500 2500 2500
2525 2525 2525
2548 2548 2548
2567 2567 2567
2227 2227 2227
2233 2233 2233
2241 2241 2241
2256 2256 2256
2283 2283 2283
2318 2318 2318
2357 2357 2357
2398 2398 2398
2439 2439 2439
2484 2484 2484
2528 2528 2528
2568 2568 2568
2600 2600 2600
2627 2627 2627
2652 2652 2652
2675 2675 2675
2694 2694 2694
2347 2347 2347
2353 2353 2353
2361 2361 2361
2376 2376 2376
2403 2403 2403
2438 2438 2438
2478 2478 2478
2518 2518 2518
2559 2559 2559
2604 2604 2604
2648 2648 2648
2688 2688 2688
2720 2720 2720
2748 2748 2748
2772 2772 2772
2796 2796 2796
2814 2814 2814
2441 2441 2441
2448 2448 2448
2456 2456 2456
2471 2471 2471
2497 2497 2497
2533 2533 2533
2572 2572 2572
2613 2613 2613
2654 2654 2654
2698 2698 2698
2743 2743 2743
2783 2783 2783
2815 2815 2815
2842 2842 2842
2867 2867 2867
2890 2890 2890
2908 2908 2908
  77   77   77
  83   83   83
  91   91   91
 106  106  106
 133  133  133
 168  168  168
 207  207  207
 248  248  248
 289  289  289
 334  334  334
 378  378  378
 418  418  418
 450  450  450
 477  477  477
 502  502  502
 525  525  525
 544  544  544
 109  109  109
 115  115  115
 124  124  124
 138  138  138
 165  165  165
 201  201  201
 240  240  240
 280  280  280
 321  321  321
 366  366  366
 411  411  411
 450  450  450
 483  483  483
 510  510  510
 534  534  534
 558  558  558
