PS/3DLUTs/CH_Cold Blue.3dl
#Do not edit
# LUT created by Synthetic Aperture Color Finesse 3 3.0.6(275)
3DMESH
Mesh 4 12
0 64 128 192 256 320 384 448 512 576 640 704 768 832 896 960 1023 
 295    0   83
 295    0  393
 295    0  726
 295    0 1058
 295    0 1374
 295    0 1626
 295    0 1870
 295    0 2151
 295    0 2389
 295    0 2573
 295    0 2720
 295    0 2860
 295    0 3010
 295    0 3193
 295    0 3416
 295    0 3662
 295    0 3922
 295   89   91
 295   91  403
 295   92  736
 295   94 1068
 295   96 1382
 295   97 1633
 295   99 1878
 295  101 2159
 295  102 2396
 295  104 2578
 295  106 2724
 295  107 2864
 295  109 3015
 295  111 3199
 295  112 3423
 295  114 3670
 295  115 3930
 295  377  100
 295  379  413
 295  381  746
 295  382 1078
 295  384 1391
 295  385 1639
 295  387 1887
 295  389 2167
 295  390 2402
 295  392 2582
 295  394 2728
 295  395 2868
 295  397 3020
 295  399 3205
 295  400 3430
 295  402 3677
 295  404 3938
 295  666  109
 295  667  422
 295  669  756
 295  670 1087
 295  672 1400
 295  674 1645
 295  675 1895
 295  677 2174
 295  679 2408
 295  680 2587
 295  682 2733
 295  683 2873
 295  685 3025
 295  687 3211
 295  688 3437
 295  690 3685
 295  692 3946
 295  951  118
 295  953  432
 295  954  766
 295  956 1097
 295  958 1409
 295  959 1651
 295  961 1904
 295  963 2182
 295  964 2415
 295  966 2592
 295  967 2737
 295  969 2877
 295  971 3030
 295  972 3218
 295  974 3444
 295  975 3692
 295  977 3954
 295 1231  126
 295 1233  442
 295 1234  776
 295 1236 1107
 295 1237 1417
 295 1239 1657
 295 1241 1912
 295 1242 2190
 295 1244 2420
 295 1245 2596
 295 1247 2741
 295 1249 2881
 295 1250 3035
 295 1252 3224
 295 1253 3451
 295 1255 3700
 295 1256 3962
 295 1492  135
 295 1493  453
 295 1495  786
 295 1496 1117
 295 1498 1426
 295 1499 1664
 295 1500 1921
 295 1501 2198
 295 1503 2427
 295 1504 2601
 295 1506 2745
 295 1507 2886
 295 1508 3040
 295 1509 3230
 295 1511 3458
 295 1512 3708
 295 1513 3970
 295 1698  144
 295 1699  462
 295 1701  797
 295 1702 1126
 295 1703 1434
 295 1704 1670
 295 1706 1930
 295 1707 2205
 295 1708 2433
 295 1709 2605
 295 1710 2749
 295 1712 2890
 295 1713 3045
 295 1714 3237
 295 1716 3466
 295 1717 3715
 295 1718 3978
 295 1956  153
 295 1958  472
 295 1959  806
 295 1961 1136
 295 1962 1443
 295 1964 1677
 295 1966 1938
 295 1968 2213
 295 1969 2439
 295 1971 2610
 295 1972 2754
 295 1974 2894
 295 1976 3050
 295 1977 3243
 295 1979 3473
 295 1980 3723
 295 1982 3986
 295 2240  162
 295 2241  482
 295 2243  816
 295 2244 1146
 295 2246 1451
 295 2247 1683
 295 2249 1947
 295 2250 2221
 295 2252 2445
 295 2254 2615
 295 2255 2758
 295 2257 2899
 295 2258 3055
 295 2260 3250
 295 2261 3480
 295 2263 3731
 295 2265 3994
 295 2486  171
 295 2487  492
 295 2488  827
 295 2490 1155
 295 2491 1460
 295 2492 1690
 295 2493 1955
 295 2495 2228
 295 2496 2450
 295 2497 2619
 295 2498 2762
 295 2499 2903
 295 2501 3061
 295 2502 3256
 295 2503 3487
 295 2504 3739
 295 2505 4002
 295 2677  180
 295 2678  502
 295 2679  837
 295 2680 1165
 295 2681 1468
 295 2682 1697
 295 2683 1964
 295 2684 2236
 295 2685 2456
 295 2686 2624
 295 2687 2766
 295 2688 2908
 295 2689 3066
 295 2690 3263
 295 2691 3495
 295 2692 3747
 295 2693 4010
 295 2852  189
 295 2853  512
 295 2854  847
 295 2855 1175
 295 2856 1476
 295 2857 1704
 295 2859 1972
 295 2859 2243
 295 2861 2462
 295 2862 2628
 295 2863 2770
 295 2864 2912
 295 2865 3071
 295 2866 3269
 295 2867 3502
 295 2868 3754
 295 2869 4018
 295 3049  198
 295 3050  522
 295 3051  857
 295 3052 1184
 295 3054 1484
 295 3055 1710
 295 3056 1981
 295 3057 2251
 295 3059 2468
 295 3060 2633
 295 3061 2774
 295 3062 2916
 295 3064 3076
 295 3065 3276
 295 3066 3509
 295 3068 3762
 295 3069 4026
 295 3308  207
 295 3310  532
 295 3312  867
 295 3314 1194
 295 3315 1492
 295 3317 1717
 295 3318 1990
 295 3320 2258
 295 3322 2473
 295 3324 2637
 295 3325 2779
 295 3327 2921
 295 3329 3082
 295 3330 3282
 295 3332 3517
 295 3334 3770
 295 3335 4034
 295 3625  217
 295 3627  542
 295 3629  877
 295 3631 1203
 295 3633 1500
 295 3634 1725
 295 3636 1998
 295 3639 2265
 295 3640 2479
 295 3642 2641
 295 3644 2783
 295 3646 2925
 295 3648 3087
 295 3650 3289
 295 3651 3524
 295 3653 3778
 295 3656 4042
 295 3967  226
 295 3969  552
 295 3971  887
 295 3973 1213
 295 3975 1507
 295 3977 1732
 295 3979 2007
 295 3981 2272
 295 3983 2485
 295 3985 2646
 295 3987 2787
 295 3989 2930
 295 3991 3092
 295 3993 3296
 295 3995 3532
 295 3997 3785
 295 3999 4050
 295    0   88
 295    0  398
 295    0  731
 295    0 1063
 295    0 1378
 295    0 1629
 295    0 1874
 295    0 2155
 295    0 2393
 295    0 2575
 295    0 2722
 295    0 2862
 295    0 3013
 295    0 3196
 295    0 3419
 295    0 3665
 295    0 3926
 295   94   96
 295   95  408
 295   97  741
 295   98 1073
 295  100 1387
 295  102 1636
 295  103 1883
 295  105 2163
 295  107 2399
 295  108 2580
 295  110 2726
 295  112 2866
 295  113 3018
 295  115 3202
 295  116 3426
 295  118 3673
 295  120 3934
 295  381  104
 295  383  418
 295  385  751
 295  386 1083
 295  388 1396
 295  390 1642
 295  391 1891
 295  393 2171
 295  395 2405
 295  396 2585
 295  398 2731
 295  400 2871
 295  402 3023
 295  403 3208
 295  405 3433
 295  407 3681
 295  408 3942
 295  670  113
 295  672  427
 295  673  761
 295  675 1092
 295  676 1405
 295  678 1648
 295  680 1900
 295  681 2179
 295  683 2411
 295  685 2590
 295  686 2735
 295  688 2875
 295  689 3028
 295  691 3215
 295  693 3441
 295  694 3689
 295  696 3950
 295  955  122
 295  957  437
 295  959  772
 295  960 1102
 295  962 1413
 295  964 1654
 295  965 1908
 295  966 2186
 295  968 2418
 295  970 2594
 295  971 2739
 295  973 2879
 295  975 3033
 295  976 3221
 295  978 3448
 295  980 3696
 295  981 3958
 295 1235  130
 295 1237  448
 295 1238  781
 295 1240 1112
 295 1242 1422
 295 1243 1661
 295 1245 1917
 295 1246 2194
 295 1248 2424
 295 1250 2599
 295 1251 2743
 295 1253 2884
 295 1254 3037
 295 1256 3227
 295 1257 3455
 295 1259 3704
 295 1260 3966
 295 1496  139
 295 1497  457
 295 1498  792
 295 1500 1122
 295 1501 1430
 295 1502 1667
 295 1504 1925
 295 1505 2202
 295 1506 2430
 295 1508 2603
 295 1509 2747
 295 1510 2888
 295 1512 3043
 295 1513 3234
 295 1514 3462
 295 1516 3712
 295 1517 3974
 295 1702  148
 295 1703  467
 295 1704  802
 295 1705 1131
 295 1706 1439
 295 1708 1673
 295 1709 1934
 295 1710 2209
 295 1711 2436
 295 1713 2608
 295 1714 2751
 295 1715 2892
 295 1716 3048
 295 1718 3240
 295 1719 3469
 295 1720 3719
 295 1721 3982
 295 1960  157
 295 1962  477
 295 1963  812
 295 1965 1141
 295 1967 1447
 295 1968 1680
 295 1970 1943
 295 1972 2217
 295 1973 2442
 295 1975 2612
 295 1977 2756
 295 1978 2897
 295 1980 3053
 295 1981 3246
 295 1983 3477
 295 1985 3727
 295 1986 3990
 295 2244  166
 295 2245  487
 295 2247  822
 295 2248 1151
 295 2250 1456
 295 2251 1687
 295 2253 1951
 295 2255 2225
 295 2256 2448
 295 2258 2617
 295 2259 2760
 295 2261 2901
 295 2262 3058
 295 2264 3253
 295 2265 3484
 295 2267 3735
 295 2268 3998
 295 2489  175
 295 2490  497
 295 2492  832
 295 2493 1160
 295 2494 1464
 295 2495 1693
 295 2496 1960
 295 2498 2232
 295 2499 2453
 295 2500 2621
 295 2501 2764
 295 2502 2905
 295 2504 3063
 295 2505 3260
 295 2506 3491
 295 2507 3743
 295 2508 4006
 295 2680  185
 295 2681  507
 295 2681  842
 295 2682 1170
 295 2683 1472
 295 2684 1700
 295 2685 1968
 295 2687 2239
 295 2688 2459
 295 2688 2626
 295 2690 2768
 295 2691 2910
 295 2692 3069
 295 2692 3266
 295 2694 3499
 295 2695 3750
 295 2696 4014
 295 2855  194
 295 2856  517
 295 2857  852
 295 2858 1180
 295 2859 1480
 295 2860 1707
 295 2861 1977
 295 2862 2247
 295 2863 2465
 295 2864 2630
 295 2865 2772
 295 2866 2914
 295 2867 3074
 295 2868 3273
 295 2869 3506
 295 2870 3758
 295 2871 4022
 295 3052  203
 295 3053  527
 295 3054  862
 295 3056 1189
 295 3057 1488
 295 3058 1714
 295 3060 1986
 295 3061 2254
 295 3062 2471
 295 3063 2635
 295 3065 2777
 295 3066 2919
 295 3067 3079
 295 3068 3279
 295 3070 3513
 295 3071 3766
 295 3072 4030
 295 3313  212
 295 3314  537
 295 3316  872
 295 3318 1199
 295 3319 1496
 295 3321 1721
 295 3323 1994
 295 3324 2261
 295 3326 2476
 295 3328 2639
 295 3330 2781
 295 3331 2923
 295 3333 3084
 295 3335 3286
 295 3337 3520
 295 3338 3774
 295 3340 4038
 295 3630  222
 295 3632  547
 295 3633  882
 295 3635 1208
 295 3637 1504
 295 3640 1728
 295 3641 2003
 295 3643 2269
 295 3645 2482
 295 3647 2644
 295 3649 2785
 295 3651 2928
 295 3653 3090
 295 3655 3292
 295 3657 3528
 295 3659 3782
 295 3661 4046
 295 3973  231
 295 3975  557
 295 3976  892
 295 3979 1218
 295 3981 1511
 295 3982 1736
 295 3984 2011
 295 3986 2276
 295 3988 2487
 295 3990 2648
 295 3992 2789
 295 3994 2932
 295 3996 3095
 295 3998 3299
 295 4000 3535
 295 4002 3790
 295 4004 4054
 295    0   92
 295    0  403
 295    0  737
 295    0 1068
 295    0 1383
 295    0 1633
 295    0 1879
 295    0 2159
 295    0 2396
 295    0 2578
 295    0 2724
 295    0 2864
 295    0 3015
 295    0 3199
 295    0 3423
 295    0 3670
 295    0 3930
 295   98  100
 295  100  413
 295  101  747
 295  103 1078
 295  104 1392
 295  106 1639
 295  107 1887
 295  109 2167
 295  111 2402
 295  112 2582
 295  114 2729
 295  116 2868
 295  117 3020
 295  119 3205
 295  121 3430
 295  122 3677
 295  124 3938
 295  386  109
 295  388  423
 295  389  756
 295  391 1088
 295  393 1400
 295  394 1645
 295  396 1895
 295  398 2175
 295  399 2408
 295  401 2587
 295  402 2733
 295  404 2873
 295  405 3025
 295  407 3211
 295  409 3437
 295  410 3685
 295  412 3946
 295  674  118
 295  676  433
 295  677  766
 295  679 1097
 295  681 1409
 295  682 1651
 295  684 1904
 295  686 2183
 295  687 2415
 295  689 2592
 295  691 2737
 295  692 2877
 295  694 3030
 295  695 3218
 295  697 3444
 295  698 3692
 295  700 3954
 295  959  126
 295  961  442
 295  963  777
 295  964 1107
 295  966 1418
 295  967 1657
 295  969 1913
 295  971 2190
 295  972 2421
 295  974 2596
 295  976 2741
 295  977 2881
 295  979 3035
 295  981 3224
 295  982 3452
 295  984 3700
 295  985 3962
 295 1239  135
 295 1241  453
 295 1243  787
 295 1244 1117
 295 1246 1426
 295 1247 1664
 295 1249 1921
 295 1250 2198
 295 1252 2427
 295 1254 2601
 295 1255 2745
 295 1257 2886
 295 1258 3040
 295 1260 3230
 295 1261 3459
 295 1263 3708
 295 1265 3970
 295 1499  144
 295 1500  463
 295 1502  797
 295 1503 1127
 295 1504 1434
 295 1506 1670
 295 1507 1930
 295 1509 2206
 295 1510 2433
 295 1511 2606
 295 1512 2749
 295 1514 2890
 295 1515 3045
 295 1516 3237
 295 1518 3466
 295 1519 3716
 295 1520 3978
 295 1705  153
 295 1706  472
 295 1707  807
 295 1708 1136
 295 1710 1443
 295 1711 1677
 295 1712 1938
 295 1713 2213
 295 1715 2439
 295 1716 2610
 295 1717 2754
 295 1719 2894
 295 1720 3050
 295 1721 3244
 295 1722 3473
 295 1723 3723
 295 1725 3986
 295 1964  162
 295 1966  482
 295 1968  817
 295 1969 1146
 295 1971 1451
 295 1973 1683
 295 1974 1947
 295 1976 2221
 295 1978 2445
 295 1979 2615
 295 1981 2758
 295 1983 2899
 295 1984 3055
 295 1986 3250
 295 1987 3480
 295 1989 3731
 295 1991 3994
 295 2248  171
 295 2249  492
 295 2251  827
 295 2253 1156
 295 2254 1460
 295 2255 1690
 295 2257 1955
 295 2259 2228
 295 2260 2450
 295 2262 2619
 295 2263 2762
 295 2265 2903
 295 2266 3061
 295 2268 3256
 295 2269 3487
 295 2271 3739
 295 2272 4002
 295 2492  180
 295 2494  502
 295 2495  837
 295 2496 1165
 295 2497 1468
 295 2499 1697
 295 2500 1964
 295 2501 2236
 295 2502 2456
 295 2503 2624
 295 2504 2766
 295 2506 2908
 295 2507 3066
 295 2508 3263
 295 2509 3495
 295 2510 3747
 295 2512 4010
 295 2682  189
 295 2683  512
 295 2684  847
 295 2685 1175
 295 2686 1476
 295 2687 1704
 295 2688 1973
 295 2689 2243
 295 2690 2462
 295 2691 2628
 295 2692 2770
 295 2693 2912
 295 2694 3071
 295 2695 3269
 295 2696 3502
 295 2697 3754
 295 2698 4018
 295 2858  198
 295 2859  522
 295 2860  857
 295 2861 1184
 295 2862 1484
 295 2863 1711
 295 2864 1981
 295 2865 2251
 295 2866 2468
 295 2867 2633
 295 2868 2775
 295 2869 2916
 295 2870 3076
 295 2871 3276
 295 2872 3510
 295 2873 3762
 295 2874 4026
 295 3055  207
 295 3057  532
 295 3058  867
 295 3059 1194
 295 3060 1492
 295 3062 1718
 295 3063 1990
 295 3064 2258
 295 3065 2473
 295 3067 2637
 295 3068 2779
 295 3069 2921
 295 3070 3082
 295 3072 3283
 295 3073 3517
 295 3074 3770
 295 3076 4034
 295 3317  217
 295 3319  542
 295 3321  877
 295 3322 1203
 295 3324 1500
 295 3326 1725
 295 3327 1998
 295 3329 2265
 295 3331 2479
 295 3332 2641
 295 3334 2783
 295 3336 2925
 295 3338 3087
 295 3339 3289
 295 3341 3524
 295 3343 3778
 295 3345 4042
 295 3635  226
 295 3637  552
 295 3639  887
 295 3641 1213
 295 3643 1508
 295 3645 1732
 295 3646 2007
 295 3648 2272
 295 3650 2485
 295 3652 2646
 295 3654 2787
 295 3656 2930
 295 3658 3093
 295 3660 3296
 295 3662 3532
 295 3663 3785
 295 3665 4050
 295 3977  236
 295 3980  563
 295 3982  897
 295 3983 1223
 295 3985 1515
 295 3988 1740
 295 3989 2015
 295 3991 2280
 295 3993 2490
 295 3996 2650
 295 3997 2791
 295 3999 2934
 295 4001 3098
 295 4003 3303
 295 4005 3539
 295 4007 3793
 295 4009 4058
 295    0   96
 295    0  408
 295    0  741
 295    0 1073
 295    0 1387
 295    0 1636
 295    0 1883
 295    0 2163
 295    0 2399
 295    0 2580
 295    0 2726
 295    0 2866
 295    0 3018
 295    0 3202
 295    0 3426
 295    0 3674
 295    0 3934
 295  102  105
 295  104  418
 295  105  752
 295  107 1083
 295  109 1396
 295  110 1642
 295  112 1891
 295  113 2171
 295  115 2405
 295  117 2585
 295  118 2731
 295  120 2871
 295  122 3023
 295  123 3208
 295  125 3434
 295  127 3681
