PS/3DLUTs/CH_Cross Hard.3dl
#Do not edit
# LUT created by Synthetic Aperture Color Finesse 3 3.0.6(275)
3DMESH
Mesh 4 12
0 64 128 192 256 320 384 448 512 576 640 704 768 832 896 960 1023 
   0    0    0
   0    0    0
   0    0    0
   0    0    0
   0    0  170
   0    0  514
   0    0  917
   0    0 1337
   0    0 1766
   0    0 2254
   0    0 2737
   0    0 3146
   0    0 3435
   0    0 3644
   0    0 3814
   0    0 3965
   0    0 4095
   0    0    0
   0    0    0
   0    0    0
   0    0    0
   0    0  170
   0    0  514
   0    0  917
   0    0 1337
   0    0 1766
   0    0 2254
   0    0 2737
   0    0 3146
   0    0 3435
   0    0 3644
   0    0 3814
   0    0 3965
   0    0 4095
   0    0    0
   0    0    0
   0    0    0
   0    0    0
   0    0  170
   0    0  514
   0    0  917
   0    0 1337
   0    0 1766
   0    0 2254
   0    0 2737
   0    0 3146
   0    0 3435
   0    0 3644
   0    0 3814
   0    0 3965
   0    0 4095
   0    0    0
   0    0    0
   0    0    0
   0    0    0
   0    0  170
   0    0  514
   0    0  917
   0    0 1337
   0    0 1766
   0    0 2254
   0    0 2737
   0    0 3146
   0    0 3435
   0    0 3644
   0    0 3814
   0    0 3965
   0    0 4095
   0  133    0
   0  133    0
   0  133    0
   0  133    0
   0  133  170
   0  133  514
   0  133  917
   0  133 1337
   0  133 1766
   0  133 2254
   0  133 2737
   0  133 3146
   0  133 3435
   0  133 3644
   0  133 3814
   0  133 3965
   0  133 4095
   0  395    0
   0  395    0
   0  395    0
   0  395    0
   0  395  170
   0  395  514
   0  395  917
   0  395 1337
   0  395 1766
   0  395 2254
   0  395 2737
   0  395 3146
   0  395 3435
   0  395 3644
   0  395 3814
   0  395 3965
   0  395 4095
   0  713    0
   0  713    0
   0  713    0
   0  713    0
   0  713  170
   0  713  514
   0  713  917
   0  713 1337
   0  713 1766
   0  713 2254
   0  713 2737
   0  713 3146
   0  713 3435
   0  713 3644
   0  713 3814
   0  713 3965
   0  713 4095
   0 1073    0
   0 1073    0
   0 1073    0
   0 1073    0
   0 1073  170
   0 1073  514
   0 1073  917
   0 1073 1337
   0 1073 1766
   0 1073 2254
   0 1073 2737
   0 1073 3146
   0 1073 3435
   0 1073 3644
   0 1073 3814
   0 1073 3965
   0 1073 4095
   0 1491    0
   0 1491    0
   0 1491    0
   0 1491    0
   0 1491  170
   0 1491  514
   0 1491  917
   0 1491 1337
   0 1491 1766
   0 1491 2254
   0 1491 2737
   0 1491 3146
   0 1491 3435
   0 1491 3644
   0 1491 3814
   0 1491 3965
   0 1491 4095
   0 2007    0
   0 2007    0
   0 2007    0
   0 2007    0
   0 2007  170
   0 2007  514
   0 2007  917
   0 2007 1337
   0 2007 1766
   0 2007 2254
   0 2007 2737
   0 2007 3146
   0 2007 3435
   0 2007 3644
   0 2007 3814
   0 2007 3965
   0 2007 4095
   0 2536    0
   0 2536    0
   0 2536    0
   0 2536    0
   0 2536  170
   0 2536  514
   0 2536  917
   0 2536 1337
   0 2536 1766
   0 2536 2254
   0 2536 2737
   0 2536 3146
   0 2536 3435
   0 2536 3644
   0 2536 3814
   0 2536 3965
   0 2536 4095
   0 2991    0
   0 2991    0
   0 2991    0
   0 2991    0
   0 2991  170
   0 2991  514
   0 2991  917
   0 2991 1337
   0 2991 1766
   0 2991 2254
   0 2991 2737
   0 2991 3146
   0 2991 3435
   0 2991 3644
   0 2991 3814
   0 2991 3965
   0 2991 4095
   0 3314    0
   0 3314    0
   0 3314    0
   0 3314    0
   0 3314  170
   0 3314  514
   0 3314  917
   0 3314 1337
   0 3314 1766
   0 3314 2254
   0 3314 2737
   0 3314 3146
   0 3314 3435
   0 3314 3644
   0 3314 3814
   0 3314 3965
   0 3314 4095
   0 3557    0
   0 3557    0
   0 3557    0
   0 3557    0
   0 3557  170
   0 3557  514
   0 3557  917
   0 3557 1337
   0 3557 1766
   0 3557 2254
   0 3557 2737
   0 3557 3146
   0 3557 3435
   0 3557 3644
   0 3557 3814
   0 3557 3965
   0 3557 4095
   0 3760    0
   0 3760    0
   0 3760    0
   0 3760    0
   0 3760  170
   0 3760  514
   0 3760  917
   0 3760 1337
   0 3760 1766
   0 3760 2254
   0 3760 2737
   0 3760 3146
   0 3760 3435
   0 3760 3644
   0 3760 3814
   0 3760 3965
   0 3760 4095
   0 3945    0
   0 3945    0
   0 3945    0
   0 3945    0
   0 3945  170
   0 3945  514
   0 3945  917
   0 3945 1337
   0 3945 1766
   0 3945 2254
   0 3945 2737
   0 3945 3146
   0 3945 3435
   0 3945 3644
   0 3945 3814
   0 3945 3965
   0 3945 4095
   0 4095    0
   0 4095    0
   0 4095    0
   0 4095    0
   0 4095  170
   0 4095  514
   0 4095  917
   0 4095 1337
   0 4095 1766
   0 4095 2254
   0 4095 2737
   0 4095 3146
   0 4095 3435
   0 4095 3644
   0 4095 3814
   0 4095 3965
   0 4095 4095
   0    0    0
   0    0    0
   0    0    0
   0    0    0
   0    0  170
   0    0  514
   0    0  917
   0    0 1337
   0    0 1766
   0    0 2254
   0    0 2737
   0    0 3146
   0    0 3435
   0    0 3644
   0    0 3814
   0    0 3965
   0    0 4095
   0    0    0
   0    0    0
   0    0    0
   0    0    0
   0    0  170
   0    0  514
   0    0  917
   0    0 1337
   0    0 1766
   0    0 2254
   0    0 2737
   0    0 3146
   0    0 3435
   0    0 3644
   0    0 3814
   0    0 3965
   0    0 4095
   0    0    0
   0    0    0
   0    0    0
   0    0    0
   0    0  170
   0    0  514
   0    0  917
   0    0 1337
   0    0 1766
   0    0 2254
   0    0 2737
   0    0 3146
   0    0 3435
   0    0 3644
   0    0 3814
   0    0 3965
   0    0 4095
   0    0    0
   0    0    0
   0    0    0
   0    0    0
   0    0  170
   0    0  514
   0    0  917
   0    0 1337
   0    0 1766
   0    0 2254
   0    0 2737
   0    0 3146
   0    0 3435
   0    0 3644
   0    0 3814
   0    0 3965
   0    0 4095
   0  133    0
   0  133    0
   0  133    0
   0  133    0
   0  133  170
   0  133  514
   0  133  917
   0  133 1337
   0  133 1766
   0  133 2254
   0  133 2737
   0  133 3146
   0  133 3435
   0  133 3644
   0  133 3814
   0  133 3965
   0  133 4095
   0  395    0
   0  395    0
   0  395    0
   0  395    0
   0  395  170
   0  395  514
   0  395  917
   0  395 1337
   0  395 1766
   0  395 2254
   0  395 2737
   0  395 3146
   0  395 3435
   0  395 3644
   0  395 3814
   0  395 3965
   0  395 4095
   0  713    0
   0  713    0
   0  713    0
   0  713    0
   0  713  170
   0  713  514
   0  713  917
   0  713 1337
   0  713 1766
   0  713 2254
   0  713 2737
   0  713 3146
   0  713 3435
   0  713 3644
   0  713 3814
   0  713 3965
   0  713 4095
   0 1073    0
   0 1073    0
   0 1073    0
   0 1073    0
   0 1073  170
   0 1073  514
   0 1073  917
   0 1073 1337
   0 1073 1766
   0 1073 2254
   0 1073 2737
   0 1073 3146
   0 1073 3435
   0 1073 3644
   0 1073 3814
   0 1073 3965
   0 1073 4095
   0 1491    0
   0 1491    0
   0 1491    0
   0 1491    0
   0 1491  170
   0 1491  514
   0 1491  917
   0 1491 1337
   0 1491 1766
   0 1491 2254
   0 1491 2737
   0 1491 3146
   0 1491 3435
   0 1491 3644
   0 1491 3814
   0 1491 3965
   0 1491 4095
   0 2007    0
   0 2007    0
   0 2007    0
   0 2007    0
   0 2007  170
   0 2007  514
   0 2007  917
   0 2007 1337
   0 2007 1766
   0 2007 2254
   0 2007 2737
   0 2007 3146
   0 2007 3435
   0 2007 3644
   0 2007 3814
   0 2007 3965
   0 2007 4095
   0 2536    0
   0 2536    0
   0 2536    0
   0 2536    0
   0 2536  170
   0 2536  514
   0 2536  917
   0 2536 1337
   0 2536 1766
   0 2536 2254
   0 2536 2737
   0 2536 3146
   0 2536 3435
   0 2536 3644
   0 2536 3814
   0 2536 3965
   0 2536 4095
   0 2991    0
   0 2991    0
   0 2991    0
   0 2991    0
   0 2991  170
   0 2991  514
   0 2991  917
   0 2991 1337
   0 2991 1766
   0 2991 2254
   0 2991 2737
   0 2991 3146
   0 2991 3435
   0 2991 3644
   0 2991 3814
   0 2991 3965
   0 2991 4095
   0 3314    0
   0 3314    0
   0 3314    0
   0 3314    0
   0 3314  170
   0 3314  514
   0 3314  917
   0 3314 1337
   0 3314 1766
   0 3314 2254
   0 3314 2737
   0 3314 3146
   0 3314 3435
   0 3314 3644
   0 3314 3814
   0 3314 3965
   0 3314 4095
   0 3557    0
   0 3557    0
   0 3557    0
   0 3557    0
   0 3557  170
   0 3557  514
   0 3557  917
   0 3557 1337
   0 3557 1766
   0 3557 2254
   0 3557 2737
   0 3557 3146
   0 3557 3435
   0 3557 3644
   0 3557 3814
   0 3557 3965
   0 3557 4095
   0 3760    0
   0 3760    0
   0 3760    0
   0 3760    0
   0 3760  170
   0 3760  514
   0 3760  917
   0 3760 1337
   0 3760 1766
   0 3760 2254
   0 3760 2737
   0 3760 3146
   0 3760 3435
   0 3760 3644
   0 3760 3814
   0 3760 3965
   0 3760 4095
   0 3945    0
   0 3945    0
   0 3945    0
   0 3945    0
   0 3945  170
   0 3945  514
   0 3945  917
   0 3945 1337
   0 3945 1766
   0 3945 2254
   0 3945 2737
   0 3945 3146
   0 3945 3435
   0 3945 3644
   0 3945 3814
   0 3945 3965
   0 3945 4095
   0 4095    0
   0 4095    0
   0 4095    0
   0 4095    0
   0 4095  170
   0 4095  514
   0 4095  917
   0 4095 1337
   0 4095 1766
   0 4095 2254
   0 4095 2737
   0 4095 3146
   0 4095 3435
   0 4095 3644
   0 4095 3814
   0 4095 3965
   0 4095 4095
   0    0    0
   0    0    0
   0    0    0
   0    0    0
   0    0  170
   0    0  514
   0    0  917
   0    0 1337
   0    0 1766
   0    0 2254
   0    0 2737
   0    0 3146
   0    0 3435
   0    0 3644
   0    0 3814
   0    0 3965
   0    0 4095
   0    0    0
   0    0    0
   0    0    0
   0    0    0
   0    0  170
   0    0  514
   0    0  917
   0    0 1337
   0    0 1766
   0    0 2254
   0    0 2737
   0    0 3146
   0    0 3435
   0    0 3644
   0    0 3814
   0    0 3965
   0    0 4095
   0    0    0
   0    0    0
   0    0    0
   0    0    0
   0    0  170
   0    0  514
   0    0  917
   0    0 1337
   0    0 1766
   0    0 2254
   0    0 2737
   0    0 3146
   0    0 3435
   0    0 3644
   0    0 3814
   0    0 3965
   0    0 4095
   0    0    0
   0    0    0
   0    0    0
   0    0    0
   0    0  170
   0    0  514
   0    0  917
   0    0 1337
   0    0 1766
   0    0 2254
   0    0 2737
   0    0 3146
   0    0 3435
   0    0 3644
   0    0 3814
   0    0 3965
   0    0 4095
   0  133    0
   0  133    0
   0  133    0
   0  133    0
   0  133  170
   0  133  514
   0  133  917
   0  133 1337
   0  133 1766
   0  133 2254
   0  133 2737
   0  133 3146
   0  133 3435
   0  133 3644
   0  133 3814
   0  133 3965
   0  133 4095
   0  395    0
   0  395    0
   0  395    0
   0  395    0
   0  395  170
   0  395  514
   0  395  917
   0  395 1337
   0  395 1766
   0  395 2254
   0  395 2737
   0  395 3146
   0  395 3435
   0  395 3644
   0  395 3814
   0  395 3965
   0  395 4095
   0  713    0
   0  713    0
   0  713    0
   0  713    0
   0  713  170
   0  713  514
   0  713  917
   0  713 1337
   0  713 1766
   0  713 2254
   0  713 2737
   0  713 3146
   0  713 3435
   0  713 3644
   0  713 3814
   0  713 3965
   0  713 4095
   0 1073    0
   0 1073    0
   0 1073    0
   0 1073    0
   0 1073  170
   0 1073  514
   0 1073  917
   0 1073 1337
   0 1073 1766
   0 1073 2254
   0 1073 2737
   0 1073 3146
   0 1073 3435
   0 1073 3644
   0 1073 3814
   0 1073 3965
   0 1073 4095
   0 1491    0
   0 1491    0
   0 1491    0
   0 1491    0
   0 1491  170
   0 1491  514
   0 1491  917
   0 1491 1337
   0 1491 1766
   0 1491 2254
   0 1491 2737
   0 1491 3146
   0 1491 3435
   0 1491 3644
   0 1491 3814
   0 1491 3965
   0 1491 4095
   0 2007    0
   0 2007    0
   0 2007    0
   0 2007    0
   0 2007  170
   0 2007  514
   0 2007  917
   0 2007 1337
   0 2007 1766
   0 2007 2254
   0 2007 2737
   0 2007 3146
   0 2007 3435
   0 2007 3644
   0 2007 3814
   0 2007 3965
   0 2007 4095
   0 2536    0
   0 2536    0
   0 2536    0
   0 2536    0
   0 2536  170
   0 2536  514
   0 2536  917
   0 2536 1337
   0 2536 1766
   0 2536 2254
   0 2536 2737
   0 2536 3146
   0 2536 3435
   0 2536 3644
   0 2536 3814
   0 2536 3965
   0 2536 4095
   0 2991    0
   0 2991    0
   0 2991    0
   0 2991    0
   0 2991  170
   0 2991  514
   0 2991  917
   0 2991 1337
   0 2991 1766
   0 2991 2254
   0 2991 2737
   0 2991 3146
   0 2991 3435
   0 2991 3644
   0 2991 3814
   0 2991 3965
   0 2991 4095
   0 3314    0
   0 3314    0
   0 3314    0
   0 3314    0
   0 3314  170
   0 3314  514
   0 3314  917
   0 3314 1337
   0 3314 1766
   0 3314 2254
   0 3314 2737
   0 3314 3146
   0 3314 3435
   0 3314 3644
   0 3314 3814
   0 3314 3965
   0 3314 4095
   0 3557    0
   0 3557    0
   0 3557    0
   0 3557    0
   0 3557  170
   0 3557  514
   0 3557  917
   0 3557 1337
   0 3557 1766
   0 3557 2254
   0 3557 2737
   0 3557 3146
   0 3557 3435
   0 3557 3644
   0 3557 3814
   0 3557 3965
   0 3557 4095
   0 3760    0
   0 3760    0
   0 3760    0
   0 3760    0
   0 3760  170
   0 3760  514
   0 3760  917
   0 3760 1337
   0 3760 1766
   0 3760 2254
   0 3760 2737
   0 3760 3146
   0 3760 3435
   0 3760 3644
   0 3760 3814
   0 3760 3965
   0 3760 4095
   0 3945    0
   0 3945    0
   0 3945    0
   0 3945    0
   0 3945  170
   0 3945  514
   0 3945  917
   0 3945 1337
   0 3945 1766
   0 3945 2254
   0 3945 2737
   0 3945 3146
   0 3945 3435
   0 3945 3644
   0 3945 3814
   0 3945 3965
   0 3945 4095
   0 4095    0
   0 4095    0
   0 4095    0
   0 4095    0
   0 4095  170
   0 4095  514
   0 4095  917
   0 4095 1337
   0 4095 1766
   0 4095 2254
   0 4095 2737
   0 4095 3146
   0 4095 3435
   0 4095 3644
   0 4095 3814
   0 4095 3965
   0 4095 4095
   0    0    0
   0    0    0
   0    0    0
   0    0    0
   0    0  170
   0    0  514
   0    0  917
   0    0 1337
   0    0 1766
   0    0 2254
   0    0 2737
   0    0 3146
   0    0 3435
   0    0 3644
   0    0 3814
   0    0 3965
   0    0 4095
   0    0    0
   0    0    0
   0    0    0
   0    0    0
   0    0  170
   0    0  514
   0    0  917
   0    0 1337
   0    0 1766
   0    0 2254
   0    0 2737
   0    0 3146
   0    0 3435
   0    0 3644
   0    0 3814
   0    0 3965
