PS/3DLUTs/CH_Fashion.3dl
#Do not edit
# LUT created by Synthetic Aperture Color Finesse 3 3.0.6(275)
3DMESH
Mesh 4 12
0 64 128 192 256 320 384 448 512 576 640 704 768 832 896 960 1023 
   0    0  198
   0    0  448
   0    0  642
   0    0  813
   0    0  974
   0    0 1129
   0    0 1276
   0    0 1408
   0    0 1524
   0    0 1700
   0    0 1949
   0    0 2175
   0    0 2387
   0    0 2593
   0    0 2795
   0    0 2994
   0   10 3172
   0  112   73
   0  123  305
   0  158  572
   0  186  788
   0  212  990
   0  237 1181
   0  263 1358
   0  290 1505
   0  318 1672
   0  345 1904
   0  370 2126
   0  395 2334
   0  417 2537
   0  437 2736
   0  457 2933
   0  474 3116
   0  491 3279
   0  539  154
   0  577  445
   0  604  679
   0  627  886
   0  648 1082
   0  667 1266
   0  685 1428
   0  703 1574
   0  719 1770
   0  735 2006
   0  751 2218
   0  766 2422
   0  781 2622
   0  795 2819
   0  809 3012
   0  823 3185
   0  837 3342
   0  874  219
   0  908  524
   0  933  750
   0  956  953
   0  977 1146
   0  997 1325
   0 1017 1477
   0 1035 1632
   0 1053 1852
   0 1071 2079
   0 1088 2287
   0 1105 2489
   0 1121 2687
   0 1137 2884
   0 1153 3071
   0 1168 3237
   0 1183 3391
   0 1221  274
   0 1255  585
   0 1281  805
   0 1305 1007
   0 1326 1197
   0 1347 1371
   0 1366 1517
   0 1384 1687
   0 1402 1919
   0 1420 2138
   0 1437 2344
   0 1453 2545
   0 1469 2741
   0 1484 2937
   0 1499 3118
   0 1514 3279
   0 1529 3432
   0 1562  325
   0 1595  634
   0 1620  852
   0 1643 1052
   0 1664 1240
   0 1684 1408
   0 1703 1552
   0 1721 1739
   0 1739 1974
   0 1756 2188
   0 1772 2393
   0 1788 2592
   0 1804 2788
   0 1819 2983
   0 1833 3158
   0 1848 3316
   0 1862 3467
   0 1891  374
   0 1920  676
   0 1942  893
   0 1962 1091
   0 1980 1277
   0 1997 1438
   0 2012 1585
   0 2027 1788
   0 2041 2022
   0 2055 2232
   0 2068 2435
   0 2081 2634
   0 2093 2830
   0 2105 3021
   0 2117 3192
   0 2129 3348
   0 2141 3498
   0 2164  418
   0 2188  712
   0 2207  929
   0 2225 1126
   0 2241 1310
   0 2256 1465
   0 2271 1617
   0 2285 1833
   0 2299 2063
   0 2312 2271
   0 2326 2473
   0 2338 2671
   0 2351 2867
   0 2364 3055
   0 2376 3222
   0 2388 3376
   0 2400 3526
   0 2423  455
   0 2448  744
   0 2468  962
   0 2485 1159
   0 2502 1339
   0 2518 1489
   0 2534 1649
   0 2548 1874
   0 2562 2099
   0 2576 2306
   0 2589 2507
   0 2602 2704
   0 2615 2900
   0 2627 3085
   0 2639 3249
   0 2651 3402
   0 2663 3551
   0 2685  487
   0 2709  773
   0 2728  990
   0 2746 1188
   0 2763 1365
   0 2779 1511
   0 2794 1680
   0 2808 1912
   0 2822 2132
   0 2835 2338
   0 2849 2539
   0 2861 2735
   0 2874 2931
   0 2886 3112
   0 2898 3273
   0 2910 3425
   0 2922 3575
   0 2942  515
   0 2966  799
   0 2985 1016
   0 3002 1214
   0 3018 1388
   0 3034 1532
   0 3049 1711
   0 3063 1946
   0 3076 2162
   0 3090 2368
   0 3103 2567
   0 3115 2763
   0 3128 2958
   0 3140 3136
   0 3151 3295
   0 3163 3447
   0 3175 3596
   0 3194  539
   0 3218  823
   0 3236 1040
   0 3253 1237
   0 3269 1409
   0 3285 1553
   0 3300 1740
   0 3314 1977
   0 3328 2190
   0 3341 2395
   0 3354 2594
   0 3367 2790
   0 3380 2983
   0 3392 3158
   0 3404 3316
   0 3416 3466
   0 3428 3616
   0 3447  562
   0 3471  845
   0 3490 1062
   0 3507 1258
   0 3524 1427
   0 3539 1574
   0 3555 1770
   0 3570 2005
   0 3584 2216
   0 3598 2420
   0 3611 2618
   0 3624 2814
   0 3637 3007
   0 3649 3178
   0 3662 3335
   0 3674 3485
   0 3686 3634
   0 3705  583
   0 3729  865
   0 3748 1082
   0 3765 1277
   0 3782 1443
   0 3797 1593
   0 3812 1800
   0 3828 2031
   0 3842 2240
   0 3856 2443
   0 3869 2641
   0 3882 2837
   0 3894 3027
   0 3906 3197
   0 3919 3352
   0 3931 3502
   0 3942 3651
   0 3961  602
   0 3986  884
   0 4004 1100
   0 4021 1295
   0 4037 1458
   0 4052 1612
   0 4066 1827
   0 4081 2055
   0 4095 2263
   0 4095 2465
   0 4095 2663
   0 4095 2858
   0 4095 3047
   0 4095 3214
   2 4095 3364
  26 4095 3474
  49 4085 3579
   0 4095  620
   0 4095  901
   0 4095 1118
   0 4095 1311
   0 4095 1471
   0 4095 1630
   0 4095 1852
   0 4095 2080
   0 4095 2285
   6 4095 2481
  29 4095 2652
  53 4095 2816
  76 4095 2965
  98 4095 3091
 118 4095 3202
 138 4095 3306
 158 4073 3406
   0 4095  637
   0 4095  917
   2 4095 1134
  17 4095 1326
  31 4095 1479
  46 4095 1635
  64 4095 1847
  84 4095 2051
 105 4095 2229
 125 4095 2396
 145 4095 2555
 166 4095 2707
 186 4095 2845
 205 4095 2961
 223 4095 3066
 240 4089 3164
 258 4058 3259
  81    0  158
  41    0  390
  12    0  591
   0    0  762
   0    0  923
   0    0 1078
   0    0 1250
   0    0 1424
   0    0 1575
   0    0 1779
   0    0 2020
   0    0 2235
   3    0 2442
   8    0 2644
  12    0 2845
  16    1 3039
  19   14 3210
   0  115   97
   0  152  372
   0  178  622
   1  202  833
   8  225 1031
  13  248 1219
  17  271 1390
  20  296 1534
  22  320 1713
  24  345 1949
  26  368 2166
  27  391 2372
  27  411 2573
  28  431 2771
  27  449 2968
  27  465 3146
  26  481 3306
  14  547  185
  20  581  484
  23  605  712
  25  626  918
  26  645 1112
  27  663 1294
  27  680 1451
  27  696 1600
  27  711 1808
  26  726 2041
  25  741 2250
  23  755 2453
  22  769 2652
  20  782 2849
  18  796 3040
  16  809 3209
  13  822 3364
  27  870  246
  27  901  554
  27  924  777
  26  946  979
  25  966 1171
  23  984 1348
  21 1003 1496
  19 1020 1658
  17 1037 1885
  14 1053 2108
  11 1069 2315
   9 1085 2516
   6 1101 2713
   2 1116 2910
   0 1131 3094
   0 1146 3258
   0 1160 3411
  24 1207  299
  21 1239  610
  18 1265  829
  15 1287 1029
  12 1307 1219
   9 1326 1390
   5 1345 1534
   2 1363 1713
   0 1380 1947
   0 1396 2164
   0 1412 2369
   0 1428 2569
   0 1443 2765
   0 1458 2960
   0 1473 3138
   0 1487 3298
   0 1501 3449
  12 1543  351
   6 1574  656
   1 1598  873
   0 1619 1072
   0 1639 1260
   0 1659 1424
   0 1677 1569
   0 1694 1764
   0 1711 2000
   0 1727 2211
   0 1744 2415
   0 1759 2614
   0 1774 2810
   0 1789 3003
   0 1803 3176
   0 1817 3333
   0 1831 3483
   0 1868  398
   0 1896  695
   0 1918  913
   0 1937 1110
   0 1955 1295
   0 1971 1453
   0 1987 1602
   0 2001 1812
   0 2015 2044
   0 2029 2253
   0 2042 2456
   0 2054 2654
   0 2066 2850
   0 2078 3040
   0 2090 3208
   0 2101 3363
   0 2112 3513
   0 2141  439
   0 2164  729
   0 2182  947
   0 2199 1144
   0 2215 1325
   0 2230 1478
   0 2244 1635
   0 2257 1856
   0 2271 2083
   0 2284 2290
   0 2296 2492
   0 2308 2689
   0 2321 2885
   0 2333 3072
   0 2344 3237
   0 2356 3390
   0 2368 3540
   0 2395  473
   0 2419  760
   0 2438  978
   0 2455 1175
   0 2472 1353
   0 2488 1501
   0 2502 1667
   0 2517 1895
   0 2530 2117
   0 2543 2324
   0 2556 2525
   0 2569 2722
   0 2581 2918
   0 2593 3100
   0 2605 3263
   0 2617 3415
   0 2628 3564
   0 2655  503
   0 2679  788
   0 2697 1005
   0 2714 1203
   0 2730 1379
   0 2746 1523
   0 2760 1697
   0 2774 1931
   0 2788 2149
   0 2801 2355
   0 2814 2555
   0 2826 2751
   0 2838 2947
   0 2850 3126
   0 2862 3286
   0 2873 3437
   0 2885 3587
   0 2910  529
   0 2933  813
   0 2951 1030
   0 2968 1227
   0 2983 1400
   0 2999 1544
   0 3013 1728
   0 3027 1964
   0 3041 2179
   0 3054 2383
   0 3066 2583
   0 3078 2779
   0 3090 2973
   0 3102 3149
   0 3114 3307
   0 3125 3458
   0 3136 3608
   0 3160  553
   0 3182  836
   0 3200 1053
   0 3217 1250
   0 3232 1419
   0 3247 1566
   0 3262 1757
   0 3276 1993
   0 3289 2206
   0 3302 2409
   0 3315 2608
   0 3328 2804
   0 3340 2997
   0 3352 3170
   0 3363 3327
   0 3375 3477
   0 3387 3627
   0 3409  575
   0 3433  857
   0 3451 1074
   0 3468 1270
   0 3484 1436
   0 3499 1585
   0 3514 1787
   0 3529 2021
   0 3543 2231
   0 3556 2434
   0 3569 2632
   0 3582 2828
   0 3594 3019
   0 3607 3189
   0 3619 3345
   0 3630 3495
   0 3642 3644
   0 3665  595
   0 3688  876
   0 3707 1093
   0 3723 1288
   0 3739 1452
   0 3755 1605
   0 3769 1816
   0 3784 2046
   0 3798 2254
   0 3812 2456
   0 3825 2654
   0 3838 2850
   0 3850 3039
   0 3862 3208
   0 3874 3362
   0 3886 3511
   0 3898 3661
   0 3919  613
   0 3943  894
   0 3961 1111
   0 3978 1305
   0 3993 1466
   0 4008 1623
   0 4023 1842
   0 4037 2070
   0 4051 2276
   0 4064 2478
   0 4077 2675
   0 4089 2871
   0 4095 3058
   0 4095 3224
   0 4095 3378
   6 4095 3517
  29 4084 3623
   0 4095  631
   0 4095  911
   0 4095 1128
   0 4095 1321
   0 4095 1479
   0 4095 1641
   0 4095 1867
   0 4095 2093
   0 4095 2298
   0 4095 2498
   8 4095 2686
  32 4095 2852
  56 4095 3001
  78 4095 3127
  99 4095 3239
 119 4095 3344
 140 4073 3444
   0 4095  646
   0 4095  926
   0 4095 1143
   0 4095 1335
   9 4095 1490
  24 4095 1651
  43 4095 1869
  64 4095 2074
  84 4095 2256
 104 4095 2424
 125 4095 2584
 147 4095 2738
 167 4095 2876
 187 4095 2993
 205 4095 3098
 223 4090 3197
 240 4058 3292
 270    0  118
 209    0  331
 170    0  539
 138    0  712
 163    0  925
 182    0 1125
 197    0 1310
 211    0 1466
 225    0 1622
 242    0 1842
 257    0 2073
 268    0 2284
 279    0 2489
 289    0 2689
 297    0 2888
 304    7 3077
 309   18 3244
 214  147  138
 242  175  425
 262  196  663
 276  217  870
 288  237 1066
 298  257 1252
 305  279 1417
 312  301 1562
 317  323 1753
 321  345 1989
 324  367 2202
 326  387 2407
 328  406 2607
 328  424 2804
 329  441 2999
 328  457 3173
 327  472 3331
 301  555  213
 312  584  517
 318  606  742
 323  625  946
 326  643 1140
 328  659 1320
 329  674 1472
 328  689 1626
 328  704 1844
 326  718 2072
 325  731 2280
 322  745 2483
 320  757 2681
 316  770 2877
 313  782 3065
 309  795 3232
 305  807 3386
 327  866  271
 329  894  581
 328  916  802
 327  936 1004
 324  954 1194
 322  972 1369
 318  989 1514
 314 1006 1684
 310 1021 1915
 305 1037 2135
 301 1052 2341
 296 1067 2542
 290 1081 2738
 285 1096 2935
 279 1110 3116
 274 1124 3277
 268 1137 3430
 323 1195  325
 318 1225  634
 313 1248  851
 308 1269 1051
 302 1289 1240
 296 1307 1407
 290 1325 1551
 284 1341 1738
 278 1358 1974
 271 1373 2188
 265 1389 2392
 260 1404 2592
 254 1418 2788
 248 1433 2982
 242 1447 3158
 236 1461 3315
 230 1474 3466
 301 1524  375
 291 1553  677
 283 1576  894
 276 1597 1092
 269 1616 1278
 262 1634 1439
 255 1651 1586
 248 1668 1789
 242 1684 2023
 235 1700 2233
 229 1715 2436
 223 1730 2635
 217 1745 2831
 211 1759 3022
 205 1773 3193
 199 1787 3348
 194 1800 3499
 268 1845  420
 257 1872  714
 249 1893  931
 241 1912 1128
 233 1930 1311
 226 1946 1466
 219 1961 1619
 213 1975 1835
 206 1989 2065
 200 2002 2273
 194 2015 2475
 187 2027 2673
 181 2039 2869
 175 2051 3057
 169 2062 3224
 163 2073 3378
 157 2084 3527
 234 2118  458
 223 2141  746
 214 2158  964
 207 2174 1162
 199 2189 1341
 192 2204 1491
 185 2217 1652
 178 2230 1877
 171 2243 2102
 164 2255 2309
 158 2267 2510
 151 2279 2707
 145 2291 2903
 138 2302 3087
 132 2314 3251
 126 2325 3404
 119 2336 3553
 201 2369  490
 189 2392  776
 181 2410  993
 172 2426 1191
 164 2442 1367
 157 2457 1513
 149 2472 1684
 142 2485 1915
 135 2499 2135
 128 2511 2341
 122 2524 2542
 115 2536 2738
 108 2548 2934
 101 2560 3115
  94 2571 3276
  88 2583 3428
  81 2594 3577
 167 2625  518
 155 2648  802
 146 2666 1020
 137 2682 1217
 129 2698 1391
 121 2713 1535
 114 2727 1715
 106 2741 1950
  99 2754 2166
  91 2767 2371
  84 2779 2571
  77 2791 2767
  70 2803 2962
  63 2815 3139
  56 2826 3298
  49 2837 3449
  42 2848 3599
 132 2877  543
 120 2900  826
 110 2918 1043
 101 2934 1240
  93 2949 1411
  85 2964 1557
  77 2978 1745
  69 2992 1981
  61 3005 2194
  54 3018 2398
  46 3030 2598
  39 3042 2794
  31 3054 2987
  24 3065 3161
  16 3076 3319
   9 3087 3469
   1 3098 3619
  97 3125  566
  84 3148  848
  74 3165 1065
  65 3181 1261
  56 3196 1429
  47 3210 1577
  39 3224 1774
  31 3238 2009
  23 3251 2220
  14 3264 2424
   7 3276 2622
   0 3288 2818
   0 3300 3010
   0 3312 3182
   0 3323 3338
   0 3334 3487
   0 3346 3637
  61 3372  587
  47 3395  868
  37 3413 1086
  27 3429 1281
  18 3444 1446
   9 3459 1597
   0 3473 1805
   0 3488 2036
   0 3501 2245
   0 3514 2447
   0 3527 2645
   0 3539 2841
   0 3552 3031
   0 3564 3200
   0 3575 3355
   0 3587 3505
   0 3599 3654
  23 3624  606
   9 3648  887
   0 3666 1104
   0 3682 1299
   0 3697 1460
   0 3712 1615
   0 3726 1832
   0 3741 2060
   0 3755 2268
   0 3768 2469
   0 3781 2667
   0 3793 2863
   0 3806 3051
   0 3818 3217
   0 3829 3371
   0 3841 3521
   0 3852 3670
   0 3878  624
   0 3900  904
   0 3918 1121
   0 3935 1315
   0 3950 1474
   0 3964 1634
   0 3978 1857
   0 3992 2084
   0 4007 2289
   0 4020 2490
   0 4033 2687
   0 4045 2883
   0 4057 3069
   0 4068 3233
   0 4080 3387
   0 4091 3536
   9 4082 3668
   0 4095  640
   0 4095  921
   0 4095 1137
   0 4095 1330
   0 4095 1487
   0 4095 1651
   0 4095 1880
   0 4095 2106
   0 4095 2310
   0 4095 2510
   0 4095 2706
  11 4095 2888
  35 4095 3038
  58 4095 3165
  79 4095 3277
 100 4095 3383
 121 4072 3484
   0 4095  656
   0 4095  936
   0 4095 1152
   0 4095 1344
   0 4095 1499
   1 4095 1667
  21 4095 1891
  42 4095 2099
  63 4095 2283
  84 4095 2453
 105 4095 2615
 127 4095 2769
 148 4095 2908
 167 4095 3025
 186 4095 3131
 204 4092 3231
 223 4059 3327
 532    0   80
 486    0  288
 517    0  561
 534    0  779
 546    0  981
 556    0 1173
 565    0 1351
 572    0 1500
 578    0 1665
 584    0 1895
 590    0 2119
 595    0 2327
 601    0 2530
 606    0 2729
 611    9 2927
 618   18 3111
 627   26 3274
 574  165  171
 584  194  467
 592  217  698
 599  238  904
 606  258 1098
 612  278 1281
 621  297 1441
 631  313 1588
 637  332 1791
 641  350 2025
 645  369 2235
 648  387 2439
 650  404 2639
 651  420 2836
 652  435 3027
 652  450 3198
