PS/3DLUTs/CH_Faded.3dl
#Do not edit
# LUT created by Synthetic Aperture Color Finesse 3 3.0.6(275)
3DMESH
Mesh 4 12
0 64 128 192 256 320 384 448 512 576 640 704 768 832 896 960 1023 
 646  455  407
 646  455  481
 646  455  558
 646  455  651
 646  455  771
 646  455  910
 646  455 1064
 646  455 1236
 646  455 1439
 646  455 1676
 646  455 1930
 646  455 2199
 646  455 2480
 646  455 2745
 646  455 2961
 646  455 3142
 646  455 3313
 646  554  407
 646  554  481
 646  554  558
 646  554  651
 646  554  771
 646  554  910
 646  554 1064
 646  554 1236
 646  554 1439
 646  554 1676
 646  554 1930
 646  554 2199
 646  554 2480
 646  554 2745
 646  554 2961
 646  554 3142
 646  554 3313
 646  658  407
 646  658  481
 646  658  558
 646  658  651
 646  658  771
 646  658  910
 646  658 1064
 646  658 1236
 646  658 1439
 646  658 1676
 646  658 1930
 646  658 2199
 646  658 2480
 646  658 2745
 646  658 2961
 646  658 3142
 646  658 3313
 646  780  407
 646  780  481
 646  780  558
 646  780  651
 646  780  771
 646  780  910
 646  780 1064
 646  780 1236
 646  780 1439
 646  780 1676
 646  780 1930
 646  780 2199
 646  780 2480
 646  780 2745
 646  780 2961
 646  780 3142
 646  780 3313
 646  915  407
 646  915  481
 646  915  558
 646  915  651
 646  915  771
 646  915  910
 646  915 1064
 646  915 1236
 646  915 1439
 646  915 1676
 646  915 1930
 646  915 2199
 646  915 2480
 646  915 2745
 646  915 2961
 646  915 3142
 646  915 3313
 646 1064  407
 646 1064  481
 646 1064  558
 646 1064  651
 646 1064  771
 646 1064  910
 646 1064 1064
 646 1064 1236
 646 1064 1439
 646 1064 1676
 646 1064 1930
 646 1064 2199
 646 1064 2480
 646 1064 2745
 646 1064 2961
 646 1064 3142
 646 1064 3313
 646 1256  407
 646 1256  481
 646 1256  558
 646 1256  651
 646 1256  771
 646 1256  910
 646 1256 1064
 646 1256 1236
 646 1256 1439
 646 1256 1676
 646 1256 1930
 646 1256 2199
 646 1256 2480
 646 1256 2745
 646 1256 2961
 646 1256 3142
 646 1256 3313
 646 1511  407
 646 1511  481
 646 1511  558
 646 1511  651
 646 1511  771
 646 1511  910
 646 1511 1064
 646 1511 1236
 646 1511 1439
 646 1511 1676
 646 1511 1930
 646 1511 2199
 646 1511 2480
 646 1511 2745
 646 1511 2961
 646 1511 3142
 646 1511 3313
 646 1820  407
 646 1820  481
 646 1820  558
 646 1820  651
 646 1820  771
 646 1820  910
 646 1820 1064
 646 1820 1236
 646 1820 1439
 646 1820 1676
 646 1820 1930
 646 1820 2199
 646 1820 2480
 646 1820 2745
 646 1820 2961
 646 1820 3142
 646 1820 3313
 646 2152  407
 646 2152  481
 646 2152  558
 646 2152  651
 646 2152  771
 646 2152  910
 646 2152 1064
 646 2152 1236
 646 2152 1439
 646 2152 1676
 646 2152 1930
 646 2152 2199
 646 2152 2480
 646 2152 2745
 646 2152 2961
 646 2152 3142
 646 2152 3313
 646 2483  407
 646 2483  481
 646 2483  558
 646 2483  651
 646 2483  771
 646 2483  910
 646 2483 1064
 646 2483 1236
 646 2483 1439
 646 2483 1676
 646 2483 1930
 646 2483 2199
 646 2483 2480
 646 2483 2745
 646 2483 2961
 646 2483 3142
 646 2483 3313
 646 2786  407
 646 2786  481
 646 2786  558
 646 2786  651
 646 2786  771
 646 2786  910
 646 2786 1064
 646 2786 1236
 646 2786 1439
 646 2786 1676
 646 2786 1930
 646 2786 2199
 646 2786 2480
 646 2786 2745
 646 2786 2961
 646 2786 3142
 646 2786 3313
 646 3063  407
 646 3063  481
 646 3063  558
 646 3063  651
 646 3063  771
 646 3063  910
 646 3063 1064
 646 3063 1236
 646 3063 1439
 646 3063 1676
 646 3063 1930
 646 3063 2199
 646 3063 2480
 646 3063 2745
 646 3063 2961
 646 3063 3142
 646 3063 3313
 646 3304  407
 646 3304  481
 646 3304  558
 646 3304  651
 646 3304  771
 646 3304  910
 646 3304 1064
 646 3304 1236
 646 3304 1439
 646 3304 1676
 646 3304 1930
 646 3304 2199
 646 3304 2480
 646 3304 2745
 646 3304 2961
 646 3304 3142
 646 3304 3313
 646 3491  407
 646 3491  481
 646 3491  558
 646 3491  651
 646 3491  771
 646 3491  910
 646 3491 1064
 646 3491 1236
 646 3491 1439
 646 3491 1676
 646 3491 1930
 646 3491 2199
 646 3491 2480
 646 3491 2745
 646 3491 2961
 646 3491 3142
 646 3491 3313
 646 3626  407
 646 3626  481
 646 3626  558
 646 3626  651
 646 3626  771
 646 3626  910
 646 3626 1064
 646 3626 1236
 646 3626 1439
 646 3626 1676
 646 3626 1930
 646 3626 2199
 646 3626 2480
 646 3626 2745
 646 3626 2961
 646 3626 3142
 646 3626 3313
 646 3743  407
 646 3743  481
 646 3743  558
 646 3743  651
 646 3743  771
 646 3743  910
 646 3743 1064
 646 3743 1236
 646 3743 1439
 646 3743 1676
 646 3743 1930
 646 3743 2199
 646 3743 2480
 646 3743 2745
 646 3743 2961
 646 3743 3142
 646 3743 3313
 716  455  407
 716  455  481
 716  455  558
 716  455  651
 716  455  771
 716  455  910
 716  455 1064
 716  455 1236
 716  455 1439
 716  455 1676
 716  455 1930
 716  455 2199
 716  455 2480
 716  455 2745
 716  455 2961
 716  455 3142
 716  455 3313
 716  554  407
 716  554  481
 716  554  558
 716  554  651
 716  554  771
 716  554  910
 716  554 1064
 716  554 1236
 716  554 1439
 716  554 1676
 716  554 1930
 716  554 2199
 716  554 2480
 716  554 2745
 716  554 2961
 716  554 3142
 716  554 3313
 716  658  407
 716  658  481
 716  658  558
 716  658  651
 716  658  771
 716  658  910
 716  658 1064
 716  658 1236
 716  658 1439
 716  658 1676
 716  658 1930
 716  658 2199
 716  658 2480
 716  658 2745
 716  658 2961
 716  658 3142
 716  658 3313
 716  780  407
 716  780  481
 716  780  558
 716  780  651
 716  780  771
 716  780  910
 716  780 1064
 716  780 1236
 716  780 1439
 716  780 1676
 716  780 1930
 716  780 2199
 716  780 2480
 716  780 2745
 716  780 2961
 716  780 3142
 716  780 3313
 716  915  407
 716  915  481
 716  915  558
 716  915  651
 716  915  771
 716  915  910
 716  915 1064
 716  915 1236
 716  915 1439
 716  915 1676
 716  915 1930
 716  915 2199
 716  915 2480
 716  915 2745
 716  915 2961
 716  915 3142
 716  915 3313
 716 1064  407
 716 1064  481
 716 1064  558
 716 1064  651
 716 1064  771
 716 1064  910
 716 1064 1064
 716 1064 1236
 716 1064 1439
 716 1064 1676
 716 1064 1930
 716 1064 2199
 716 1064 2480
 716 1064 2745
 716 1064 2961
 716 1064 3142
 716 1064 3313
 716 1256  407
 716 1256  481
 716 1256  558
 716 1256  651
 716 1256  771
 716 1256  910
 716 1256 1064
 716 1256 1236
 716 1256 1439
 716 1256 1676
 716 1256 1930
 716 1256 2199
 716 1256 2480
 716 1256 2745
 716 1256 2961
 716 1256 3142
 716 1256 3313
 716 1511  407
 716 1511  481
 716 1511  558
 716 1511  651
 716 1511  771
 716 1511  910
 716 1511 1064
 716 1511 1236
 716 1511 1439
 716 1511 1676
 716 1511 1930
 716 1511 2199
 716 1511 2480
 716 1511 2745
 716 1511 2961
 716 1511 3142
 716 1511 3313
 716 1820  407
 716 1820  481
 716 1820  558
 716 1820  651
 716 1820  771
 716 1820  910
 716 1820 1064
 716 1820 1236
 716 1820 1439
 716 1820 1676
 716 1820 1930
 716 1820 2199
 716 1820 2480
 716 1820 2745
 716 1820 2961
 716 1820 3142
 716 1820 3313
 716 2152  407
 716 2152  481
 716 2152  558
 716 2152  651
 716 2152  771
 716 2152  910
 716 2152 1064
 716 2152 1236
 716 2152 1439
 716 2152 1676
 716 2152 1930
 716 2152 2199
 716 2152 2480
 716 2152 2745
 716 2152 2961
 716 2152 3142
 716 2152 3313
 716 2483  407
 716 2483  481
 716 2483  558
 716 2483  651
 716 2483  771
 716 2483  910
 716 2483 1064
 716 2483 1236
 716 2483 1439
 716 2483 1676
 716 2483 1930
 716 2483 2199
 716 2483 2480
 716 2483 2745
 716 2483 2961
 716 2483 3142
 716 2483 3313
 716 2786  407
 716 2786  481
 716 2786  558
 716 2786  651
 716 2786  771
 716 2786  910
 716 2786 1064
 716 2786 1236
 716 2786 1439
 716 2786 1676
 716 2786 1930
 716 2786 2199
 716 2786 2480
 716 2786 2745
 716 2786 2961
 716 2786 3142
 716 2786 3313
 716 3063  407
 716 3063  481
 716 3063  558
 716 3063  651
 716 3063  771
 716 3063  910
 716 3063 1064
 716 3063 1236
 716 3063 1439
 716 3063 1676
 716 3063 1930
 716 3063 2199
 716 3063 2480
 716 3063 2745
 716 3063 2961
 716 3063 3142
 716 3063 3313
 716 3304  407
 716 3304  481
 716 3304  558
 716 3304  651
 716 3304  771
 716 3304  910
 716 3304 1064
 716 3304 1236
 716 3304 1439
 716 3304 1676
 716 3304 1930
 716 3304 2199
 716 3304 2480
 716 3304 2745
 716 3304 2961
 716 3304 3142
 716 3304 3313
 716 3491  407
 716 3491  481
 716 3491  558
 716 3491  651
 716 3491  771
 716 3491  910
 716 3491 1064
 716 3491 1236
 716 3491 1439
 716 3491 1676
 716 3491 1930
 716 3491 2199
 716 3491 2480
 716 3491 2745
 716 3491 2961
 716 3491 3142
 716 3491 3313
 716 3626  407
 716 3626  481
 716 3626  558
 716 3626  651
 716 3626  771
 716 3626  910
 716 3626 1064
 716 3626 1236
 716 3626 1439
 716 3626 1676
 716 3626 1930
 716 3626 2199
 716 3626 2480
 716 3626 2745
 716 3626 2961
 716 3626 3142
 716 3626 3313
 716 3743  407
 716 3743  481
 716 3743  558
 716 3743  651
 716 3743  771
 716 3743  910
 716 3743 1064
 716 3743 1236
 716 3743 1439
 716 3743 1676
 716 3743 1930
 716 3743 2199
 716 3743 2480
 716 3743 2745
 716 3743 2961
 716 3743 3142
 716 3743 3313
 789  455  407
 789  455  481
 789  455  558
 789  455  651
 789  455  771
 789  455  910
 789  455 1064
 789  455 1236
 789  455 1439
 789  455 1676
 789  455 1930
 789  455 2199
 789  455 2480
 789  455 2745
 789  455 2961
 789  455 3142
 789  455 3313
 789  554  407
 789  554  481
 789  554  558
 789  554  651
 789  554  771
 789  554  910
 789  554 1064
 789  554 1236
 789  554 1439
 789  554 1676
 789  554 1930
 789  554 2199
 789  554 2480
 789  554 2745
 789  554 2961
 789  554 3142
 789  554 3313
 789  658  407
 789  658  481
 789  658  558
 789  658  651
 789  658  771
 789  658  910
 789  658 1064
 789  658 1236
 789  658 1439
 789  658 1676
 789  658 1930
 789  658 2199
 789  658 2480
 789  658 2745
 789  658 2961
 789  658 3142
 789  658 3313
 789  780  407
 789  780  481
 789  780  558
 789  780  651
 789  780  771
 789  780  910
 789  780 1064
 789  780 1236
 789  780 1439
 789  780 1676
 789  780 1930
 789  780 2199
 789  780 2480
 789  780 2745
 789  780 2961
 789  780 3142
 789  780 3313
 789  915  407
 789  915  481
 789  915  558
 789  915  651
 789  915  771
 789  915  910
 789  915 1064
 789  915 1236
 789  915 1439
 789  915 1676
 789  915 1930
 789  915 2199
 789  915 2480
 789  915 2745
 789  915 2961
 789  915 3142
 789  915 3313
 789 1064  407
 789 1064  481
 789 1064  558
 789 1064  651
 789 1064  771
 789 1064  910
 789 1064 1064
 789 1064 1236
 789 1064 1439
 789 1064 1676
 789 1064 1930
 789 1064 2199
 789 1064 2480
 789 1064 2745
 789 1064 2961
 789 1064 3142
 789 1064 3313
 789 1256  407
 789 1256  481
 789 1256  558
 789 1256  651
 789 1256  771
 789 1256  910
 789 1256 1064
 789 1256 1236
 789 1256 1439
 789 1256 1676
 789 1256 1930
 789 1256 2199
 789 1256 2480
 789 1256 2745
 789 1256 2961
 789 1256 3142
 789 1256 3313
 789 1511  407
 789 1511  481
 789 1511  558
 789 1511  651
 789 1511  771
 789 1511  910
 789 1511 1064
 789 1511 1236
 789 1511 1439
 789 1511 1676
 789 1511 1930
 789 1511 2199
 789 1511 2480
 789 1511 2745
 789 1511 2961
 789 1511 3142
 789 1511 3313
 789 1820  407
 789 1820  481
 789 1820  558
 789 1820  651
 789 1820  771
 789 1820  910
 789 1820 1064
 789 1820 1236
 789 1820 1439
 789 1820 1676
 789 1820 1930
 789 1820 2199
 789 1820 2480
 789 1820 2745
 789 1820 2961
 789 1820 3142
 789 1820 3313
 789 2152  407
 789 2152  481
 789 2152  558
 789 2152  651
 789 2152  771
 789 2152  910
 789 2152 1064
 789 2152 1236
 789 2152 1439
 789 2152 1676
 789 2152 1930
 789 2152 2199
 789 2152 2480
 789 2152 2745
 789 2152 2961
 789 2152 3142
 789 2152 3313
 789 2483  407
 789 2483  481
 789 2483  558
 789 2483  651
 789 2483  771
 789 2483  910
 789 2483 1064
 789 2483 1236
 789 2483 1439
 789 2483 1676
 789 2483 1930
 789 2483 2199
 789 2483 2480
 789 2483 2745
 789 2483 2961
 789 2483 3142
 789 2483 3313
 789 2786  407
 789 2786  481
 789 2786  558
 789 2786  651
 789 2786  771
 789 2786  910
 789 2786 1064
 789 2786 1236
 789 2786 1439
 789 2786 1676
 789 2786 1930
 789 2786 2199
 789 2786 2480
 789 2786 2745
 789 2786 2961
 789 2786 3142
 789 2786 3313
 789 3063  407
 789 3063  481
 789 3063  558
 789 3063  651
 789 3063  771
 789 3063  910
 789 3063 1064
 789 3063 1236
 789 3063 1439
 789 3063 1676
 789 3063 1930
 789 3063 2199
 789 3063 2480
 789 3063 2745
 789 3063 2961
 789 3063 3142
 789 3063 3313
 789 3304  407
 789 3304  481
 789 3304  558
 789 3304  651
 789 3304  771
 789 3304  910
 789 3304 1064
 789 3304 1236
 789 3304 1439
 789 3304 1676
 789 3304 1930
 789 3304 2199
 789 3304 2480
 789 3304 2745
 789 3304 2961
 789 3304 3142
 789 3304 3313
 789 3491  407
 789 3491  481
 789 3491  558
 789 3491  651
 789 3491  771
 789 3491  910
 789 3491 1064
 789 3491 1236
 789 3491 1439
 789 3491 1676
 789 3491 1930
 789 3491 2199
 789 3491 2480
 789 3491 2745
 789 3491 2961
 789 3491 3142
 789 3491 3313
 789 3626  407
 789 3626  481
 789 3626  558
 789 3626  651
 789 3626  771
 789 3626  910
 789 3626 1064
 789 3626 1236
 789 3626 1439
 789 3626 1676
 789 3626 1930
 789 3626 2199
 789 3626 2480
 789 3626 2745
 789 3626 2961
 789 3626 3142
 789 3626 3313
 789 3743  407
 789 3743  481
 789 3743  558
 789 3743  651
 789 3743  771
 789 3743  910
 789 3743 1064
 789 3743 1236
 789 3743 1439
 789 3743 1676
 789 3743 1930
 789 3743 2199
 789 3743 2480
 789 3743 2745
 789 3743 2961
 789 3743 3142
 789 3743 3313
 869  455  407
 869  455  481
 869  455  558
 869  455  651
 869  455  771
 869  455  910
 869  455 1064
 869  455 1236
 869  455 1439
 869  455 1676
 869  455 1930
 869  455 2199
 869  455 2480
 869  455 2745
 869  455 2961
 869  455 3142
 869  455 3313
 869  554  407
 869  554  481
 869  554  558
 869  554  651
 869  554  771
 869  554  910
 869  554 1064
 869  554 1236
 869  554 1439
 869  554 1676
 869  554 1930
 869  554 2199
 869  554 2480
 869  554 2745
 869  554 2961
 869  554 3142
