PS/3DLUTs/CH_Strong Gold.3dl
#Do not edit
# LUT created by Synthetic Aperture Color Finesse 3 3.0.6(275)
3DMESH
Mesh 4 12
0 64 128 192 256 320 384 448 512 576 640 704 768 832 896 960 1023 
  91    0    0
  91    0    0
  92    0    0
  93    0    0
  93    0    0
  94    0    0
  95    0    0
  98    0    0
 118    0    0
 138    0    0
 161    0    0
 185    0    0
 214    0    0
 244    0    0
 275    0    0
 307    0    0
 342    0    0
  91    0    0
  91    0    0
  91    0    0
  92    0    0
  93    0    0
  93    0    0
  94    0    0
  95    0    0
  95    0    0
 114    0    0
 143    0    0
 174    0    0
 208    2    0
 245   12    0
 283   26    0
 322   43    0
 362   63    0
  92    0    0
  93    0    0
  93    0    0
  95    0    0
  96    0    0
  98    2    0
 100    7    0
 101   15    0
 103   25    0
 130   37    0
 160   51    0
 194   69    0
 230   89    0
 269  112    0
 311  138    0
 354  166    0
 399  198    0
  98   20    0
  98   25    0
  99   31    0
 100   40    0
 102   51    0
 104   63    0
 105   78    0
 107   94    0
 131  114    0
 162  136    0
 195  160    0
 232  187    0
 272  216    0
 314  248    0
 359  281    0
 406  316    0
 454  349    0
 103   84    0
 104   94    0
 104  106    0
 105  120    0
 107  138    0
 109  158    0
 118  181    0
 146  206    0
 177  233    0
 211  262    0
 249  293    0
 290  325    0
 333  355    0
 379  382    0
 427  404    0
 477  423    0
 528  444    0
 176  178    0
 165  193    0
 156  211    0
 149  230    0
 148  252    0
 156  276    0
 176  303    0
 207  332    0
 243  359    0
 281  384    0
 323  404    0
 367  422    0
 414  442    0
 463  466    0
 514  494    0
 565  524    0
 614  555    0
 342  292    0
 327  312    0
 314  332    0
 303  353    0
 294  372    0
 292  391    0
 299  407    0
 312  422    0
 332  439    0
 370  462    0
 415  488    0
 463  516    0
 512  546    0
 561  578    0
 610  612    0
 659  647    0
 704  685    0
 544  395    0
 528  408    0
 512  420    0
 499  434    0
 487  450    0
 480  469    0
 475  491    0
 480  515    0
 492  541    0
 510  569    0
 534  600    0
 571  633    0
 618  669    0
 664  707    0
 708  746    0
 743  786    0
 774  826    0
 734  469    0
 723  488    0
 711  508    0
 699  530    0
 689  553    0
 681  578    0
 674  605    0
 670  633    0
 673  664    0
 681  697    0
 694  733    0
 710  769    0
 728  805    0
 749  844    0
 777  885    0
 806  929    0
 837  978    0
 873  572    0
 861  596    0
 850  621    0
 840  648    0
 830  676    0
 823  706    0
 816  738    0
 812  771    0
 809  804    0
 809  838    0
 812  874    0
 817  912    0
 826  954    0
 837 1002    0
 851 1057    0
 869 1121    0
 894 1192    0
1015  694    0
1002  723    0
 990  753    0
 979  783    0
 969  815    0
 959  847    0
 951  881    0
 943  917    0
 936  956    0
 929  999    0
 926 1048    0
 925 1105    0
 927 1167    0
 930 1234    0
 936 1302    0
 944 1373    0
 955 1447    0
1177  832    0
1160  863    0
1143  897    0
1127  932    0
1113  970    0
1098 1014    0
1085 1062    0
1072 1117    0
1060 1175    0
1049 1237    0
1038 1299    0
1030 1365    0
1025 1433    0
1022 1503    0
1021 1573    0
1022 1641    0
1025 1708    0
1376  995    0
1349 1039    0
1323 1089    0
1298 1144    0
1275 1202    0
1252 1263    0
1231 1323    0
1210 1386    0
1191 1452    0
1173 1517    0
1155 1581    0
1139 1645    0
1125 1707    0
1115 1769    0
1106 1830    0
1099 1890    0
1095 1950    0
1617 1242    0
1579 1301    0
1541 1362    0
1504 1425    0
1467 1488    0
1433 1552    0
1399 1615    0
1367 1676    0
1336 1735    0
1306 1794    0
1278 1851    0
1252 1906    0
1227 1961    0
1208 2016    0
1190 2070    0
1176 2122    0
1163 2173    0
1858 1540    0
1813 1602    0
1766 1662    0
1720 1722    0
1672 1779    0
1626 1836    0
1580 1892    0
1535 1947    0
1490 2000    0
1448 2051    0
1407 2101    0
1367 2150    0
1329 2197    0
1298 2243    0
1270 2288    0
1245 2332    0
1224 2374    0
2057 1837    0
2010 1893    0
1962 1948    0
1911 2001    0
1858 2052    0
1803 2103    0
1747 2151    0
1691 2199    0
1635 2245    0
1579 2288    0
1525 2331    0
1472 2371    0
1422 2409    0
1377 2446    0
1337 2482    0
1302 2516    0
1271 2547    0
2213 2118    0
2162 2168    0
2110 2216    0
2056 2261    0
2000 2305    0
1941 2348    0
1880 2390    0
1816 2429    0
1749 2466    0
1683 2500    0
1616 2532    0
1550 2561    0
1487 2588    0
1432 2613    0
1382 2636    0
1337 2660    0
1299 2683    0
  91    0    0
  91    0    0
  92    0    0
  93    0    0
  93    0    0
  94    0    0
  95    0    0
  95    0    0
 100    0    0
 120    0    0
 143    0    0
 172    0    0
 203    0    0
 235    0    0
 269    0    0
 303    0    0
 341    0    0
  91    0    0
  91    0    0
  91    0    0
  93    0    0
  93    0    0
  94    0    0
  95    0    0
  95    0    0
  95    0    0
 110    0    0
 139    0    0
 173    0    0
 209    5    0
 247   16    0
 286   32    0
 327   51    0
 369   72    0
  91    0    0
  92    0    0
  92    0    0
  93    0    0
  96    0    0
  98    0    0
  99    5    0
 100   12    0
 103   23    0
 131   36    0
 164   51    0
 199   70    0
 237   92    0
 279  116    0
 322  143    0
 368  173    0
 415  206    0
  97   15    0
  98   20    0
  99   26    0
 100   35    0
 102   45    0
 104   56    0
 105   71    0
 107   89    0
 134  109    0
 168  132    0
 203  158    0
 242  186    0
 284  216    0
 328  250    0
 376  285    0
 425  321    0
 476  354    0
 188   80    0
 168   90    0
 153  102    0
 148  117    0
 146  133    0
 149  153    0
 156  174    0
 166  198    0
 185  225    0
 221  256    0
 261  289    0
 303  322    0
 349  354    0
 397  382    0
 448  405    0
 499  424    0
 552  446    0
 337  174    0
 315  190    0
 295  207    0
 280  228    0
 274  251    0
 272  276    0
 274  302    0
 281  330    0
 293  356    0
 311  381    0
 337  402    0
 383  420    0
 431  440    0
 482  465    0
 535  494    0
 587  525    0
 637  558    0
 523  290    0
 500  310    0
 478  331    0
 457  352    0
 444  373    0
 436  391    0
 434  408    0
 437  423    0
 444  441    0
 456  462    0
 473  487    0
 498  514    0
 531  544    0
 579  577    0
 630  611    0
 679  648    0
 721  687    0
 711  396    0
 693  408    0
 674  421    0
 655  435    0
 637  451    0
 625  471    0
 619  494    0
 617  518    0
 620  544    0
 626  573    0
 637  603    0
 652  635    0
 671  670    0
 695  707    0
 722  746    0
 755  786    0
 786  827    0
 845  471    0
 830  490    0
 816  511    0
 803  533    0
 791  556    0
 780  581    0
 773  609    0
 769  638    0
 767  669    0
 769  703    0
 772  738    0
 779  774    0
 787  811    0
 798  848    0
 812  888    0
 829  931    0
 850  979    0
 983  577    0
 968  600    0
 953  626    0
 940  653    0
 927  682    0
 916  712    0
 906  744    0
 898  776    0
 894  810    0
 891  845    0
 890  882    0
 892  921    0
 895  964    0
 900 1013    0
 907 1068    0
 916 1131    0
 927 1200    0
1136  702    0
1118  731    0
1101  760    0
1085  791    0
1070  823    0
1056  855    0
1042  889    0
1030  926    0
1020  966    0
1012 1012    0
1006 1063    0
1003 1122    0
1000 1185    0
 999 1252    0
1000 1320    0
1003 1391    0
1007 1464    0
1326  842    0
1301  874    0
1277  908    0
1254  945    0
1232  985    0
1211 1030    0
1192 1080    0
1173 1136    0
1155 1196    0
1140 1258    0
1127 1322    0
1116 1389    0
1108 1458    0
1101 1528    0
1095 1597    0
1091 1664    0
1090 1730    0
1570 1014    0
1534 1061    0
1497 1113    0
1463 1170    0
1430 1229    0
1397 1289    0
1365 1351    0
1336 1415    0
1307 1480    0
1281 1545    0
1258 1610    0
1238 1673    0
1221 1736    0
1206 1797    0
1193 1859    0
1182 1918    0
1172 1976    0
1827 1275    0
1784 1336    0
1740 1397    0
1695 1461    0
1651 1525    0
1607 1588    0
1564 1650    0
1522 1709    0
1481 1768    0
1441 1826    0
1403 1882    0
1371 1938    0
1342 1994    0
1316 2048    0
1293 2101    0
1273 2153    0
1254 2204    0
2048 1584    0
2004 1645    0
1958 1705    0
1911 1763    0
1861 1820    0
1810 1876    0
1758 1931    0
1706 1985    0
1653 2037    0
1601 2087    0
1551 2137    0
1505 2185    0
1464 2233    0
1426 2279    0
1391 2324    0
1360 2367    0
1332 2410    0
2227 1886    0
2179 1941    0
2131 1994    0
2081 2047    0
2030 2098    0
1977 2147    0
1921 2195    0
1863 2241    0
1803 2286    0
1741 2328    0
1679 2370    0
1622 2410    0
1569 2449    0
1520 2486    0
1474 2521    0
1432 2554    0
1394 2585    0
2377 2170    0
2322 2219    0
2266 2266    0
2211 2311    0
2155 2354    0
2098 2396    0
2038 2436    0
1976 2474    0
1912 2509    0
1843 2542    0
1772 2572    0
1705 2601    0
1642 2628    0
1582 2652    0
1527 2674    0
1476 2697    0
1430 2719    0
 144    0    0
 125    0    0
 118    0    0
 114    0    0
 109    0    0
 104    0    0
 101    0    0
  99    0    0
 100    0    0
 110    0    0
 137    0    0
 168    0    0
 201    0    0
 234    0    0
 270    0    0
 308    0    0
 346    0    0
 112    0    0
  95    0    0
  91    0    0
  93    0    0
  93    0    0
  94    0    0
  94    0    0
  95    0    0
  95    0    0
 110    0    0
 142    0    0
 177    0    0
 215    7    0
 255   20    0
 296   37    0
 339   57    0
 383   80    0
 150    0    0
 132    0    0
 123    0    0
 118    0    0
 115    0    0
 114    0    0
 114    5    0
 118   13    0
 126   22    0
 140   35    0
 171   51    0
 209   71    0
 249   93    0
 293  119    0
 339  148    0
 387  179    0
 435  214    0
 239   15    0
 215   20    0
 203   27    0
 194   36    0
 189   46    0
 185   59    0
 184   73    0
 188   90    0
 193  109    0
 205  131    0
 222  156    0
 257  185    0
 301  217    0
 348  252    0
 397  288    0
 448  325    0
 502  359    0
 367   79    0
 338   90    0
 321  103    0
 308  119    0
 299  136    0
 292  156    0
 290  178    0
 290  203    0
 295  229    0
 304  259    0
 318  289    0
 338  321    0
 369  353    0
 420  382    0
 472  405    0
 526  426    0
 579  449    0
 530  174    0
 500  191    0
 477  210    0
 460  231    0
 447  255    0
 438  280    0
 432  308    0
 430  335    0
 432  361    0
 438  385    0
 449  404    0
 465  422    0
 486  441    0
 516  466    0
 560  495    0
 612  526    0
 663  560    0
 703  292    0
 679  313    0
 653  334    0
 635  356    0
 620  377    0
 609  395    0
 601  411    0
 596  426    0
 595  445    0
 597  467    0
 603  492    0
 615  519    0
 630  548    0
 650  580    0
 676  614    0
 705  649    0
 739  688    0
 829  398    0
 811  411    0
 793  423    0
 779  438    0
 768  455    0
 759  476    0
 753  499    0
 748  524    0
 745  551    0
 744  579    0
 747  610    0
 751  642    0
 758  677    0
 767  713    0
 780  752    0
 795  790    0
 814  830    0
 961  476    0
 943  495    0
 926  516    0
 910  538    0
 896  562    0
 885  588    0
 876  616    0
 869  646    0
 865  678    0
 862  711    0
 862  747    0
 864  783    0
 868  819    0
 873  857    0
 881  897    0
 891  940    0
 903  988    0
1106  584    0
1085  608    0
1066  634    0
1048  661    0
1031  690    0
1018  720    0
1007  753    0
 998  786    0
 990  820    0
 985  856    0
 981  893    0
 979  933    0
 978  977    0
 979 1028    0
 981 1085    0
 985 1149    0
 991 1218    0
1283  712    0
1257  741    0
1233  770    0
1211  801    0
1190  833    0
1170  866    0
1152  901    0
1138  939    0
1125  981    0
1115 1030    0
1106 1084    0
1098 1144    0
1091 1209    0
1087 1276    0
1084 1344    0
1082 1416    0
1083 1488    0
1519  855    0
1484  888    0
1450  923    0
1417  961    0
1385 1003    0
1355 1050    0
1326 1102    0
1301 1161    0
1280 1223    0
1260 1287    0
1243 1352    0
1228 1420    0
1215 1489    0
1203 1559    0
1193 1627    0
1185 1693    0
1178 1758    0
1788 1038    0
1745 1087    0
1702 1142    0
1660 1201    0
1618 1261    0
1576 1321    0
1536 1384    0
1496 1449    0
1462 1514    0
1430 1580    0
1401 1645    0
1375 1708    0
1351 1770    0
1330 1831    0
1310 1892    0
1293 1951    0
1279 2009    0
2029 1314    0
1986 1375    0
1943 1439    0
1897 1502    0
1850 1566    0
1802 1628    0
1753 1688    0
1704 1747    0
1656 1805    0
1613 1863    0
1572 1921    0
1534 1977    0
1499 2032    0
1465 2086    0
1435 2139    0
1408 2190    0
1383 2239    0
2227 1632    0
2182 1692    0
2137 1751    0
2090 1809    0
2043 1865    0
1993 1920    0
1942 1974    0
1889 2027    0
1834 2078    0
1782 2129    0
1731 2179    0
1683 2227    0
1637 2274    0
1593 2321    0
1553 2365    0
1515 2408    0
1480 2449    0
2400 1938    0
2349 1992    0
2297 2045    0
2245 2096    0
2193 2146    0
2141 2195    0
2087 2242    0
2031 2287    0
1973 2330    0
1917 2373    0
1861 2415    0
1804 2455    0
1750 2493    0
1698 2530    0
1647 2564    0
1601 2596    0
1557 2625    0
2537 2226    0
2483 2274    0
2428 2320    0
2371 2364    0
2311 2406    0
2251 2447    0
2192 2486    0
2131 2522    0
2068 2555    0
2007 2587    0
1946 2617    0
1885 2645    0
1824 2671    0
1764 2694    0
1706 2715    0
1652 2736    0
1602 2757    0
 342    0    0
 317    0    0
 301    0    0
 284    0    0
 268    0    0
 252    0    0
 237    0    0
 223    0    0
 210    0    0
 203    0    0
 201    0    0
 203    0    0
 212    0    0
 240    0    0
 278    0    0
 317    0    0
 357    0    0
 299    0    0
 277    0    0
 260    0    0
 246    0    0
 234    0    0
 223    0    0
 214    0    0
 207    0    0
 203    0    0
 203    0    0
 207    0    0
 217    0    0
 232    9    0
 269   24    0
 312   42    0
 356   63    0
