PS/3DLUTs/crossing-c41.3dl
#Created by: Generate3DLut
#Generator: Copyright 2012 by Linus Hechinger
0 128 256 384 512 639 767 895 1023
193  128  128
193  161  243
177  209  389
209  305  598
193  353  763
193  466  1080
209  578  1281
225  626  1528
225  723  1654
193  253  145
177  291  259
161  319  446
161  436  604
145  548  851
177  676  1164
177  785  1441
193  907  1831
225  1012  2200
193  470  145
193  526  275
145  582  462
128  654  636
128  791  923
145  899  1249
145  1056  1582
145  1200  2007
193  1301  2425
241  789  209
225  795  323
225  859  506
145  913  697
145  1026  1004
128  1154  1397
128  1373  1815
145  1455  2252
177  1606  2682
289  1164  241
305  1188  414
273  1237  598
241  1365  767
177  1437  1100
161  1566  1558
128  1694  1971
112  1863  2505
128  2007  2987
385  1638  321
385  1674  506
369  1722  707
305  1815  877
241  1961  1245
193  2033  1672
145  2154  2096
128  2278  2664
96  2377  3196
482  2100  418
466  2136  628
466  2188  823
401  2280  1038
353  2421  1381
241  2565  1789
193  2710  2292
145  2738  2897
112  2858  3469
562  2606  482
546  2660  689
514  2750  956
498  2820  1154
401  2929  1477
321  3103  1941
177  3258  2409
145  3346  3017
96  3308  3629
642  3099  578
626  3115  755
578  3180  947
578  3260  1285
482  3404  1558
369  3565  1975
225  3694  2489
128  3886  3099
80  3950  3710
393  80  80
329  145  307
291  193  490
257  289  664
243  385  907
269  530  1228
225  674  1534
235  787  1891
273  947  2280
291  269  112
311  279  285
299  365  486
257  468  680
237  628  964
205  721  1319
209  891  1630
225  1010  2019
241  1156  2409
291  514  161
311  542  311
285  622  550
231  755  751
199  895  1068
183  1024  1449
193  1192  1803
205  1337  2256
209  1429  2650
333  813  225
333  895  397
295  943  594
221  1090  825
193  1188  1212
183  1327  1606
145  1502  2023
171  1626  2529
209  1815  3003
375  1269  289
391  1357  506
359  1405  707
289  1526  915
231  1670  1325
193  1758  1724
173  1903  2216
134  2056  2790
161  2152  3212
468  1783  401
468  1851  614
440  1883  819
385  2041  1056
295  2168  1413
235  2282  1891
193  2379  2401
145  2473  3001
128  2553  3517
602  2260  498
584  2361  751
552  2409  972
456  2533  1200
395  2674  1582
273  2786  2054
193  2927  2517
161  2967  3206
112  3067  3758
670  2778  594
660  2881  839
622  2939  1060
542  3043  1315
450  3194  1686
337  3334  2166
209  3523  2694
145  3545  3286
112  3533  3934
723  3244  658
723  3356  915
691  3404  1108
626  3485  1413
514  3645  1750
385  3806  2168
257  3967  2794
145  4015  3340
112  3999  3967
791  64  48
691  80  307
610  128  578
490  225  761
442  337  1004
377  450  1281
333  594  1606
349  771  2050
337  1044  2473
674  279  48
699  237  215
622  313  586
502  442  777
442  532  1036
446  689  1371
478  897  1766
401  1046  2186
305  1269  2666
562  582  128
566  594  301
614  626  602
562  739  841
518  887  1172
494  1036  1540
454  1228  1935
373  1381  2373
257  1590  2939
602  893  193
650  897  399
678  974  711
578  1046  883
526  1218  1333
450  1387  1738
385  1588  2184
305  1750  2712
241  2007  3308
670  1293  273
723  1365  522
735  1437  823
658  1566  1070
530  1710  1437
422  1839  1885
289  2023  2425
209  2256  3073
193  2409  3581
735  1803  418
803  1899  693
779  2039  972
658  2136  1188
498  2298  1582
325  2477  2104
241  2591  2694
193  2728  3286
161  2778  3806
763  2425  626
755  2509  873
682  2618  1116
546  2754  1393
430  2903  1799
321  3031  2290
229  3144  2790
193  3176  3487
145  3260  4015
803  2945  707
767  3061  939
747  3190  1253
634  3286  1491
494  3421  1887
369  3569  2385
229  3730  2959
177  3794  3601
145  3742  4015
851  3404  755
851  3533  1012
803  3661  1269
723  3710  1590
578  3790  1959
401  3886  2409
225  4015  3099
161  4015  3661
145  3983  3999
1060  32  0
1208  0  199
1004  112  614
939  193  909
853  257  1196
733  385  1465
642  594  1807
584  739  2202
466  867  2553
1092  279  0
1194  193  134
1044  247  574
974  387  958
859  500  1228
799  689  1572
747  849  1911
666  966  2329
578  1076  2762
998  650  96
1128  682  249
1090  558  502
998  735  992
905  891  1293
837  1028  1682
849  1160  2035
909  1393  2527
931  1574  3003
994  1058  193
960  1050  375
996  1058  723
1088  1150  1104
1028  1279  1453
1040  1441  1911
994  1636  2312
978  1809  2790
883  2007  3308
1040  1502  273
1042  1493  506
1134  1510  891
1186  1630  1235
1056  1750  1558
1022  1895  2084
986  2104  2561
958  2288  3119
835  2409  3613
1090  1989  369
1152  1993  646
1220  2070  1048
1325  2232  1425
1192  2341  1774
1076  2477  2242
941  2596  2762
877  2796  3376
755  2842  3902
1170  2421  498
1269  2513  865
1345  2634  1257
1357  2770  1588
1214  2915  1943
1024  3063  2397
889  3212  2971
783  3276  3619
578  3356  4015
1206  2959  626
1301  3087  994
1393  3218  1401
1317  3340  1698
1170  3469  2072
968  3649  2565
719  3826  3131
490  3934  3758
241  3983  3999
1188  3517  787
1237  3645  1124
1204  3726  1429
1124  3726  1831
867  3822  2168
578  3950  2730
257  4031  3421
193  3983  3999
209  3983  3999
1485  64  0
1710  0  147
1606  16  622
1341  193  951
1405  225  1405
1285  305  1748
1180  530  2011
1060  707  2381
851  883  2778
1526  297  0
1718  179  60
1742  175  550
1453  436  1002
1461  500  1469
1365  642  1845
1261  887  2112
1196  1022  2559
1012  1124  2939
1526  727  64
1702  662  141
1710  594  502
1598  747  1100
1550  895  1558
1437  1048  1925
1357  1233  2200
1269  1381  2702
1172  1429  3164
1429  1092  241
1469  1154  432
1550  1190  755
1638  1174  1088
1614  1319  1670
1582  1508  2056
1590  1674  2469
1662  1885  2995
1654  2152  3501
1485  1606  305
1558  1670  528
1614  1742  919
1654  1766  1345
1726  1879  1799
1742  2048  2310
1750  2248  2690
1766  2441  3258
1638  2521  3710
1590  2156  385
1630  2188  638
1678  2234  1072
1807  2314  1552
1951  2499  2064
1839  2642  2513
1783  2802  2991
1774  2965  3521
1606  2987  3983
1654  2642  482
1702  2690  799
1799  2750  1289
1943  2887  1734
2080  3055  2272
1991  3156  2682
1847  3316  3152
1791  3380  3746
1622  3517  4063
1702  3137  610
1783  3202  960
1911  3304  1449
2023  3461  1913
2120  3587  2385
2048  3748  2830
1831  3918  3300
1710  3989  3906
1510  3999  4063
1670  3597  739
1799  3677  1124
1927  3774  1542
2023  3838  2039
2039  3854  2505
1847  3934  2826
1638  4047  3437
1510  4063  4031
1397  4047  4063
1893  128  0
2230  0  76
2234  0  466
1993  128  986
1817  257  1405
1851  273  1897
1734  418  2236
1620  642  2644
1429  883  2955
1943  307  0
2323  157  12
2373  134  414
2090  301  1022
1901  538  1510
1993  580  2013
1909  721  2413
1783  956  2820
1590  1156  3164
2108  715  32
2375  606  60
2333  466  353
2312  598  1040
2041  895  1630
2120  984  2182
1977  1188  2541
1959  1429  2985
1750  1526  3388
2017  1202  209
2196  1235  325
2292  1241  582
2369  1090  976
2264  1329  1774
2236  1477  2329
2136  1718  2702
2108  1907  3176
1959  2039  3661
2070  1726  369
2118  1783  576
2138  1815  956
2290  1911  1317
2483  1935  1831
2519  2216  2630
2612  2433  2971
2726  2666  3495
2746  2875  3934
2100  2262  401
2166  2341  620
2200  2393  1024
2268  2463  1485
2499  2616  2144
2850  2885  2834
2883  3005  3196
2925  3232  3669
2826  3260  3983
2212  2838  482
2258  2891  775
2280  2927  1216
2375  2983  1672
2772  3168  2417
3051  3417  3083
2935  3489  3408
2927  3585  3920
2891  3694  4079
2244  3346  562
2236  3378  865
2359  3457  1349
2549  3547  1895
2903  3768  2610
3129  3898  3198
3075  4017  3541
2997  4071  4047
2794  4095  4095
2136  3694  642
2184  3726  980
2312  3790  1445
2521  3870  2072
2907  3950  2730
3019  3983  3196
3035  4063  3661
2971  4095  4095
2971  4095  4095
2116  177  0
2730  0  6
2774  0  361
2762  16  911
2453  193  1453
2316  337  1961
2381  385  2469
2369  482  2983
2088  771  3308
2373  381  0
2826  193  0
2983  82  269
2899  211  960
2678  446  1598
2485  650  2090
2569  715  2682
2549  807  3184
2329  1044  3517
2533  759  0
3035  586  0
3003  438  253
3091  446  905
2814  731  1614
2678  1096  2312
2722  1160  2850
2634  1313  3338
2537  1510  3742
2634  1285  128
2907  1257  191
3075  1142  401
3079  1070  891
3103  1104  1662
2858  1522  2447
2919  1660  3015
2858  1847  3533
2714  2136  3854
2553  1839  353
2790  1911  464
2911  1951  803
3111  1959  1140
3200  1887  1734
3188  2208  2724
3240  2497  3288
3164  2690  3762
3131  2794  3950
2606  2357  466
2738  2529  701
2806  2549  1096
2907  2648  1566
3103  2842  2176
3497  2943  2834
3465  3180  3505
3433  3350  3882
3549  3437  4015
2678  2903  530
2802  3051  753
2858  3115  1156
2943  3212  1662
3095  3348  2361
3400  3481  3144
3601  3673  3625
3617  3726  4005
3613  3838  4063
2718  3471  562
2822  3597  805
2895  3655  1237
2987  3748  1795
3224  3840  2545
3501  3973  3292
3669  4057  3722
3645  4095  4089
3694  4095  4095
2730  3710  594
2810  3726  915
2907  3774  1317
3019  3854  1943
3340  3950  2762
3645  4015  3404
3742  4063  3854
3726  4095  4095
3694  4095  4095
2557  241  0
3160  80  0
3324  0  257
3457  0  825
3208  128  1461
2983  305  1993
2935  418  2497
2921  482  3085
2875  642  3613
2858  426  0
3368  241  0
3643  44  149
3696  92  801
3441  301  1550
3184  576  2168
3142  753  2718
3206  823  3366
3083  931  3822
3089  827  0
3547  626  0
3736  426  181
3774  349  751
3669  586  1558
3427  939  2365
3346  1233  2911
3394  1309  3543
3292  1365  3967
3228  1325  96
3708  1265  82
3844  1090  273
3836  978  783
3880  974  1518
3683  1347  2485
3543  1785  3123
3665  1931  3774
3421  1991  3999
3232  1927  273
3547  2015  367
3702  1983  622
3864  1887  970
3926  1855  1638
4019  2023  2652
3760  2569  3396
3848  2706  3973
3694  2778  4079
3158  2495  482
3356  2614  652
3499  2682  1012
3708  2794  1423
3912  2852  1959
4033  2891  2772
3936  3240  3577
3932  3402  4065
3838  3372  4079
3250  2963  546
3372  3091  763
3447  3208  1192
3583  3324  1698
3716  3457  2409
3840  3625  3113
4017  3734  3605
3991  3858  4073
4031  3999  4079
3236  3533  578
3358  3679  779
3459  3734  1228
3529  3816  1712
3700  3912  2449
3866  3999  3310
4017  4073  3850
4051  4095  4095
4047  4095  4095
3228  3694  594
3308  3710  771
3388  3742  1188
3501  3822  1847
3645  3918  2537
3886  4015  3388
4015  4063  3902
4063  4095  4095
4095  4095  4095
2891  289  0
3485  145  0
3838  0  128
3918  0  658
4015  0  1285
3726  193  1927
3437  466  2505
3501  562  3035
3533  610  3710
3244  466  0
3710  273  0
4095  64  80
4095  145  739
4095  241  1413
4031  369  2072
3694  755  2746
3758  851  3308
3774  931  3950
3533  835  0
3983  674  0
4095  482  193
4095  514  771
4095  642  1493
4095  803  2248
3967  1124  3003
3983  1317  3581
3983  1365  3950
3774  1349  64
4063  1253  96
4095  1237  401
4095  1188  915
4095  1285  1606
4095  1397  2377
4095  1750  3212
4047  1975  3774
4047  2104  4047
3870  1943  193
3934  1959  337
3999  2007  723
4079  1959  1172
4095  2007  1799
4095  2152  2585
4095  2537  3453
4095  2778  3983
4095  2939  4095
3774  2505  418
3806  2569  562
3870  2650  964
3950  2746  1493
4031  2842  2056
4095  3035  2891
4095  3196  3597
4095  3421  4079
4095  3501  4095
3694  3019  610
3726  3196  739
3758  3244  1140
3806  3356  1686
3902  3533  2345
3999  3694  3099
4095  3758  3645
4095  3950  4095
4095  3999  4095
3694  3549  594
3694  3710  771
3726  3742  1172
3790  3822  1718
3902  3902  2393
3983  3983  3115
4047  4047  3726
4095  4095  4095
4095  4095  4095
3677  3710  610
3694  3710  771
3726  3742  1188
3790  3822  1750
3902  3902  2425
3983  3983  3180
4063  4063  3854
4095  4095  4095
4095  4095  4095
