PS/3DLUTs/crossing-c41.3dl
#Created by: Generate3DLut
#Generator: Copyright 2012 by Linus Hechinger
0 64 128 192 256 320 384 448 512 575 639 703 767 831 895 959 1023
193  128  128
193  145  196
193  161  243
209  209  330
177  209  389
177  257  509
209  305  598
177  305  667
193  353  763
193  385  892
193  466  1080
209  530  1191
209  578  1281
209  562  1335
225  626  1528
225  658  1745
225  723  1654
177  183  128
193  199  196
193  212  243
209  247  339
177  276  410
177  314  526
177  349  602
177  400  705
177  443  827
177  475  921
177  542  1126
193  625  1226
209  700  1401
177  735  1559
193  786  1754
209  850  1923
209  883  1895
193  253  145
193  269  199
177  291  259
193  307  355
161  319  446
161  371  541
161  436  604
145  486  716
145  548  851
161  608  992
177  676  1164
161  743  1276
177  785  1441
177  837  1621
193  907  1831
193  935  2025
225  1012  2200
193  348  145
209  364  215
177  398  269
161  415  348
145  431  434
145  452  542
128  543  620
128  607  737
128  628  875
145  720  1063
145  777  1237
161  859  1311
177  901  1534
177  986  1726
177  1059  1927
177  1141  2174
209  1140  2296
193  470  145
193  474  202
193  526  275
177  546  348
145  582  462
145  602  573
128  654  636
128  747  801
128  791  923
112  839  1089
145  899  1249
145  996  1374
145  1056  1582
161  1112  1805
145  1200  2007
177  1273  2253
193  1301  2425
209  653  177
225  654  234
209  670  307
193  671  355
161  702  450
145  766  575
128  812  666
145  863  812
128  925  947
128  990  1148
112  1040  1321
128  1163  1470
128  1213  1666
161  1294  1894
161  1358  2114
161  1438  2382
177  1413  2489
241  789  209
241  793  250
225  795  323
257  813  422
225  859  506
177  875  592
145  913  697
145  960  850
145  1026  1004
128  1062  1195
128  1154  1397
128  1281  1567
128  1373  1815
128  1391  2008
145  1455  2252
128  1508  2488
177  1606  2682
257  929  209
257  967  298
273  999  371
257  993  463
257  1036  558
241  1101  640
209  1148  733
145  1180  865
161  1267  1076
145  1283  1249
145  1342  1463
128  1443  1630
128  1502  1867
128  1597  2126
128  1651  2373
128  1715  2646
161  1783  2810
289  1164  241
289  1172  330
305  1188  414
289  1212  493
273  1237  598
257  1277  672
241  1365  767
209  1389  913
177  1437  1100
161  1502  1297
161  1566  1558
145  1630  1725
128  1694  1971
128  1766  2208
112  1863  2505
128  1919  2790
128  2007  2987
337  1367  273
337  1383  349
337  1388  436
353  1452  557
337  1452  650
305  1500  721
257  1604  845
241  1641  984
225  1700  1156
177  1776  1400
161  1823  1604
145  1850  1730
145  1919  2048
128  1984  2298
128  2070  2620
112  2121  2856
128  2152  3083
385  1638  321
385  1624  404
385  1674  506
369  1702  607
369  1722  707
353  1752  800
305  1815  877
289  1881  1053
241  1961  1245
225  1995  1410
193  2033  1672
177  2152  1859
145  2154  2096
145  2214  2406
128  2278  2664
112  2357  2973
96  2377  3196
434  1822  369
434  1837  449
450  1885  574
418  1902  686
401  1919  783
401  1951  894
369  2046  988
337  2098  1138
305  2176  1357
257  2223  1507
225  2303  1750
193  2355  1952
161  2372  2220
145  2416  2538
145  2453  2850
128  2485  3111
112  2602  3372
482  2100  418
482  2096  520
466  2136  628
466  2180  743
466  2188  823
466  2216  945
401  2280  1038
369  2389  1228
353  2421  1381
305  2469  1561
241  2565  1789
193  2658  2030
193  2710  2292
161  2722  2615
145  2738  2897
128  2826  3198
112  2858  3469
530  2369  450
514  2383  574
530  2426  672
498  2433  784
498  2458  871
498  2506  1024
466  2570  1092
401  2612  1246
369  2681  1445
321  2743  1657
273  2827  1867
209  2922  2095
193  2988  2385
161  3011  2606
145  3041  2969
128  3068  3294
96  3083  3533
562  2606  482
578  2644  606
546  2660  689
546  2714  830
514  2750  956
530  2778  1087
498  2820  1154
450  2885  1320
401  2929  1477
369  3055  1727
321  3103  1941
241  3200  2144
177  3258  2409
161  3296  2718
145  3346  3017
128  3340  3381
96  3308  3629
594  2859  530
610  2889  664
594  2918  753
578  2953  862
578  2969  972
546  3008  1103
530  3059  1196
482  3153  1385
434  3188  1510
401  3281  1747
353  3361  2019
257  3474  2194
209  3525  2453
145  3589  2784
128  3618  3115
112  3621  3391
80  3533  3710
642  3099  578
642  3115  674
626  3115  755
594  3164  883
578  3180  947
578  3228  1060
578  3260  1285
514  3324  1413
482  3404  1558
434  3469  1766
369  3565  1975
305  3629  2200
225  3694  2489
161  3822  2842
128  3886  3099
112  3902  3356
80  3950  3710
295  112  112
276  128  196
241  145  279
209  177  346
212  209  422
212  257  527
202  305  616
212  353  727
209  401  859
193  450  981
209  498  1160
209  578  1244
225  626  1405
225  658  1600
228  723  1783
241  787  1983
241  851  1975
238  199  112
263  215  199
244  244  279
234  250  348
231  292  442
231  327  544
199  375  632
170  414  726
174  472  859
177  535  1041
193  593  1206
193  687  1308
209  738  1457
209  786  1662
209  844  1843
225  892  2021
257  947  2200
241  273  145
228  263  199
241  289  289
228  307  371
209  349  458
193  387  558
177  478  662
164  550  785
158  602  915
164  670  1089
177  725  1243
177  769  1340
193  837  1534
196  881  1710
196  941  1911
212  1022  2154
225  1076  2296
244  373  145
244  380  212
218  389  285
202  422  371
193  461  474
167  536  606
151  605  699
148  678  828
148  684  939
161  745  1121
164  832  1319
177  905  1419
177  977  1618
190  1066  1816
196  1121  2029
196  1183  2253
209  1220  2409
231  518  161
260  530  231
231  538  307
209  566  380
167  598  494
180  654  623
164  719  703
148  807  855
145  847  1004
145  907  1190
131  960  1337
161  1028  1497
174  1144  1702
190  1200  1937
193  1265  2146
193  1353  2376
209  1365  2553
234  686  177
247  703  250
250  719  339
225  751  422
209  782  514
180  828  607
177  863  717
148  895  855
148  974  1020
148  1055  1239
145  1119  1419
148  1215  1582
164  1293  1766
161  1374  1997
177  1438  2246
196  1502  2488
193  1477  2634
289  827  209
292  831  298
276  861  381
260  849  454
247  901  558
228  945  670
193  1010  749
180  1060  913
164  1090  1084
164  1172  1313
151  1249  1524
148  1361  1649
131  1427  1919
148  1443  2119
151  1540  2393
177  1598  2662
193  1718  2842
308  1015  225
308  1026  314
321  1074  414
308  1090  500
276  1128  614
247  1170  703
231  1228  797
196  1261  940
193  1331  1164
167  1368  1357
177  1411  1574
161  1524  1758
145  1587  2015
131  1662  2245
148  1769  2545
161  1807  2774
161  1911  2971
330  1220  289
346  1261  375
343  1277  452
340  1301  566
324  1317  658
295  1381  765
273  1429  843
231  1502  1021
196  1558  1237
193  1566  1400
193  1670  1642
164  1710  1810
148  1791  2060
145  1871  2331
128  1943  2626
131  1991  2890
145  2072  3083
372  1431  305
401  1484  411
391  1535  512
375  1540  616
362  1578  715
340  1626  828
321  1704  925
289  1741  1063
225  1801  1269
196  1844  1469
193  1924  1736
177  1945  1889
174  1987  2156
145  2048  2440
128  2166  2712
125  2229  3021
145  2248  3228
414  1702  353
427  1777  449
421  1766  548
421  1785  669
421  1803  763
401  1835  879
340  1953  949
318  1977  1116
289  2043  1341
238  2118  1534
209  2182  1772
193  2264  1985
177  2280  2248
145  2339  2554
128  2359  2818
125  2473  3136
128  2441  3356
485  1901  401
488  1919  523
472  1950  602
472  2001  759
453  2015  823
450  2064  961
415  2144  1056
366  2224  1256
321  2287  1405
286  2322  1631
225  2401  1839
193  2452  2066
180  2470  2369
161  2546  2658
145  2580  2969
128  2642  3304
112  2746  3517
533  2172  466
549  2204  584
533  2248  682
514  2268  782
511  2320  903
485  2353  1039
434  2389  1092
388  2457  1277
356  2537  1445
318  2614  1716
273  2698  1965
209  2778  2069
193  2822  2449
148  2826  2725
145  2834  3021
128  2895  3358
112  2923  3613
568  2417  482
584  2490  622
578  2515  741
552  2547  846
539  2575  968
517  2603  1086
482  2672  1198
437  2743  1357
401  2818  1534
350  2888  1732
302  2943  2025
209  3043  2210
193  3091  2505
174  3132  2784
145  3149  3156
128  3188  3481
96  3164  3726
619  2724  546
597  2752  654
587  2772  763
584  2790  878
568  2832  996
539  2854  1148
514  2939  1249
482  3009  1439
434  3081  1590
369  3135  1796
334  3228  2084
251  3322  2228
193  3392  2549
174  3417  2861
145  3443  3148
128  3447  3546
96  3437  3790
625  2960  546
622  3018  673
629  3030  821
600  3056  903
613  3091  1044
581  3140  1183
549  3211  1285
514  3268  1460
450  3342  1646
401  3386  1848
369  3461  2072
270  3567  2277
222  3647  2561
164  3702  2970
145  3734  3212
128  3763  3535
96  3629  3806
674  3164  626
691  3228  723
674  3260  835
658  3276  931
642  3308  1044
626  3324  1156
578  3404  1365
546  3437  1477
498  3485  1638
434  3581  1831
385  3677  2072
305  3790  2377
241  3854  2634
193  3950  2923
145  3983  3196
112  3983  3485
96  4031  3918
393  80  80
387  96  154
329  145  307
295  145  380
291  193  490
269  225  560
257  289  664
237  321  759
243  385  907
259  450  1063
269  530  1228
241  610  1353
225  674  1534
247  739  1703
235  787  1891
247  867  2125
273  947  2280
381  215  80
369  183  141
307  202  285
295  228  362
295  266  470
285  311  576
295  391  682
279  443  791
269  507  939
257  587  1094
241  645  1233
215  722  1373
221  796  1582
231  857  1767
237  895  1955
241  976  2198
241  1012  2329
291  269  112
301  273  196
311  279  285
301  317  371
299  365  486
275  410  591
257  468  680
253  544  823
237  628  964
231  682  1131
205  721  1319
209  821  1450
209  891  1630
209  962  1841
225  1010  2019
247  1112  2317
241  1156  2409
285  389  128
313  396  215
301  398  291
289  427  387
269  477  502
253  534  638
231  605  715
221  669  871
215  734  1012
199  816  1217
189  880  1367
193  977  1530
193  1059  1706
203  1119  1937
215  1192  2172
235  1266  2398
241  1301  2585
291  514  161
317  530  234
311  542  311
323  606  431
285  622  550
253  646  654
231  755  751
221  819  898
199  895  1068
203  927  1238
183  1024  1449
167  1116  1568
193  1192  1803
193  1297  2036
205  1337  2256
209  1417  2475
209  1429  2650
301  655  177
317  703  250
327  704  349
321  782  445
275  797  538
253  817  640
221  894  767
221  944  935
193  1024  1124
193  1149  1340
167  1212  1526
177  1310  1694
167  1390  1891
183  1439  2112
193  1489  2373
209  1567  2620
209  1574  2778
333  813  225
349  863  314
333  895  397
323  913  511
295  943  594
273  990  689
221  1090  825
199  1154  1005
193  1188  1212
193  1253  1395
183  1327  1606
171  1425  1793
145  1502  2023
171  1562  2284
171  1626  2529
177  1702  2790
209  1815  3003
365  1074  273
375  1112  375
369  1128  456
343  1148  552
311  1197  650
289  1246  752
273  1299  873
215  1357  1020
209  1416  1261
193  1464  1469
193  1491  1716
177  1614  1872
161  1689  2104
145  1753  2374
145  1828  2642
177  1925  2941
193  1991  3115
375  1269  289
385  1317  394
391  1357  506
381  1381  621
359  1405  707
337  1477  816
289  1526  915
267  1574  1068
231  1670  1325
215  1702  1535
193  1758  1724
193  1815  1951
173  1903  2216
145  1959  2497
134  2056  2790
151  2112  3050
161  2152  3212
430  1534  353
424  1572  456
424  1609  560
418  1640  676
418  1656  763
385  1688  878
337  1785  976
289  1828  1159
247  1920  1373
231  1962  1593
205  1983  1815
193  2074  2049
183  2112  2260
161  2171  2582
145  2278  2864
128  2369  3172
145  2361  3388
468  1783  401
472  1817  504
468  1851  614
452  1877  720
440  1883  819
418  1931  928
385  2041  1056
337  2116  1234
295  2168  1413
257  2260  1668
235  2282  1891
193  2341  2082
193  2379  2401
167  2415  2663
145  2473  3001
134  2575  3304
128  2553  3517
522  1953  434
538  2031  574
536  2050  699
526  2082  791
526  2174  927
478  2178  1053
418  2273  1168
395  2322  1331
353  2385  1493
289  2466  1752
251  2501  2025
215  2581  2195
193  2598  2481
183  2613  2816
151  2675  3123
145  2753  3426
112  2842  3677
602  2260  498
616  2341  648
584  2361  751
568  2401  862
552  2409  972
530  2425  1102
456  2533  1200
434  2614  1379
395  2674  1582
321  2718  1790
273  2786  2054
215  2887  2214
193  2927  2517
183  2931  2877
161  2967  3206
134  3011  3523
112  3067  3758
622  2515  530
632  2559  664
622  2617  795
600  2651  894
600  2681  1008
574  2720  1166
504  2795  1265
462  2864  1470
418  2924  1630
359  2979  1828
309  3059  2088
235  3170  2355
193  3209  2658
193  3259  2913
155  3277  3262
139  3284  3599
112  3292  3838
670  2778  594
687  2844  722
660  2881  839
638  2907  944
622  2939  1060
606  2975  1230
542  3043  1315
498  3115  1492
450  3194  1686
405  3260  1925
337  3334  2166
267  3449  2401
209  3523  2694
193  3543  2973
145  3545  3286
128  3565  3687
112  3533  3934
699  3037  610
703  3075  728
709  3169  881
670  3169  968
654  3217  1120
642  3226  1264
594  3316  1379
536  3364  1524
482  3471  1734
444  3522  1973
365  3609  2212
299  3682  2433
209  3763  2742
193  3798  3018
145  3853  3382
128  3875  3649
112  3758  4015
723  3244  658
739  3292  771
723  3356  915
707  3388  996
691  3404  1108
674  3421  1220
626  3485  1413
578  3565  1574
514  3645  1750
466  3726  1975
385  3806  2168
337  3902  2489
257  3967  2794
193  4031  3083
145  4015  3340
128  4031  3661
112  3999  3967
587  80  64
596  64  134
475  128  289
452  145  387
443  145  534
378  225  623
330  257  668
323  305  812
312  353  939
298  385  1099
307  498  1265
291  562  1385
307  658  1582
289  803  1797
282  851  2003
266  915  2263
257  996  2361
582  180  48
564  151  115
473  167  285
459  202  413
389  234  514
371  292  607
364  362  717
337  421  845
321  466  947
330  520  1120
321  597  1265
316  713  1434
300  783  1634
291  863  1848
273  970  2084
275  1046  2357
