PS/3DLUTs/crossing-c41.3dl
#Created by: Generate3DLut
#Generator: Copyright 2012 by Linus Hechinger
0 256 512 767 1023
193  128  128
177  209  389
193  353  763
209  578  1281
225  723  1654
193  470  145
145  582  462
128  791  923
145  1056  1582
193  1301  2425
289  1164  241
273  1237  598
177  1437  1100
128  1694  1971
128  2007  2987
482  2100  418
466  2188  823
353  2421  1381
193  2710  2292
112  2858  3469
642  3099  578
578  3180  947
482  3404  1558
225  3694  2489
80  3950  3710
791  64  48
610  128  578
442  337  1004
333  594  1606
337  1044  2473
562  582  128
614  626  602
518  887  1172
454  1228  1935
257  1590  2939
670  1293  273
735  1437  823
530  1710  1437
289  2023  2425
193  2409  3581
763  2425  626
682  2618  1116
430  2903  1799
229  3144  2790
145  3260  4015
851  3404  755
803  3661  1269
578  3790  1959
225  4015  3099
145  3983  3999
1485  64  0
1606  16  622
1405  225  1405
1180  530  2011
851  883  2778
1526  727  64
1710  594  502
1550  895  1558
1357  1233  2200
1172  1429  3164
1485  1606  305
1614  1742  919
1726  1879  1799
1750  2248  2690
1638  2521  3710
1654  2642  482
1799  2750  1289
2080  3055  2272
1847  3316  3152
1622  3517  4063
1670  3597  739
1927  3774  1542
2039  3854  2505
1638  4047  3437
1397  4047  4063
2116  177  0
2774  0  361
2453  193  1453
2381  385  2469
2088  771  3308
2533  759  0
3003  438  253
2814  731  1614
2722  1160  2850
2537  1510  3742
2553  1839  353
2911  1951  803
3200  1887  1734
3240  2497  3288
3131  2794  3950
2678  2903  530
2858  3115  1156
3095  3348  2361
3601  3673  3625
3613  3838  4063
2730  3710  594
2907  3774  1317
3340  3950  2762
3742  4063  3854
3694  4095  4095
2891  289  0
3838  0  128
4015  0  1285
3437  466  2505
3533  610  3710
3533  835  0
4095  482  193
4095  642  1493
3967  1124  3003
3983  1365  3950
3870  1943  193
3999  2007  723
4095  2007  1799
4095  2537  3453
4095  2939  4095
3694  3019  610
3758  3244  1140
3902  3533  2345
4095  3758  3645
4095  3999  4095
3677  3710  610
3726  3742  1188
3902  3902  2425
4063  4063  3854
4095  4095  4095
