PS/3DLUTs/DOCMA-Himmel.3dl
#Tokens required by applications - do not edit
3DMESH
Mesh 4 12
0 64 128 192 256 320 384 448 512 576 640 704 768 832 896 960 1023
0 38 103
0 38 370
0 38 620
0 38 861
0 38 1096
0 38 1327
0 38 1555
0 38 1780
0 38 2003
0 38 2223
0 38 2442
0 38 2659
0 38 2874
0 38 3088
0 38 3301
0 38 3513
0 38 3724
0 297 103
0 297 370
0 297 620
0 297 861
0 297 1096
0 297 1327
0 297 1555
0 297 1780
0 297 2003
0 297 2223
0 297 2442
0 297 2659
0 297 2874
0 297 3088
0 297 3301
0 297 3513
0 297 3724
0 579 103
0 579 370
0 579 620
0 579 861
0 579 1096
0 579 1327
0 579 1555
0 579 1780
0 579 2003
0 579 2223
0 579 2442
0 579 2659
0 579 2874
0 579 3088
0 579 3301
0 579 3513
0 579 3724
0 871 103
0 871 370
0 871 620
0 871 861
0 871 1096
0 871 1327
0 871 1555
0 871 1780
0 871 2003
0 871 2223
0 871 2442
0 871 2659
0 871 2874
0 871 3088
0 871 3301
0 871 3513
0 871 3724
0 1171 103
0 1171 370
0 1171 620
0 1171 861
0 1171 1096
0 1171 1327
0 1171 1555
0 1171 1780
0 1171 2003
0 1171 2223
0 1171 2442
0 1171 2659
0 1171 2874
0 1171 3088
0 1171 3301
0 1171 3513
0 1171 3724
0 1478 103
0 1478 370
0 1478 620
0 1478 861
0 1478 1096
0 1478 1327
0 1478 1555
0 1478 1780
0 1478 2003
0 1478 2223
0 1478 2442
0 1478 2659
0 1478 2874
0 1478 3088
0 1478 3301
0 1478 3513
0 1478 3724
0 1789 103
0 1789 370
0 1789 620
0 1789 861
0 1789 1096
0 1789 1327
0 1789 1555
0 1789 1780
0 1789 2003
0 1789 2223
0 1789 2442
0 1789 2659
0 1789 2874
0 1789 3088
0 1789 3301
0 1789 3513
0 1789 3724
0 2104 103
0 2104 370
0 2104 620
0 2104 861
0 2104 1096
0 2104 1327
0 2104 1555
0 2104 1780
0 2104 2003
0 2104 2223
0 2104 2442
0 2104 2659
0 2104 2874
0 2104 3088
0 2104 3301
0 2104 3513
0 2104 3724
0 2423 103
0 2423 370
0 2423 620
0 2423 861
0 2423 1096
0 2423 1327
0 2423 1555
0 2423 1780
0 2423 2003
0 2423 2223
0 2423 2442
0 2423 2659
0 2423 2874
0 2423 3088
0 2423 3301
0 2423 3513
0 2423 3724
0 2745 103
0 2745 370
0 2745 620
0 2745 861
0 2745 1096
0 2745 1327
0 2745 1555
0 2745 1780
0 2745 2003
0 2745 2223
0 2745 2442
0 2745 2659
0 2745 2874
0 2745 3088
0 2745 3301
0 2745 3513
0 2745 3724
0 3070 103
0 3070 370
0 3070 620
0 3070 861
0 3070 1096
0 3070 1327
0 3070 1555
0 3070 1780
0 3070 2003
0 3070 2223
0 3070 2442
0 3070 2659
0 3070 2874
0 3070 3088
0 3070 3301
0 3070 3513
0 3070 3724
0 3397 103
0 3397 370
0 3397 620
0 3397 861
0 3397 1096
0 3397 1327
0 3397 1555
0 3397 1780
0 3397 2003
0 3397 2223
0 3397 2442
0 3397 2659
0 3397 2874
0 3397 3088
0 3397 3301
0 3397 3513
0 3397 3724
0 3727 103
0 3727 370
0 3727 620
0 3727 861
0 3727 1096
0 3727 1327
0 3727 1555
0 3727 1780
0 3727 2003
0 3727 2223
0 3727 2442
0 3727 2659
0 3727 2874
0 3727 3088
0 3727 3301
0 3727 3513
0 3727 3724
0 4060 103
0 4060 370
0 4060 620
0 4060 861
0 4060 1096
0 4060 1327
0 4060 1555
0 4060 1780
0 4060 2003
0 4060 2223
0 4060 2442
0 4060 2659
0 4060 2874
0 4060 3088
0 4060 3301
0 4060 3513
0 4060 3724
0 4095 103
0 4095 370
0 4095 620
0 4095 861
0 4095 1096
0 4095 1327
0 4095 1555
0 4095 1780
0 4095 2003
0 4095 2223
0 4095 2442
0 4095 2659
0 4095 2874
0 4095 3088
0 4095 3301
0 4095 3513
0 4095 3724
0 4095 103
0 4095 370
0 4095 620
0 4095 861
0 4095 1096
0 4095 1327
0 4095 1555
0 4095 1780
0 4095 2003
0 4095 2223
0 4095 2442
0 4095 2659
0 4095 2874
0 4095 3088
0 4095 3301
0 4095 3513
0 4095 3724
0 4095 103
0 4095 370
0 4095 620
0 4095 861
0 4095 1096
0 4095 1327
0 4095 1555
0 4095 1780
0 4095 2003
0 4095 2223
0 4095 2442
0 4095 2659
0 4095 2874
0 4095 3088
0 4095 3301
0 4095 3513
0 4095 3724
206 38 103
206 38 370
206 38 620
206 38 861
206 38 1096
206 38 1327
206 38 1555
206 38 1780
206 38 2003
206 38 2223
206 38 2442
206 38 2659
206 38 2874
206 38 3088
206 38 3301
206 38 3513
206 38 3724
206 298 103
206 297 370
206 297 620
206 297 861
206 297 1096
206 297 1327
206 297 1555
206 297 1780
206 297 2003
206 297 2223
206 297 2442
206 297 2659
206 297 2874
206 297 3088
206 297 3301
206 297 3513
206 297 3724
206 579 103
217 587 365
206 579 620
206 579 861
206 579 1096
206 579 1327
206 579 1555
206 579 1780
206 579 2003
206 579 2223
206 579 2442
206 579 2659
206 579 2874
206 579 3088
206 579 3301
206 579 3513
206 579 3724
206 871 103
206 871 370
206 871 620
206 871 861
206 871 1096
206 871 1327
206 871 1555
206 871 1780
206 871 2003
206 871 2223
206 871 2442
206 871 2659
206 871 2874
206 871 3088
206 871 3301
206 871 3513
206 871 3724
206 1171 103
206 1171 370
206 1171 620
206 1171 861
206 1171 1096
206 1171 1327
206 1171 1555
206 1171 1780
206 1171 2003
206 1171 2223
206 1171 2442
206 1171 2659
206 1171 2874
206 1171 3088
206 1171 3301
206 1171 3513
206 1171 3724
206 1478 103
206 1478 370
206 1478 620
206 1478 861
206 1478 1096
206 1478 1327
206 1478 1555
206 1478 1780
206 1478 2003
206 1478 2223
206 1478 2442
206 1478 2659
206 1478 2874
206 1478 3088
206 1478 3301
206 1478 3513
206 1478 3724
206 1789 103
206 1789 370
206 1789 620
206 1789 861
206 1789 1096
206 1789 1327
206 1789 1555
206 1789 1780
206 1789 2003
206 1789 2223
206 1789 2442
206 1789 2659
206 1789 2874
206 1789 3088
206 1789 3301
206 1789 3513
206 1789 3724
206 2104 103
206 2104 370
206 2104 620
206 2104 861
206 2104 1096
206 2104 1327
206 2104 1555
206 2104 1780
206 2104 2003
206 2104 2223
206 2104 2442
206 2104 2659
206 2104 2874
206 2104 3088
206 2104 3301
206 2104 3513
206 2104 3724
206 2423 103
206 2423 370
206 2423 620
206 2423 861
206 2423 1096
206 2423 1327
206 2423 1555
206 2423 1780
206 2423 2003
206 2423 2223
206 2423 2442
206 2423 2659
206 2423 2874
206 2423 3088
206 2423 3301
206 2423 3513
206 2423 3724
206 2745 103
206 2745 370
206 2745 620
206 2745 861
206 2745 1096
206 2745 1327
206 2745 1555
206 2745 1780
206 2745 2003
206 2745 2223
206 2745 2442
206 2745 2659
206 2745 2874
206 2745 3088
206 2745 3301
206 2745 3513
206 2745 3724
206 3070 103
206 3070 370
206 3070 620
206 3070 861
206 3070 1096
206 3070 1327
206 3070 1555
206 3070 1780
206 3070 2003
206 3070 2223
206 3070 2442
206 3070 2659
206 3070 2874
206 3070 3088
206 3070 3301
206 3070 3513
206 3070 3724
206 3397 103
206 3397 370
206 3397 620
206 3397 861
206 3397 1096
206 3397 1327
206 3397 1555
206 3397 1780
206 3397 2003
206 3397 2223
206 3397 2442
206 3397 2659
206 3397 2874
206 3397 3088
206 3397 3301
206 3397 3513
206 3397 3724
206 3727 103
206 3727 370
206 3727 620
206 3727 861
206 3727 1096
206 3727 1327
206 3727 1555
206 3727 1780
206 3727 2003
206 3727 2223
206 3727 2442
206 3727 2659
206 3727 2874
206 3727 3088
206 3727 3301
206 3727 3513
206 3727 3724
206 4060 103
206 4060 370
206 4060 620
206 4060 861
206 4060 1096
206 4060 1327
206 4060 1555
206 4060 1780
206 4060 2003
206 4060 2223
206 4060 2442
206 4060 2659
206 4060 2874
206 4060 3088
206 4060 3301
206 4060 3513
206 4060 3724
206 4095 103
206 4095 370
206 4095 620
206 4095 861
206 4095 1096
206 4095 1327
206 4095 1555
206 4095 1780
206 4095 2003
206 4095 2223
206 4095 2442
206 4095 2659
206 4095 2874
206 4095 3088
206 4095 3301
206 4095 3513
206 4095 3724
206 4095 103
206 4095 370
206 4095 620
206 4095 861
206 4095 1096
206 4095 1327
206 4095 1555
206 4095 1780
206 4095 2003
206 4095 2223
206 4095 2442
206 4095 2659
206 4095 2874
206 4095 3088
206 4095 3301
206 4095 3513
206 4095 3724
206 4095 103
206 4095 370
206 4095 620
206 4095 861
206 4095 1096
206 4095 1327
206 4095 1555
206 4095 1780
206 4095 2003
206 4095 2223
206 4095 2442
206 4095 2659
206 4095 2874
206 4095 3088
206 4095 3301
206 4095 3513
206 4095 3724
556 38 103
556 38 370
556 38 620
556 38 861
556 38 1096
556 38 1327
556 38 1555
556 38 1780
556 38 2003
556 38 2223
556 38 2442
556 38 2659
556 38 2874
556 38 3088
556 38 3301
556 38 3513
556 38 3724
556 297 103
556 297 370
556 297 620
556 297 861
556 297 1096
556 297 1327
556 297 1555
556 297 1780
556 297 2003
556 297 2223
556 297 2442
556 297 2659
556 297 2874
556 297 3088
556 297 3301
556 297 3513
556 297 3724
556 579 103
740 675 315
556 579 620
556 579 861
556 579 1096
556 579 1327
556 579 1555
556 579 1780
556 579 2003
556 579 2223
556 579 2442
556 579 2659
556 579 2874
556 579 3088
556 579 3301
556 579 3513
556 579 3724
556 871 103
801 1036 301
1096 1233 492
556 871 861
556 871 1096
556 871 1327
556 871 1555
556 871 1780
556 871 2003
556 871 2223
556 871 2442
556 871 2659
556 871 2874
556 871 3088
556 871 3301
556 871 3513
556 871 3724
556 1171 103
556 1171 370
1012 1544 520
844 1407 810
591 1200 1091
556 1171 1327
556 1171 1555
556 1171 1780
556 1171 2003
556 1171 2223
556 1171 2442
556 1171 2659
556 1171 2874
556 1171 3088
556 1171 3301
556 1171 3513
556 1171 3724
556 1478 103
556 1478 370
680 1596 595
664 1581 843
618 1537 1089
573 1494 1326
556 1478 1555
556 1478 1780
556 1478 2003
556 1478 2223
556 1478 2442
556 1478 2659
556 1478 2874
556 1478 3088
556 1478 3301
556 1478 3513
556 1478 3724
556 1789 103
556 1789 370
556 1789 620
556 1789 861
556 1789 1096
556 1789 1327
556 1789 1555
556 1789 1780
556 1789 2003
556 1789 2223
556 1789 2442
556 1789 2659
556 1789 2874
556 1789 3088
556 1789 3301
556 1789 3513
556 1789 3724
556 2104 103
556 2104 370
556 2104 620
556 2104 861
556 2104 1096
556 2104 1327
556 2104 1555
556 2104 1780
556 2104 2003
556 2104 2223
556 2104 2442
556 2104 2659
556 2104 2874
556 2104 3088
556 2104 3301
556 2104 3513
556 2104 3724
556 2423 103
556 2423 370
556 2423 620
556 2423 861
556 2423 1096
556 2423 1327
556 2423 1555
556 2423 1780
556 2423 2003
556 2423 2223
556 2423 2442
556 2423 2659
556 2423 2874
556 2423 3088
556 2423 3301
556 2423 3513
556 2423 3724
556 2745 103
556 2745 370
556 2745 620
556 2745 861
556 2745 1096
556 2745 1327
556 2745 1555
556 2745 1780
556 2745 2003
556 2745 2223
556 2745 2442
556 2745 2659
556 2745 2874
556 2745 3088
556 2745 3301
556 2745 3513
556 2745 3724
556 3070 103
556 3070 370
556 3070 620
556 3070 861
556 3070 1096
556 3070 1327
556 3070 1555
556 3070 1780
556 3070 2003
556 3070 2223
556 3070 2442
556 3070 2659
556 3070 2874
556 3070 3088
556 3070 3301
556 3070 3513
556 3070 3724
556 3397 103
556 3397 370
556 3397 620
556 3397 861
556 3397 1096
556 3397 1327
556 3397 1555
556 3397 1780
556 3397 2003
556 3397 2223
556 3397 2442
556 3397 2659
556 3397 2874
556 3397 3088
556 3397 3301
556 3397 3513
556 3397 3724
556 3727 103
556 3727 370
556 3727 620
556 3727 861
556 3727 1096
556 3727 1327
556 3727 1555
556 3727 1780
556 3727 2003
556 3727 2223
556 3727 2442
556 3727 2659
556 3727 2874
556 3727 3088
556 3727 3301
556 3727 3513
556 3727 3724
556 4060 103
556 4060 370
556 4060 620
556 4060 861
556 4060 1096
556 4060 1327
556 4060 1555
556 4060 1780
556 4060 2003
556 4060 2223
556 4060 2442
556 4060 2659
556 4060 2874
556 4060 3088
556 4060 3301
556 4060 3513
556 4060 3724
556 4095 103
556 4095 370
556 4095 620
556 4095 861
556 4095 1096
556 4095 1327
556 4095 1555
556 4095 1780
556 4095 2003
556 4095 2223
556 4095 2442
556 4095 2659
556 4095 2874
556 4095 3088
556 4095 3301
556 4095 3513
556 4095 3724
556 4095 103
556 4095 370
556 4095 620
556 4095 861
556 4095 1096
556 4095 1327
556 4095 1555
556 4095 1780
556 4095 2003
556 4095 2223
556 4095 2442
556 4095 2659
556 4095 2874
556 4095 3088
556 4095 3301
556 4095 3513
556 4095 3724
556 4095 103
556 4095 370
556 4095 620
556 4095 861
556 4095 1096
556 4095 1327
556 4095 1555
556 4095 1780
556 4095 2003
556 4095 2223
556 4095 2442
556 4095 2659
556 4095 2874
556 4095 3088
556 4095 3301
556 4095 3513
556 4095 3724
925 38 103
925 38 370
925 38 620
925 38 861
925 38 1096
925 38 1327
925 38 1555
925 38 1780
925 38 2003
925 38 2223
925 38 2442
925 38 2659
925 38 2874
925 38 3088
925 38 3301
925 38 3513
925 38 3724
925 297 103
925 297 370
925 297 620
925 297 861
925 297 1096
925 297 1327
925 297 1555
925 297 1780
925 297 2003
925 297 2223
925 297 2442
925 297 2659
925 297 2874
925 297 3088
925 297 3301
925 297 3513
