PS/3DLUTs/DOCMA_Gelb_Blau_Kontrast.3dl
#Tokens required by applications - do not edit
3DMESH
Mesh 5 12
0 32 64 96 128 160 192 224 256 288 320 352 384 416 448 480 512 544 576 608 640 672 704 736 768 800 832 864 896 928 960 992 1023
0 0 153
0 0 275
0 0 401
0 0 531
0 0 663
0 0 798
0 0 935
0 0 1074
0 0 1215
0 0 1356
0 0 1500
0 0 1644
0 0 1789
0 0 1936
0 0 2083
0 0 2232
0 0 2381
0 0 2531
0 0 2682
0 0 2833
0 0 2986
0 0 3139
0 0 3292
0 0 3446
0 0 3601
0 0 3757
0 0 3913
0 0 4069
0 0 4095
0 0 4095
0 0 4095
0 0 4095
0 0 4095
0 0 153
0 0 275
0 0 401
0 0 531
0 0 663
0 0 798
0 0 935
0 0 1074
0 0 1215
0 0 1356
0 0 1500
0 0 1644
0 0 1789
0 0 1936
0 0 2083
0 0 2232
0 0 2381
0 0 2531
0 0 2682
0 0 2833
0 0 2986
0 0 3139
0 0 3292
0 0 3446
0 0 3601
0 0 3757
0 0 3913
0 0 4069
0 0 4095
0 0 4095
0 0 4095
0 0 4095
0 0 4095
0 0 153
0 0 275
0 0 401
0 0 531
0 0 663
0 0 798
0 0 935
0 0 1074
0 0 1215
0 0 1356
0 0 1500
0 0 1644
0 0 1789
0 0 1936
0 0 2083
0 0 2232
0 0 2381
0 0 2531
0 0 2682
0 0 2833
0 0 2986
0 0 3139
0 0 3292
0 0 3446
0 0 3601
0 0 3757
0 0 3913
0 0 4069
0 0 4095
0 0 4095
0 0 4095
0 0 4095
0 0 4095
0 153 153
0 153 275
0 153 401
0 153 531
0 153 663
0 153 798
0 153 935
0 153 1074
0 153 1215
0 153 1356
0 153 1500
0 153 1644
0 153 1789
0 153 1936
0 153 2083
0 153 2232
0 153 2381
0 153 2531
0 153 2682
0 153 2833
0 153 2986
0 153 3139
0 153 3292
0 153 3446
0 153 3601
0 153 3757
0 153 3913
0 153 4069
0 153 4095
0 153 4095
0 153 4095
0 153 4095
0 153 4095
0 348 153
0 348 275
0 348 401
0 348 531
0 348 663
0 348 798
0 348 935
0 348 1074
0 348 1215
0 348 1356
0 348 1500
0 348 1644
0 348 1789
0 348 1936
0 348 2083
0 348 2232
0 348 2381
0 348 2531
0 348 2682
0 348 2833
0 348 2986
0 348 3139
0 348 3292
0 348 3446
0 348 3601
0 348 3757
0 348 3913
0 348 4069
0 348 4095
0 348 4095
0 348 4095
0 348 4095
0 348 4095
0 531 153
0 531 275
0 531 401
0 531 531
0 531 663
0 531 798
0 531 935
0 531 1074
0 531 1215
0 531 1356
0 531 1500
0 531 1644
0 531 1789
0 531 1936
0 531 2083
0 531 2232
0 531 2381
0 531 2531
0 531 2682
0 531 2833
0 531 2986
0 531 3139
0 531 3292
0 531 3446
0 531 3601
0 531 3757
0 531 3913
0 531 4069
0 531 4095
0 531 4095
0 531 4095
0 531 4095
0 531 4095
0 705 153
0 705 275
0 705 401
0 705 531
0 705 663
0 705 798
0 705 935
0 705 1074
0 705 1215
0 705 1356
0 705 1500
0 705 1644
0 705 1789
0 705 1936
0 705 2083
0 705 2232
0 705 2381
0 705 2531
0 705 2682
0 705 2833
0 705 2986
0 705 3139
0 705 3292
0 705 3446
0 705 3601
0 705 3757
0 705 3913
0 705 4069
0 705 4095
0 705 4095
0 705 4095
0 705 4095
0 705 4095
0 875 153
0 875 275
0 875 401
0 875 531
0 875 663
0 875 798
0 875 935
0 875 1074
0 875 1215
0 875 1356
0 875 1500
0 875 1644
0 875 1789
0 875 1936
0 875 2083
0 875 2232
0 875 2381
0 875 2531
0 875 2682
0 875 2833
0 875 2986
0 875 3139
0 875 3292
0 875 3446
0 875 3601
0 875 3757
0 875 3913
0 875 4069
0 875 4095
0 875 4095
0 875 4095
0 875 4095
0 875 4095
0 1040 153
0 1040 275
0 1040 401
0 1040 531
0 1040 663
0 1040 798
0 1040 935
0 1040 1074
0 1040 1215
0 1040 1356
0 1040 1500
0 1040 1644
0 1040 1789
0 1040 1936
0 1040 2083
0 1040 2232
0 1040 2381
0 1040 2531
0 1040 2682
0 1040 2833
0 1040 2986
0 1040 3139
0 1040 3292
0 1040 3446
0 1040 3601
0 1040 3757
0 1040 3913
0 1040 4069
0 1040 4095
0 1040 4095
0 1040 4095
0 1040 4095
0 1040 4095
0 1202 153
0 1202 275
0 1202 401
0 1202 531
0 1202 663
0 1202 798
0 1202 935
0 1202 1074
0 1202 1215
0 1202 1356
0 1202 1500
0 1202 1644
0 1202 1789
0 1202 1936
0 1202 2083
0 1202 2232
0 1202 2381
0 1202 2531
0 1202 2682
0 1202 2833
0 1202 2986
0 1202 3139
0 1202 3292
0 1202 3446
0 1202 3601
0 1202 3757
0 1202 3913
0 1202 4069
0 1202 4095
0 1202 4095
0 1202 4095
0 1202 4095
0 1202 4095
0 1362 153
0 1362 275
0 1362 401
0 1362 531
0 1362 663
0 1362 798
0 1362 935
0 1362 1074
0 1362 1215
0 1362 1356
0 1362 1500
0 1362 1644
0 1362 1789
0 1362 1936
0 1362 2083
0 1362 2232
0 1362 2381
0 1362 2531
0 1362 2682
0 1362 2833
0 1362 2986
0 1362 3139
0 1362 3292
0 1362 3446
0 1362 3601
0 1362 3757
0 1362 3913
0 1362 4069
0 1362 4095
0 1362 4095
0 1362 4095
0 1362 4095
0 1362 4095
0 1519 153
0 1519 275
0 1519 401
0 1519 531
0 1519 663
0 1519 798
0 1519 935
0 1519 1074
0 1519 1215
0 1519 1356
0 1519 1500
0 1519 1644
0 1519 1789
0 1519 1936
0 1519 2083
0 1519 2232
0 1519 2381
0 1519 2531
0 1519 2682
0 1519 2833
0 1519 2986
0 1519 3139
0 1519 3292
0 1519 3446
0 1519 3601
0 1519 3757
0 1519 3913
0 1519 4069
0 1519 4095
0 1519 4095
0 1519 4095
0 1519 4095
0 1519 4095
0 1675 153
0 1675 275
0 1675 401
0 1675 531
0 1675 663
0 1675 798
0 1675 935
0 1675 1074
0 1675 1215
0 1675 1356
0 1675 1500
0 1675 1644
0 1675 1789
0 1675 1936
0 1675 2083
0 1675 2232
0 1675 2381
0 1675 2531
0 1675 2682
0 1675 2833
0 1675 2986
0 1675 3139
0 1675 3292
0 1675 3446
0 1675 3601
0 1675 3757
0 1675 3913
0 1675 4069
0 1675 4095
0 1675 4095
0 1675 4095
0 1675 4095
0 1675 4095
0 1828 153
0 1828 275
0 1828 401
0 1828 531
0 1828 663
0 1828 798
0 1828 935
0 1828 1074
0 1828 1215
0 1828 1356
0 1828 1500
0 1828 1644
0 1828 1789
0 1828 1936
0 1828 2083
0 1828 2232
0 1828 2381
0 1828 2531
0 1828 2682
0 1828 2833
0 1828 2986
0 1828 3139
0 1828 3292
0 1828 3446
0 1828 3601
0 1828 3757
0 1828 3913
0 1828 4069
0 1828 4095
0 1828 4095
0 1828 4095
0 1828 4095
0 1828 4095
0 1980 153
0 1980 275
0 1980 401
0 1980 531
0 1980 663
0 1980 798
0 1980 935
0 1980 1074
0 1980 1215
0 1980 1356
0 1980 1500
0 1980 1644
0 1980 1789
0 1980 1936
0 1980 2083
0 1980 2232
0 1980 2381
0 1980 2531
0 1980 2682
0 1980 2833
0 1980 2986
0 1980 3139
0 1980 3292
0 1980 3446
0 1980 3601
0 1980 3757
0 1980 3913
0 1980 4069
0 1980 4095
0 1980 4095
0 1980 4095
0 1980 4095
0 1980 4095
0 2131 153
0 2131 275
0 2131 401
0 2131 531
0 2131 663
0 2131 798
0 2131 935
0 2131 1074
0 2131 1215
0 2131 1356
0 2131 1500
0 2131 1644
0 2131 1789
0 2131 1936
0 2131 2083
0 2131 2232
0 2131 2381
0 2131 2531
0 2131 2682
0 2131 2833
0 2131 2986
0 2131 3139
0 2131 3292
0 2131 3446
0 2131 3601
0 2131 3757
0 2131 3913
0 2131 4069
0 2131 4095
0 2131 4095
0 2131 4095
0 2131 4095
0 2131 4095
0 2280 153
0 2280 275
0 2280 401
0 2280 531
0 2280 663
0 2280 798
0 2280 935
0 2280 1074
0 2280 1215
0 2280 1356
0 2280 1500
0 2280 1644
0 2280 1789
0 2280 1936
0 2280 2083
0 2280 2232
0 2280 2381
0 2280 2531
0 2280 2682
0 2280 2833
0 2280 2986
0 2280 3139
0 2280 3292
0 2280 3446
0 2280 3601
0 2280 3757
0 2280 3913
0 2280 4069
0 2280 4095
0 2280 4095
0 2280 4095
0 2280 4095
0 2280 4095
0 2428 153
0 2428 275
0 2428 401
0 2428 531
0 2428 663
0 2428 798
0 2428 935
0 2428 1074
0 2428 1215
0 2428 1356
0 2428 1500
0 2428 1644
0 2428 1789
0 2428 1936
0 2428 2083
0 2428 2232
0 2428 2381
0 2428 2531
0 2428 2682
0 2428 2833
0 2428 2986
0 2428 3139
0 2428 3292
0 2428 3446
0 2428 3601
0 2428 3757
0 2428 3913
0 2428 4069
0 2428 4095
0 2428 4095
0 2428 4095
0 2428 4095
0 2428 4095
0 2575 153
0 2575 275
0 2575 401
0 2575 531
0 2575 663
0 2575 798
0 2575 935
0 2575 1074
0 2575 1215
0 2575 1356
0 2575 1500
0 2575 1644
0 2575 1789
0 2575 1936
0 2575 2083
0 2575 2232
0 2575 2381
0 2575 2531
0 2575 2682
0 2575 2833
0 2575 2986
0 2575 3139
0 2575 3292
0 2575 3446
0 2575 3601
0 2575 3757
0 2575 3913
0 2575 4069
0 2575 4095
0 2575 4095
0 2575 4095
0 2575 4095
0 2575 4095
0 2721 153
0 2721 275
0 2721 401
0 2721 531
0 2721 663
0 2721 798
0 2721 935
0 2721 1074
0 2721 1215
0 2721 1356
0 2721 1500
0 2721 1644
0 2721 1789
0 2721 1936
0 2721 2083
0 2721 2232
0 2721 2381
0 2721 2531
0 2721 2682
0 2721 2833
0 2721 2986
0 2721 3139
0 2721 3292
0 2721 3446
0 2721 3601
0 2721 3757
0 2721 3913
0 2721 4069
0 2721 4095
0 2721 4095
0 2721 4095
0 2721 4095
0 2721 4095
0 2866 153
0 2866 275
0 2866 401
0 2866 531
0 2866 663
0 2866 798
0 2866 935
0 2866 1074
0 2866 1215
0 2866 1356
0 2866 1500
0 2866 1644
0 2866 1789
0 2866 1936
0 2866 2083
0 2866 2232
0 2866 2381
0 2866 2531
0 2866 2682
0 2866 2833
0 2866 2986
0 2866 3139
0 2866 3292
0 2866 3446
0 2866 3601
0 2866 3757
0 2866 3913
0 2866 4069
0 2866 4095
0 2866 4095
0 2866 4095
0 2866 4095
0 2866 4095
0 3010 153
0 3010 275
0 3010 401
0 3010 531
0 3010 663
0 3010 798
0 3010 935
0 3010 1074
0 3010 1215
0 3010 1356
0 3010 1500
0 3010 1644
0 3010 1789
0 3010 1936
0 3010 2083
0 3010 2232
0 3010 2381
0 3010 2531
0 3010 2682
0 3010 2833
0 3010 2986
0 3010 3139
0 3010 3292
0 3010 3446
0 3010 3601
0 3010 3757
0 3010 3913
0 3010 4069
0 3010 4095
0 3010 4095
0 3010 4095
0 3010 4095
0 3010 4095
0 3153 153
0 3153 275
0 3153 401
0 3153 531
0 3153 663
0 3153 798
0 3153 935
0 3153 1074
0 3153 1215
0 3153 1356
0 3153 1500
0 3153 1644
0 3153 1789
0 3153 1936
0 3153 2083
0 3153 2232
0 3153 2381
0 3153 2531
0 3153 2682
0 3153 2833
0 3153 2986
0 3153 3139
0 3153 3292
0 3153 3446
0 3153 3601
0 3153 3757
0 3153 3913
0 3153 4069
0 3153 4095
0 3153 4095
0 3153 4095
0 3153 4095
0 3153 4095
0 3296 153
0 3296 275
0 3296 401
0 3296 531
0 3296 663
0 3296 798
0 3296 935
0 3296 1074
0 3296 1215
0 3296 1356
0 3296 1500
0 3296 1644
0 3296 1789
0 3296 1936
0 3296 2083
0 3296 2232
0 3296 2381
0 3296 2531
0 3296 2682
0 3296 2833
0 3296 2986
0 3296 3139
0 3296 3292
0 3296 3446
0 3296 3601
0 3296 3757
0 3296 3913
0 3296 4069
0 3296 4095
0 3296 4095
0 3296 4095
0 3296 4095
0 3296 4095
0 3437 153
0 3437 275
0 3437 401
0 3437 531
0 3437 663
0 3437 798
0 3437 935
0 3437 1074
0 3437 1215
0 3437 1356
0 3437 1500
0 3437 1644
0 3437 1789
0 3437 1936
0 3437 2083
0 3437 2232
0 3437 2381
0 3437 2531
0 3437 2682
0 3437 2833
0 3437 2986
0 3437 3139
0 3437 3292
0 3437 3446
0 3437 3601
0 3437 3757
0 3437 3913
0 3437 4069
0 3437 4095
0 3437 4095
0 3437 4095
0 3437 4095
0 3437 4095
0 3578 153
0 3578 275
0 3578 401
0 3578 531
0 3578 663
0 3578 798
0 3578 935
0 3578 1074
0 3578 1215
0 3578 1356
0 3578 1500
0 3578 1644
0 3578 1789
0 3578 1936
0 3578 2083
0 3578 2232
0 3578 2381
0 3578 2531
0 3578 2682
0 3578 2833
0 3578 2986
0 3578 3139
0 3578 3292
0 3578 3446
0 3578 3601
0 3578 3757
0 3578 3913
0 3578 4069
0 3578 4095
0 3578 4095
0 3578 4095
0 3578 4095
0 3578 4095
0 3719 153
0 3719 275
0 3719 401
0 3719 531
0 3719 663
0 3719 798
0 3719 935
0 3719 1074
0 3719 1215
0 3719 1356
0 3719 1500
0 3719 1644
0 3719 1789
0 3719 1936
0 3719 2083
0 3719 2232
0 3719 2381
0 3719 2531
0 3719 2682
0 3719 2833
0 3719 2986
0 3719 3139
0 3719 3292
0 3719 3446
0 3719 3601
0 3719 3757
0 3719 3913
0 3719 4069
0 3719 4095
0 3719 4095
0 3719 4095
0 3719 4095
0 3719 4095
0 3858 153
0 3858 275
0 3858 401
0 3858 531
0 3858 663
0 3858 798
0 3858 935
0 3858 1074
0 3858 1215
