PS/3DLUTs/DOCMA_Landschaft.3dl
#Tokens required by applications - do not edit
3DMESH
Mesh 4 12
0 64 128 192 256 320 384 448 512 576 640 704 768 832 896 960 1023
144 144 144
149 149 275
155 155 428
162 162 598
169 169 782
176 176 979
184 184 1188
191 191 1407
199 199 1637
199 199 1869
133 133 2045
67 67 2231
15 15 2440
25 25 2718
35 35 3006
250 250 3503
257 257 3804
169 295 169
173 299 299
178 304 454
183 309 627
189 315 814
195 321 1016
201 327 1229
207 334 1454
213 340 1689
185 311 1900
103 230 2068
25 152 2250
0 119 2485
5 132 2774
16 143 3071
254 381 3600
259 386 3907
193 471 193
196 474 322
199 479 479
203 483 654
208 488 846
212 494 1051
217 499 1269
222 504 1499
226 509 1740
160 444 1920
61 346 2079
0 255 2255
0 247 2523
0 264 2823
0 278 3131
256 543 3695
259 547 4009
214 668 214
215 671 342
218 675 500
220 679 679
223 683 874
227 688 1083
230 692 1306
233 697 1541
236 701 1787
123 590 1928
7 476 2077
0 373 2248
0 397 2554
0 417 2866
0 435 3185
254 729 3785
255 732 4095
230 883 230
230 886 357
231 889 517
233 893 698
234 897 897
236 901 1111
237 905 1338
239 909 1577
233 905 1821
76 751 1926
0 620 2065
0 534 2260
0 564 2579
0 589 2903
0 610 3232
246 935 3871
246 938 4095
241 1116 241
240 1119 367
239 1122 528
239 1125 712
239 1129 915
239 1132 1132
239 1136 1364
239 1139 1608
207 1111 1833
33 941 1928
0 782 2046
0 714 2265
0 750 2597
0 779 2933
0 804 3273
232 1160 3950
230 1162 4095
245 1365 245
243 1368 369
241 1371 533
239 1374 720
238 1377 925
236 1380 1147
234 1383 1383
233 1386 1632
186 1344 1849
10 1174 1950
0 1009 2068
0 929 2282
0 954 2609
0 988 2956
0 1016 3308
211 1402 4022
208 1403 4095
242 1630 242
238 1633 365
235 1635 530
232 1638 720
228 1641 929
225 1644 1154
222 1646 1395
219 1649 1649
167 1603 1868
0 1435 1976
0 1272 2102
0 1202 2332
0 1215 2655
0 1226 2987
0 1246 3337
183 1660 4087
177 1661 4095
175 1855 175
172 1859 299
169 1863 467
166 1868 661
163 1872 876
160 1876 1107
157 1881 1354
154 1885 1615
151 1889 1889
0 1724 2007
0 1563 2140
0 1494 2377
0 1506 2706
0 1516 3044
0 1525 3389
146 1935 4095
138 1934 4095
0 1981 0
0 1987 110
0 1994 283
0 2000 482
0 2007 702
0 2013 940
0 2020 1194
0 2027 1463
0 2033 1745
0 2040 2040
0 1883 2184
0 1805 2418
0 1816 2752
0 1825 3095
0 1832 3446
100 2224 4095
90 2223 4095
0 2140 0
0 2149 0
0 2158 107
0 2167 312
0 2176 538
0 2185 783
0 2194 1045
0 2203 1321
0 2212 1611
0 2221 1915
0 2230 2230
0 2136 2454
0 2145 2793
0 2152 3141
0 2158 3497
45 2528 4095
33 2527 4095
0 2415 0
0 2422 0
0 2428 16
0 2435 221
0 2442 449
0 2449 695
0 2455 959
0 2461 1238
0 2468 1531
0 2474 1836
0 2480 2155
0 2486 2486
0 2493 2829
0 2498 3181
0 2500 3539
0 2849 4095
0 2849 4095
0 2782 0
0 2789 0
0 2796 0
0 2803 206
0 2810 437
0 2817 688
0 2823 957
0 2830 1240
0 2836 1539
0 2839 1849
0 2839 2170
0 2839 2500
0 2839 2839
0 2839 3185
0 2839 3539
0 3187 4095
0 3187 4095
0 3162 0
0 3169 0
0 3176 0
0 3184 180
0 3185 419
0 3185 677
0 3185 951
0 3185 1239
0 3185 1538
0 3185 1849
0 3185 2170
0 3185 2500
0 3185 2839
0 3185 3185
0 3185 3539
0 3534 4095
0 3534 4095
0 3539 0
0 3539 0
0 3539 0
0 3539 178
0 3539 419
0 3539 677
0 3539 951
0 3539 1239
0 3539 1538
0 3539 1849
0 3539 2170
0 3539 2500
0 3539 2839
0 3539 3185
0 3539 3539
0 3887 4095
0 3887 4095
0 3902 0
0 3902 0
0 3902 0
0 3902 178
0 3902 419
0 3902 677
0 3902 951
0 3902 1239
0 3902 1538
0 3902 1849
0 3902 2170
0 3902 2500
0 3902 2839
0 3902 3185
0 3902 3539
0 4095 4095
0 4095 4095
0 4095 0
0 4095 0
0 4095 0
0 4095 178
0 4095 419
0 4095 677
0 4095 951
0 4095 1239
0 4095 1538
0 4095 1849
0 4095 2170
0 4095 2500
0 4095 2839
0 4095 3185
0 4095 3539
0 4095 4095
0 4095 4095
283 157 157
288 162 288
294 167 442
300 173 613
306 180 799
313 186 999
320 193 1210
327 200 1432
333 207 1664
326 199 1892
271 145 2084
214 88 2282
177 50 2509
184 57 2788
190 63 3076
379 253 3553
385 259 3857
305 305 179
309 309 309
313 313 465
318 318 639
323 323 829
329 329 1032
334 334 1248
340 340 1475
345 345 1713
264 264 1875
185 185 2050
114 114 2243
126 126 2527
137 137 2818
147 147 3118
380 380 3647
385 385 3958
326 480 200
329 483 329
332 486 486
335 491 664
339 495 857
343 499 1065
347 504 1285
351 509 1517
328 486 1734
222 381 1879
126 285 2044
69 229 2258
87 247 2556
102 263 2859
114 276 3170
379 541 3739
382 545 4057
344 675 218
345 678 345
347 681 505
349 685 685
352 689 882
354 693 1094
357 696 1319
359 700 1556
297 640 1741
167 511 1868
52 398 2023
17 364 2266
40 389 2578
60 410 2894
76 427 3217
374 726 3826
375 729 4095
357 890 231
357 893 357
358 895 518
358 898 701
359 902 902
360 905 1118
361 908 1347
362 912 1589
256 808 1737
99 654 1846
0 525 1991
0 517 2266
0 549 2592
11 576 2922
31 598 3256
363 932 3908
362 933 4095
365 1123 238
363 1125 363
362 1127 526
362 1130 712
361 1133 916
360 1136 1136
360 1138 1370
359 1141 1617
221 1008 1740
27 818 1819
0 669 1951
0 687 2260
0 727 2600
0 760 2943
0 786 3289
346 1156 3984
343 1157 4095
365 1371 239
363 1373 363
360 1376 527
358 1378 715
356 1380 923
354 1383 1147
351 1385 1385
349 1388 1637
201 1245 1757
7 1056 1843
0 874 1948
0 877 2248
0 923 2601
0 962 2957
0 993 3316
322 1398 4053
317 1398 4095
359 1636 232
355 1638 355
351 1640 521
347 1642 712
343 1644 923
339 1646 1150
335 1648 1393
331 1650 1650
186 1512 1780
0 1324 1873
0 1144 1986
0 1151 2296
0 1168 2627
0 1182 2966
0 1218 3336
290 1655 4095
283 1655 4095
294 1866 167
189 1769 189
187 1774 360
185 1779 557
183 1785 775
181 1790 1010
179 1795 1262
177 1801 1527
176 1806 1806
0 1622 1908
0 1444 2029
0 1443 2338
0 1459 2675
0 1472 3020
0 1484 3372
249 1929 4095
240 1928 4095
107 1998 0
0 1885 0
0 1893 160
0 1901 362
0 1908 586
0 1916 828
0 1923 1087
0 1931 1360
0 1939 1647
0 1947 1947
0 1774 2078
0 1755 2376
0 1769 2718
0 1781 3068
0 1791 3426
200 2218 4095
189 2216 4095
0 2164 0
0 2039 0
0 2049 0
0 2059 180
0 2069 410
0 2079 659
0 2089 926
0 2100 1206
0 2110 1502
0 2121 1810
0 2131 2131
0 2086 2408
0 2098 2755
0 2109 3110
0 2117 3474
141 2523 4095
128 2520 4095
0 2433 0
0 2379 0
0 2385 0
0 2391 150
0 2397 379
0 2403 628
0 2409 894
0 2415 1176
0 2420 1471
0 2425 1780
0 2431 2102
0 2436 2436
0 2442 2781
0 2448 3133
0 2452 3492
127 2849 4095
127 2849 4095
0 2800 0
0 2751 0
0 2757 0
0 2764 135
0 2770 369
0 2776 622
0 2781 893
0 2781 1181
0 2781 1481
0 2781 1791
0 2781 2112
0 2781 2442
0 2781 2781
0 2786 3133
0 2791 3492
127 3187 4095
127 3187 4095
0 3181 0
0 3133 0
0 3133 0
0 3133 125
0 3133 366
0 3133 625
0 3133 899
0 3133 1186
0 3133 1486
0 3133 1797
0 3133 2118
0 3133 2448
0 3133 2786
0 3133 3133
0 3138 3492
127 3534 4095
127 3534 4095
0 3539 0
0 3492 0
0 3492 0
0 3492 130
0 3492 370
0 3492 629
0 3492 903
0 3492 1191
0 3492 1491
0 3492 1801
0 3492 2122
0 3492 2452
0 3492 2791
0 3492 3138
0 3492 3492
127 3887 4095
127 3887 4095
0 3902 0
0 3902 0
0 3902 0
0 3902 178
0 3902 419
0 3902 677
0 3902 951
0 3902 1239
0 3902 1538
0 3902 1849
0 3902 2170
0 3902 2500
0 3902 2839
0 3902 3185
0 3902 3539
127 4095 4095
127 4095 4095
0 4095 0
0 4095 0
0 4095 0
0 4095 178
0 4095 419
0 4095 677
0 4095 951
0 4095 1239
0 4095 1538
0 4095 1849
0 4095 2170
0 4095 2500
0 4095 2839
0 4095 3185
0 4095 3539
127 4095 4095
127 4095 4095
447 172 172
451 176 302
457 181 457
463 186 630
469 192 818
476 198 1019
482 204 1232
489 210 1457
496 216 1692
486 206 1921
446 165 2130
400 118 2343
376 93 2586
378 95 2865
381 97 3153
540 256 3604
546 261 3911
469 317 190
472 320 320
477 324 477
481 328 652
486 332 844
492 337 1050
497 342 1268
502 346 1497
499 343 1730
441 284 1918
378 220 2112
327 169 2327
332 173 2608
338 178 2898
343 183 3196
541 381 3694
545 384 4009
489 489 208
492 492 336
495 495 495
498 498 674
502 502 869
506 506 1079
510 510 1301
514 514 1536
419 419 1684
326 326 1845
237 237 2021
251 251 2309
264 264 2605
275 275 2909
285 285 3220
540 540 3783
542 542 4095
507 684 222
508 686 350
510 689 510
512 691 691
514 695 890
517 698 1104
519 701 1332
499 682 1549
360 544 1660
241 426 1803
160 346 1994
186 373 2301
207 395 2614
225 413 2932
240 429 3257
534 724 3867
535 725 4095
520 898 232
519 899 358
520 902 520
521 904 704
521 907 907
522 909 1125
523 912 1357
466 857 1543
286 679 1621
141 536 1745
74 471 1957
113 511 2285
143 543 2615
167 569 2948
195 599 3294
523 928 3946
522 929 4095
526 1129 235
525 1131 360
524 1133 524
523 1135 711
522 1137 917
522 1139 1139
521 1141 1375
438 1061 1543
211 838 1581
31 662 1677
0 612 1912
31 667 2261
71 710 2608
102 744 2956
146 791 3327
505 1151 4018
502 1151 4095
526 1377 232
524 1379 356
521 1380 521
519 1382 711
516 1384 920
514 1386 1146
512 1387 1387
423 1303 1556
195 1080 1599
0 870 1668
0 785 1873
0 840 2229
0 893 2594
29 935 2958
90 1000 3353
480 1392 4083
475 1391 4095
519 1641 222
515 1643 344
421 1554 421
419 1558 616
418 1562 831
417 1566 1064
415 1570 1312
414 1575 1575
185 1352 1624
0 1143 1699
0 1058 1911
0 1083 2243
0 1104 2582
0 1145 2952
27 1226 3371
447 1650 4095
440 1648 4095
464 1882 164
359 1784 185
185 1617 185
184 1624 385
184 1630 606
183 1636 846
183 1642 1102
183 1649 1372
183 1655 1655
0 1448 1738
0 1350 1943
0 1374 2281
0 1394 2626
0 1412 2979
0 1472 3385
406 1923 4095
397 1921 4095
290 2027 0
159 1906 0
0 1721 0
0 1730 171
0 1738 399
0 1747 645
0 1756 908
0 1765 1186
0 1774 1478
0 1783 1783
0 1661 1969
0 1684 2313
0 1703 2663
0 1719 3022
0 1775 3430
355 2212 4095
344 2209 4095
117 2198 0
0 2065 0
0 1956 0
0 1961 59
0 1966 286
0 1970 532
0 1975 796
0 1979 1074
0 1983 1367
0 1987 1672
0 1991 1991
0 2012 2339
0 2030 2695
0 2045 3059
0 2091 3461
314 2520 4095
314 2520 4095
6 2454 0
0 2395 0
0 2321 0
0 2326 56
0 2330 288
0 2335 538
0 2340 807
0 2344 1090
0 2349 1388
0 2350 1699
0 2350 2020
0 2350 2350
0 2364 2703
0 2377 3063
0 2421 3461
314 2849 4095
314 2849 4095
0 2818 0
0 2768 0
0 2697 0
0 2702 42
0 2703 282
0 2703 541
0 2703 815
0 2703 1103
0 2703 1402
0 2703 1713
0 2703 2034
0 2703 2364
0 2703 2703
0 2716 3063
0 2760 3461
314 3187 4095
314 3187 4095
0 3185 0
0 3133 0
0 3063 0
0 3063 53
0 3063 294
0 3063 553
0 3063 827
0 3063 1115
0 3063 1415
0 3063 1725
0 3063 2046
0 3063 2377
0 3063 2716
0 3063 3063
0 3107 3461
314 3534 4095
314 3534 4095
0 3539 0
0 3492 0
0 3461 0
0 3461 98
0 3461 339
0 3461 598
0 3461 872
0 3461 1160
0 3461 1459
0 3461 1770
0 3461 2091
0 3461 2421
0 3461 2760
0 3461 3107
0 3461 3461
314 3887 4095
314 3887 4095
0 3902 0
0 3902 0
0 3902 0
0 3902 178
0 3902 419
0 3902 677
0 3902 951
0 3902 1239
0 3902 1538
0 3902 1849
0 3902 2170
0 3902 2500
0 3902 2839
0 3902 3185
0 3902 3539
314 4095 4095
314 4095 4095
0 4095 0
0 4095 0
0 4095 0
0 4095 178
0 4095 419
0 4095 677
0 4095 951
0 4095 1239
0 4095 1538
0 4095 1849
0 4095 2170
0 4095 2500
0 4095 2839
0 4095 3185
0 4095 3539
314 4095 4095
314 4095 4095
630 187 187
635 190 316
640 194 472
646 199 646
653 204 836
659 209 1039
666 214 1255
673 220 1482
680 225 1720
675 219 1958
651 194 2185
617 158 2413
601 140 2667
599 136 2944
598 134 3232
724 259 3654
729 263 3965
653 329 202
656 331 331
661 334 488
666 337 666
671 341 859
676 345 1067
682 349 1287
687 353 1520
685 349 1756
650 314 1970
605 266 2184
569 229 2418
567 225 2694
566 223 2981
566 222 3278
726 380 3742
