PS/3DLUTs/filmstock2.CUBE
#Copyright: (C) Copyright 2017 Kim Amland
TITLE "Kim Amland - Photographic 01"
#LUT size
LUT_3D_SIZE 5
#data domain
#LUT data points
DOMAIN_MIN 0.000000 0.000000 0.000000
DOMAIN_MAX 0.903226 0.903226 0.903226
0.000000 0.000000 0.000000
0.197113 0.000000 0.025604
0.590668 0.000000 0.000000
0.941589 0.000000 0.000000
1.000000 0.133148 0.134338
0.000000 0.240051 0.000000
0.246643 0.246338 0.000000
0.603363 0.297119 0.000000
0.936737 0.318146 0.000000
1.000000 0.329681 0.155090
0.000000 0.622437 0.000000
0.301941 0.623291 0.000000
0.625610 0.625031 0.000000
0.917511 0.618347 0.033478
1.000000 0.584351 0.223663
0.205078 0.878357 0.203552
0.361023 0.876740 0.208801
0.607483 0.871643 0.224640
0.863159 0.862549 0.252686
1.000000 0.815796 0.345612
0.472626 0.989014 0.471985
0.520020 0.987640 0.474792
0.638000 0.983337 0.482941
0.796448 0.975708 0.497894
0.965546 0.964966 0.519501
0.000000 0.027496 0.238312
0.240692 0.000000 0.241028
0.588135 0.000000 0.280487
0.926361 0.000000 0.317505
1.000000 0.245636 0.373352
0.000000 0.236267 0.236786
0.249237 0.248901 0.249512
0.588013 0.277679 0.278351
0.920837 0.323578 0.324310
1.000000 0.384125 0.384735
0.000000 0.609833 0.294464
0.296387 0.611053 0.296265
0.614746 0.614166 0.302002
0.902985 0.618927 0.351624
1.000000 0.609772 0.423523
0.308685 0.870972 0.414154
0.417297 0.869629 0.416931
0.626160 0.865601 0.425598
0.859100 0.858490 0.441772
1.000000 0.822937 0.500061
0.544556 0.983429 0.578766
0.580963 0.982239 0.580597
0.676788 0.978638 0.586243
0.812836 0.972229 0.596405
0.963776 0.963226 0.611633
0.000000 0.000000 0.631927
0.312042 0.000000 0.629639
0.622437 0.000000 0.623108
0.920593 0.036285 0.621765
1.000000 0.351929 0.622253
0.000000 0.295258 0.616760
0.295044 0.294769 0.614624
0.611694 0.296234 0.612213
0.902710 0.360596 0.622925
1.000000 0.502899 0.650055
0.002472 0.612061 0.613007
0.326691 0.612762 0.613647
0.635284 0.634827 0.635620
0.866364 0.656555 0.657196
1.000000 0.695007 0.695496
0.461121 0.859100 0.664215
0.544373 0.856689 0.674957
0.684967 0.854584 0.684998
0.853180 0.852692 0.691711
0.996490 0.844330 0.723267
0.678802 0.970886 0.754974
0.699646 0.970215 0.755859
0.758484 0.968201 0.758453
0.850250 0.964630 0.763336
0.960052 0.959656 0.770538
0.092651 0.093506 0.887756
0.323639 0.103027 0.886871
0.602203 0.140747 0.883301
0.876251 0.217041 0.877106
1.000000 0.387665 0.840912
0.202271 0.357391 0.878693
0.363281 0.363159 0.877655
0.613678 0.382507 0.874420
0.868134 0.423340 0.868866
1.000000 0.524170 0.841156
0.391632 0.641571 0.862885
0.498108 0.653656 0.860260
0.674469 0.674164 0.856628
0.854614 0.685883 0.855042
0.998962 0.730713 0.850616
0.529968 0.852753 0.853546
0.593170 0.852600 0.853302
0.725891 0.854034 0.854706
0.864380 0.864105 0.864594
0.966858 0.875092 0.875488
0.732513 0.965210 0.865234
0.758606 0.963867 0.869171
0.821991 0.960907 0.880280
0.888245 0.959137 0.888306
0.958160 0.957916 0.891418
0.258484 0.258636 0.999847
0.365326 0.272797 0.999756
0.565063 0.315491 0.999298
0.783844 0.391205 0.994141
0.985565 0.489502 0.986237
0.377106 0.440613 0.995605
0.450348 0.450287 0.994690
0.611328 0.480408 0.991821
0.800385 0.530182 0.986786
0.979614 0.591064 0.980194
0.604858 0.707336 0.976257
0.640717 0.713501 0.975372
0.723206 0.723022 0.973724
0.840454 0.739532 0.971008
0.967346 0.761566 0.967560
0.693024 0.849792 0.965515
0.725861 0.855194 0.964447
0.802460 0.869415 0.961945
0.883453 0.883301 0.959991
0.959534 0.888611 0.959442
0.774414 0.957977 0.958527
0.794159 0.957855 0.958405
0.843903 0.957855 0.958344
0.906525 0.958649 0.959015
0.961487 0.961334 0.961578
