PS/3DLUTs/filmstock3.CUBE
#Copyright: (C) Copyright 2017 Kim Amland
TITLE "Kim Amland - Photographic 02"
#LUT size
LUT_3D_SIZE 32
#data domain
DOMAIN_MIN 0.0 0.0 0.0
DOMAIN_MAX 1.0 1.0 1.0
#LUT data points
0.001495 0.001495 0.001495
0.007446 0.001495 0.001495
0.016327 0.001465 0.001465
0.028107 0.001495 0.001617
0.052948 0.001648 0.002747
0.088654 0.002625 0.006561
0.141113 0.004425 0.011139
0.197968 0.006409 0.015594
0.263123 0.007874 0.019470
0.339569 0.009247 0.023773
0.410095 0.010986 0.028473
0.477325 0.012939 0.032898
0.536957 0.015198 0.037262
0.593689 0.017822 0.041931
0.644409 0.020905 0.046661
0.690399 0.024353 0.051331
0.731995 0.030487 0.058136
0.770294 0.040894 0.068024
0.805756 0.054535 0.079865
0.839233 0.067047 0.092041
0.869293 0.077942 0.104645
0.894379 0.089172 0.116241
0.921509 0.113434 0.138611
0.946075 0.143188 0.168610
0.960266 0.155975 0.181793
0.969788 0.165161 0.191589
0.977631 0.168854 0.195923
0.985199 0.172028 0.199982
0.991730 0.174042 0.202148
0.997986 0.175171 0.204193
1.000000 0.176697 0.205872
1.000000 0.177002 0.206238
0.001465 0.008972 0.001465
0.009216 0.009216 0.001465
0.017578 0.009430 0.001404
0.033417 0.009827 0.001770
0.060089 0.010223 0.003632
0.098724 0.011322 0.007629
0.153595 0.012695 0.012054
0.207642 0.014130 0.016205
0.275330 0.015717 0.020172
0.349396 0.017395 0.024475
0.418427 0.019196 0.028931
0.483429 0.021515 0.033569
0.541992 0.024109 0.037659
0.597717 0.028351 0.042480
0.648621 0.035126 0.047211
0.694580 0.043121 0.052551
0.735657 0.052917 0.059692
0.773712 0.066833 0.069946
0.808655 0.079193 0.081573
0.841858 0.091431 0.093994
0.871857 0.102875 0.106201
0.896881 0.113373 0.117493
0.923401 0.136200 0.139709
0.947845 0.165924 0.169037
0.960938 0.176880 0.181183
0.969788 0.185089 0.190491
0.977417 0.188171 0.194092
0.985016 0.191284 0.197998
0.991516 0.192902 0.200104
0.997925 0.194427 0.202148
1.000000 0.195557 0.203796
1.000000 0.195892 0.204132
0.001434 0.017944 0.001434
0.009644 0.018005 0.001404
0.018219 0.018188 0.001373
0.035950 0.018188 0.001862
0.065277 0.018768 0.004211
0.107300 0.019958 0.008606
0.163361 0.021606 0.013000
0.217438 0.023224 0.016846
0.287292 0.025299 0.020905
0.360565 0.029083 0.025452
0.426666 0.033539 0.030060
0.490173 0.038177 0.034485
0.548981 0.043610 0.039154
0.604034 0.050049 0.043793
0.653961 0.058441 0.048706
0.699158 0.068573 0.053833
0.739868 0.081116 0.061401
0.777130 0.094086 0.071259
0.811737 0.106049 0.083221
0.844971 0.117188 0.095734
0.874878 0.127197 0.108063
0.899902 0.137848 0.119263
0.925415 0.161560 0.140656
0.948669 0.188385 0.168182
0.961334 0.198730 0.180054
0.969910 0.207703 0.189697
0.977539 0.211609 0.193970
0.985199 0.215759 0.198364
0.991577 0.218231 0.200531
0.997986 0.220184 0.203003
1.000000 0.222046 0.204620
1.000000 0.222443 0.205017
0.001343 0.037262 0.002014
0.010498 0.037476 0.002014
0.018890 0.038330 0.002075
0.038818 0.038757 0.002533
0.070160 0.039154 0.005371
0.118683 0.041351 0.010040
0.174072 0.043488 0.014709
0.229980 0.046478 0.018372
0.302979 0.049988 0.022736
0.372925 0.053925 0.027252
0.438934 0.058990 0.031952
0.500061 0.065277 0.036346
0.557922 0.072662 0.040741
0.611938 0.081024 0.045624
0.661011 0.092194 0.050568
0.705292 0.104370 0.055847
0.744965 0.114868 0.063446
0.781647 0.125916 0.073364
0.815735 0.135895 0.085144
0.849335 0.145813 0.097595
0.879211 0.156616 0.110016
0.903900 0.167480 0.120941
0.927582 0.190521 0.141113
0.949799 0.216248 0.167694
0.961945 0.227966 0.180389
0.970337 0.236450 0.189850
0.977966 0.240936 0.194458
0.985596 0.245239 0.199280
0.991669 0.248016 0.202240
0.997803 0.250305 0.204712
1.000000 0.251709 0.206451
1.000000 0.252533 0.206787
0.002106 0.070862 0.004822
0.011902 0.071594 0.004852
0.020416 0.072632 0.004852
0.041473 0.072815 0.005585
0.074982 0.073273 0.007019
0.127716 0.073700 0.011566
0.183685 0.076721 0.016235
0.244110 0.080231 0.020203
0.318390 0.084625 0.024628
0.387390 0.090240 0.029449
0.450745 0.096405 0.033783
0.511108 0.104706 0.038177
0.568207 0.114288 0.042816
0.620728 0.123657 0.047485
0.668671 0.132294 0.052460
0.711792 0.141388 0.057800
0.750885 0.150299 0.065704
0.786743 0.159912 0.075531
0.821075 0.169891 0.087433
0.854584 0.180573 0.100311
0.884155 0.191498 0.111969
0.908356 0.202911 0.122467
0.929504 0.224396 0.141235
0.951294 0.249573 0.168396
0.963379 0.262024 0.181824
0.971588 0.271545 0.192139
0.978760 0.275879 0.197205
0.986053 0.280304 0.201782
0.991852 0.282562 0.204773
0.997589 0.285034 0.207336
1.000000 0.286407 0.209167
1.000000 0.286835 0.209564
0.006287 0.125793 0.010162
0.014709 0.126678 0.010162
0.023865 0.128571 0.010315
0.045410 0.129883 0.010406
0.078918 0.130066 0.011780
0.134460 0.129028 0.013519
0.190491 0.129700 0.015900
0.257324 0.133911 0.021790
0.332397 0.138153 0.026855
0.400574 0.142761 0.031860
0.463745 0.148163 0.036133
0.522583 0.153839 0.040436
0.579102 0.160370 0.045074
0.630402 0.167450 0.049561
0.677063 0.174896 0.054626
0.719147 0.183136 0.060150
0.757416 0.192322 0.067810
0.792908 0.202484 0.077728
0.828033 0.213501 0.089996
0.861572 0.225433 0.102509
0.889740 0.235474 0.113800
0.911835 0.244873 0.122986
0.932159 0.264893 0.142212
0.954041 0.290100 0.170410
0.965332 0.301971 0.184296
0.972992 0.311096 0.194946
0.979279 0.315002 0.200012
0.985962 0.319183 0.204742
0.991638 0.321014 0.207458
0.997314 0.323212 0.210510
1.000000 0.324524 0.212250
1.000000 0.324921 0.212280
0.011505 0.184601 0.016663
0.018860 0.185303 0.016785
0.028656 0.186371 0.016724
0.049896 0.187836 0.015656
0.083771 0.188416 0.016052
0.139374 0.187561 0.017853
0.194550 0.185730 0.017792
0.265320 0.185791 0.021118
0.343475 0.189453 0.028198
0.412598 0.193848 0.033844
0.474640 0.198212 0.037842
0.533386 0.203827 0.042236
0.589386 0.210571 0.047119
0.639740 0.218018 0.051758
0.685486 0.226563 0.056824
0.726654 0.235565 0.062164
0.764496 0.245605 0.069946
0.800171 0.255524 0.080505
0.835419 0.265259 0.092438
0.868774 0.274658 0.104462
0.894989 0.282928 0.114960
0.915466 0.291687 0.124512
0.935486 0.311096 0.144653
0.956787 0.334229 0.173279
0.966949 0.344482 0.186890
0.973877 0.352264 0.197296
0.979706 0.355835 0.202240
0.985809 0.359528 0.207367
0.991364 0.361725 0.210144
0.997040 0.363617 0.212891
1.000000 0.365143 0.214752
1.000000 0.365875 0.215546
0.017914 0.250702 0.023895
0.026093 0.251892 0.023926
0.036926 0.253479 0.023468
0.055817 0.257935 0.020721
0.090424 0.260101 0.020050
0.145508 0.259705 0.022217
0.200195 0.258850 0.023987
0.269836 0.256470 0.024017
0.348114 0.255951 0.025665
0.420135 0.259491 0.032471
0.484497 0.265076 0.038849
0.544373 0.270477 0.044434
0.599640 0.276886 0.049438
0.649445 0.284180 0.054230
0.694519 0.291138 0.059296
0.734802 0.298065 0.064423
0.771698 0.305450 0.071686
0.807587 0.313354 0.082428
0.843536 0.321564 0.094604
0.876465 0.329773 0.107025
0.901154 0.337555 0.117798
0.919220 0.344971 0.126953
0.938660 0.360413 0.147156
0.958313 0.379303 0.175323
0.967651 0.388245 0.188934
0.973999 0.395630 0.199677
0.979797 0.399017 0.204712
0.985535 0.402344 0.209534
0.991058 0.404266 0.212402
0.996765 0.406219 0.215271
1.000000 0.407135 0.217072
1.000000 0.407867 0.217499
0.024719 0.325348 0.031464
0.033722 0.326172 0.031464
0.044678 0.328491 0.030579
0.063965 0.334229 0.026917
0.097809 0.339691 0.024261
0.152100 0.339233 0.025940
0.205872 0.337982 0.028381
0.276428 0.335938 0.030457
0.351471 0.332672 0.029663
0.420135 0.330627 0.029724
0.485992 0.332855 0.034698
0.549591 0.337646 0.042358
0.606812 0.343048 0.049469
0.657593 0.348297 0.055634
0.702057 0.353027 0.061035
0.741608 0.358032 0.065948
0.778229 0.363586 0.073273
0.814331 0.369812 0.084229
0.850433 0.376373 0.096466
0.881866 0.382751 0.108490
0.905243 0.388580 0.119202
0.921417 0.394348 0.128235
0.940521 0.406525 0.148254
0.958984 0.422607 0.176453
0.967712 0.430176 0.189880
0.973755 0.436157 0.200684
0.979553 0.439270 0.205933
0.985291 0.442322 0.210876
0.990814 0.444092 0.214172
0.996521 0.445770 0.217041
0.999969 0.446869 0.218933
1.000000 0.447418 0.219360
0.030609 0.387543 0.038239
0.039368 0.388367 0.038239
0.051147 0.391052 0.036499
0.070465 0.397797 0.031647
0.105499 0.403656 0.027924
0.158173 0.403595 0.029694
0.212433 0.402496 0.031982
0.283051 0.400635 0.034729
0.356537 0.398376 0.036163
0.423706 0.395935 0.034668
0.486969 0.394073 0.034943
0.549622 0.395264 0.038391
0.608246 0.398590 0.045074
0.661163 0.402679 0.053558
0.707031 0.407166 0.060669
0.747192 0.411072 0.066803
0.784271 0.415955 0.074707
0.820068 0.420624 0.085205
0.854401 0.425293 0.096375
0.883789 0.430328 0.107513
0.906494 0.434937 0.117798
0.921722 0.439697 0.127075
0.940887 0.450897 0.147217
0.959045 0.466522 0.175415
0.967499 0.474823 0.189148
0.973511 0.481995 0.199921
0.979279 0.485199 0.205414
0.984985 0.488403 0.210388
0.990540 0.490326 0.213745
0.996216 0.492096 0.216583
0.999969 0.493073 0.218506
1.000000 0.493500 0.218933
0.035675 0.441650 0.043823
0.044342 0.442230 0.043549
0.056854 0.447510 0.040985
0.077606 0.458160 0.035919
0.114685 0.467499 0.031525
0.163940 0.467163 0.032990
0.219238 0.465210 0.035492
0.290344 0.462402 0.038239
0.362213 0.459015 0.040375
0.427185 0.455536 0.040527
0.490021 0.452698 0.039063
0.551270 0.450562 0.039398
0.607758 0.450531 0.041931
0.660004 0.453094 0.047638
0.707367 0.457245 0.055725
0.749817 0.462128 0.064453
0.788055 0.467377 0.074432
0.823761 0.472107 0.084717
0.856201 0.476410 0.094604
0.884033 0.481079 0.104492
0.906281 0.485931 0.115204
0.921112 0.490936 0.124298
0.940277 0.502594 0.144348
0.958618 0.517853 0.172333
0.967072 0.525116 0.185608
0.973236 0.531036 0.196472
0.979034 0.533844 0.201782
0.984741 0.536621 0.206970
0.990265 0.538239 0.210236
0.995972 0.539856 0.213013
0.999969 0.540771 0.214935
1.000000 0.541077 0.215485
0.040283 0.503571 0.049164
0.049225 0.504181 0.049103
0.062958 0.511963 0.045563
0.085266 0.524567 0.039734
0.122986 0.535248 0.035095
0.170380 0.534943 0.036224
0.227051 0.533203 0.039001
0.298004 0.529907 0.041626
0.367737 0.525360 0.043701
0.430511 0.521820 0.044983
0.492371 0.519592 0.044952
0.553680 0.517578 0.043671
0.609222 0.515839 0.044281
0.659821 0.515289 0.046143
0.705444 0.516418 0.050201
0.748047 0.519836 0.057526
0.787506 0.524902 0.068420
0.824188 0.529877 0.080933
0.856323 0.533508 0.091644
0.883392 0.537170 0.100861
0.905518 0.541138 0.111420
0.920227 0.544983 0.120972
0.939484 0.553894 0.140533
0.957977 0.565857 0.167542
0.966553 0.571808 0.181030
0.972931 0.576752 0.191711
0.978760 0.579102 0.196869
0.984497 0.581421 0.201874
0.990021 0.582794 0.204956
0.995697 0.584045 0.207794
0.999969 0.585022 0.209595
1.000000 0.585358 0.210022
0.044891 0.562744 0.054474
0.053925 0.563324 0.054260
0.069275 0.572784 0.049805
0.093384 0.586334 0.043182
0.131042 0.595856 0.038635
0.177521 0.596130 0.039825
0.235901 0.593719 0.042419
0.304565 0.588104 0.044128
0.371918 0.583099 0.045837
0.433899 0.581024 0.048065
0.495667 0.580658 0.049957
0.556549 0.579834 0.050354
0.611633 0.578156 0.048767
0.661530 0.576508 0.049530
0.705902 0.575226 0.050598
0.747101 0.575073 0.053589
0.785675 0.577087 0.060974
0.822968 0.581848 0.074280
0.855621 0.585358 0.086578
0.882538 0.588043 0.096466
0.904510 0.591095 0.107269
0.919342 0.594330 0.117310
0.938721 0.601257 0.136169
0.957367 0.610779 0.162537
0.966064 0.615417 0.175842
0.972656 0.619354 0.186188
0.978546 0.621246 0.191132
0.984283 0.623169 0.196259
0.989838 0.624237 0.199036
0.995514 0.625336 0.201752
0.999939 0.626068 0.203339
1.000000 0.626587 0.204163
0.049622 0.613922 0.059845
0.060089 0.616150 0.058777
0.075989 0.625977 0.054047
0.102966 0.639771 0.046783
0.139282 0.648132 0.042603
0.185089 0.647736 0.043427
0.243317 0.642670 0.044769
0.309784 0.636383 0.046173
0.376709 0.633453 0.048553
0.438385 0.633240 0.051727
0.500031 0.633728 0.054840
0.559967 0.633453 0.056335
0.614044 0.632233 0.055695
0.663635 0.630585 0.053894
0.707672 0.628845 0.054749
0.748199 0.627411 0.055847
0.785645 0.626770 0.058716
0.821930 0.628876 0.068542
0.854828 0.631622 0.080505
0.881927 0.633759 0.091858
0.903595 0.636047 0.102783
0.918549 0.638611 0.112885
0.938110 0.643921 0.131744
0.956818 0.651123 0.156982
0.965546 0.654785 0.170044
0.972321 0.657837 0.180328
0.978333 0.659454 0.185181
0.984100 0.661011 0.189880
0.989655 0.661865 0.192688
0.995331 0.662750 0.195435
0.999939 0.663391 0.197083
1.000000 0.663757 0.197418
0.054718 0.659515 0.065186
0.066620 0.663300 0.063232
0.084198 0.672913 0.058411
0.113678 0.684692 0.051086
0.147217 0.691132 0.046692
0.191376 0.688660 0.045837
0.249573 0.682281 0.046326
0.315979 0.678833 0.048889
0.383423 0.678436 0.052826
0.444702 0.678894 0.056122
0.505432 0.679169 0.059296
0.564423 0.679230 0.061646
0.616974 0.678558 0.061707
0.665344 0.677307 0.060638
0.709076 0.675537 0.058472
0.749634 0.674042 0.059784
0.786835 0.672729 0.061340
0.822113 0.672485 0.066528
0.854187 0.673218 0.075592
0.881226 0.674377 0.086731
0.902740 0.676300 0.097687
0.917877 0.678223 0.108612
0.937531 0.682312 0.127106
0.956238 0.688232 0.151215
0.964935 0.691315 0.163849
0.971832 0.693848 0.174133
0.978027 0.695221 0.178802
0.983948 0.696564 0.183533
0.989471 0.697296 0.185974
0.995178 0.698181 0.188477
0.999939 0.698730 0.190033
1.000000 0.698975 0.190582
0.060394 0.700653 0.070648
0.073639 0.705017 0.068085
0.094208 0.712860 0.063141
0.123352 0.720825 0.056671
0.155640 0.724548 0.052124
0.198975 0.721191 0.049957
0.257721 0.718079 0.050476
0.324524 0.718109 0.054047
0.391937 0.719116 0.058411
0.452515 0.719879 0.061768
0.512360 0.720398 0.064453
0.569702 0.720612 0.066345
0.620575 0.720398 0.067230
0.667419 0.719452 0.066620
0.710175 0.718079 0.064728
0.750580 0.716553 0.062805
0.787750 0.715088 0.064117
0.822693 0.714020 0.066895
0.853943 0.713562 0.073608
0.880554 0.713776 0.083069
0.901855 0.714722 0.093201
0.917267 0.716095 0.104034
0.936890 0.719360 0.122864
0.955536 0.724152 0.145477
0.964233 0.726746 0.157318
0.971191 0.729034 0.167267
0.977631 0.730225 0.172058
0.983765 0.731384 0.176483
0.989319 0.732086 0.179047
0.994995 0.732758 0.181396
0.999939 0.733307 0.182892
1.000000 0.733612 0.183411
0.066986 0.737366 0.076691
0.082001 0.740875 0.073425
0.105438 0.745758 0.068695
0.133362 0.749542 0.064240
0.166168 0.750336 0.060883
0.211426 0.749878 0.059723
0.271057 0.751648 0.060211
0.336334 0.754395 0.063354
0.401764 0.756897 0.066223
0.461182 0.758484 0.068298
0.519409 0.759247 0.070465
0.575134 0.759796 0.071655
0.624451 0.759888 0.072083
0.669678 0.759369 0.071869
0.711334 0.758301 0.070374
0.751312 0.756958 0.068634
0.788361 0.755463 0.066742
0.823242 0.753906 0.068359
0.853943 0.752869 0.073364
0.880432 0.752594 0.082062
0.901215 0.752777 0.091370
0.916718 0.753418 0.101074
0.936218 0.755615 0.119263
0.954712 0.759308 0.140289
0.963440 0.761353 0.151001
0.970459 0.763153 0.160339
0.977173 0.764069 0.164948
0.983582 0.765076 0.169250
0.989166 0.765625 0.171814
0.994843 0.766174 0.173798
0.999939 0.766632 0.175323
1.000000 0.766846 0.175812
0.074738 0.767853 0.083923
0.092682 0.769623 0.081085
0.117737 0.771545 0.077301
0.145569 0.772797 0.074768
0.180420 0.774200 0.073730
0.228760 0.776550 0.074371
0.288330 0.780792 0.075897
0.351105 0.785095 0.078094
0.413391 0.789124 0.078827
0.469849 0.792114 0.079407
0.526276 0.793671 0.080109
0.580078 0.794769 0.079865
0.628113 0.795532 0.078827
0.672333 0.795532 0.077545
0.713043 0.794952 0.076447
0.752228 0.793793 0.074829
0.788696 0.792419 0.072601
0.823425 0.790924 0.070618
0.853973 0.789703 0.073883
0.880310 0.789093 0.080841
0.900787 0.788910 0.090363
0.916351 0.789032 0.098785
0.935669 0.790253 0.116852
0.953949 0.792755 0.136230
0.962677 0.794159 0.145966
0.969849 0.795380 0.154327
0.976746 0.795990 0.158417
0.983368 0.796600 0.162292
0.989044 0.796997 0.164368
0.994720 0.797333 0.166504
0.999908 0.797668 0.167816
1.000000 0.797821 0.168152
0.084229 0.790863 0.093323
0.105133 0.791504 0.091248
0.129883 0.792480 0.089783
0.159729 0.793945 0.089417
0.196442 0.796509 0.090851
0.247437 0.800781 0.093109
0.305511 0.805969 0.095581
0.366364 0.810913 0.097626
0.424713 0.815125 0.097443
0.478363 0.818420 0.097076
0.532501 0.820648 0.096619
0.584320 0.822510 0.094757
0.631317 0.824463 0.090973
0.674561 0.825409 0.088226
0.714508 0.825134 0.086395
0.752777 0.824280 0.084106
0.788757 0.823120 0.081299
0.823090 0.821716 0.078430
0.853394 0.820526 0.075867
0.879791 0.819794 0.081238
0.900146 0.819580 0.089508
0.915894 0.819366 0.098206
0.935089 0.819885 0.115723
0.953308 0.821198 0.133453
0.962036 0.821960 0.142212
0.969299 0.822662 0.149994
0.976349 0.822937 0.153412
0.983032 0.823273 0.156586
0.988861 0.823395 0.158478
0.994629 0.823578 0.159973
0.999908 0.823792 0.161530
1.000000 0.823883 0.161621
0.094849 0.808960 0.103485
0.117645 0.809662 0.103027
0.142578 0.811127 0.103485
0.173523 0.813446 0.105194
0.211945 0.816772 0.107788
0.263824 0.821503 0.111206
0.320465 0.826843 0.114075
0.379120 0.832001 0.115692
0.434143 0.836121 0.115570
0.485596 0.839417 0.114929
0.537933 0.842072 0.113373
0.587982 0.844238 0.110962
0.633820 0.846466 0.106628
0.676178 0.847870 0.102997
0.715393 0.848022 0.100403
0.752960 0.847626 0.098022
0.788300 0.846924 0.094574
0.822052 0.845917 0.090851
0.851837 0.845001 0.087708
0.878265 0.844269 0.084534
0.898682 0.844116 0.090668
0.914917 0.844147 0.098877
0.934174 0.844482 0.115143
0.952454 0.845306 0.132111
0.961273 0.845734 0.139954
0.968658 0.846100 0.146912
0.975800 0.846161 0.149750
0.982666 0.846252 0.152466
0.988708 0.846283 0.154175
0.994507 0.846344 0.155518
0.999908 0.846436 0.156677
1.000000 0.846497 0.156891
0.104980 0.824127 0.113586
0.127502 0.825500 0.115143
0.153839 0.827606 0.116577
0.185516 0.830658 0.119446
0.225922 0.834686 0.122437
0.277710 0.839600 0.125763
0.332703 0.844513 0.128601
0.389130 0.849030 0.129883
0.441925 0.852814 0.129852
0.491730 0.855988 0.128967
0.542572 0.858765 0.126923
0.591125 0.861176 0.124390
0.635956 0.863251 0.120758
0.677277 0.864685 0.117432
0.715820 0.865204 0.114807
0.752838 0.865234 0.111755
0.787689 0.864929 0.108551
0.820831 0.864258 0.104492
0.850098 0.863525 0.101044
0.876221 0.863037 0.097656
0.896332 0.862640 0.094696
0.913330 0.862946 0.100342
0.932709 0.863525 0.114960
0.951233 0.864014 0.131683
0.960175 0.864258 0.139221
0.967712 0.864441 0.144989
0.975006 0.864441 0.147705
0.982056 0.864441 0.149963
0.988342 0.864410 0.151276
0.994385 0.864410 0.152557
0.999878 0.864502 0.153320
1.000000 0.864471 0.153473
0.114288 0.838562 0.122742
0.136932 0.840485 0.124634
0.163696 0.842896 0.127167
0.196075 0.846008 0.130310
0.237762 0.849792 0.133698
0.289276 0.854340 0.137695
0.343048 0.859039 0.140350
0.397705 0.863708 0.141602
0.448608 0.867584 0.141632
0.496918 0.870911 0.140656
0.546783 0.873749 0.138885
0.594025 0.876068 0.135986
0.637939 0.877869 0.132935
0.678436 0.879150 0.129822
0.716370 0.879913 0.126923
0.752899 0.880310 0.124023
0.787140 0.880371 0.120667
0.819702 0.880005 0.117126
0.848450 0.879547 0.113586
0.874146 0.879181 0.109985
0.893951 0.878906 0.107086
0.911102 0.878662 0.104309
0.930450 0.879608 0.116913
0.949097 0.880096 0.132996
0.958282 0.880310 0.140106
0.966095 0.880402 0.145294
0.973511 0.880341 0.147339
0.980743 0.880280 0.149536
0.987396 0.880219 0.150787
0.993927 0.880188 0.151703
0.999542 0.880463 0.157257
1.000000 0.880463 0.157715
0.122498 0.851868 0.130341
0.145752 0.854156 0.133240
0.172882 0.856842 0.136169
0.205841 0.860077 0.139801
0.248077 0.864075 0.143524
0.299286 0.868835 0.147369
0.351898 0.873566 0.150208
0.405182 0.877838 0.151642
0.454163 0.881348 0.151764
0.501648 0.884338 0.150818
0.550598 0.886871 0.149292
0.596832 0.889069 0.146698
0.639862 0.890808 0.143921
0.679504 0.892090 0.140961
0.716858 0.893097 0.138184
0.752808 0.893768 0.134949
0.786621 0.894073 0.131378
0.818542 0.894043 0.127838
0.846710 0.893799 0.124756
0.871979 0.893524 0.121552
0.891479 0.893280 0.118805
0.908722 0.893036 0.116425
0.927368 0.893341 0.120605
0.945984 0.894043 0.135529
0.955597 0.894287 0.142090
0.963776 0.894379 0.147217
0.971375 0.894379 0.149506
0.978760 0.894348 0.151245
0.985626 0.894257 0.152130
0.992279 0.894226 0.153259
0.998322 0.895020 0.170776
1.000000 0.895050 0.171173
0.132416 0.869659 0.140411
0.156555 0.872406 0.143555
0.184052 0.875275 0.146820
0.218079 0.878601 0.150757
0.260559 0.882263 0.154694
0.311005 0.886353 0.158539
0.362549 0.890503 0.161346
0.414215 0.894226 0.162476
0.461090 0.897491 0.162811
0.507782 0.900269 0.162231
0.555634 0.902893 0.160767
0.600677 0.905212 0.158722
0.642700 0.907135 0.156250
0.681366 0.908783 0.153748
0.717896 0.910156 0.151062
0.753204 0.911255 0.148102
0.786316 0.912018 0.144745
0.817596 0.912354 0.141144
0.844940 0.912354 0.137634
0.869324 0.912048 0.134491
0.888306 0.911743 0.131805
0.905548 0.911469 0.129303
0.923798 0.911041 0.123871
0.941437 0.911407 0.131012
0.951569 0.911652 0.137085
0.960419 0.911835 0.141418
0.968323 0.911835 0.142975
0.975891 0.911713 0.144440
0.983032 0.911713 0.145325
0.989807 0.911682 0.146484
0.996185 0.914337 0.196045
1.000000 0.914398 0.197144
0.135193 0.881592 0.143463
0.159943 0.884155 0.146576
0.187988 0.886993 0.150269
0.222870 0.890076 0.154266
0.265137 0.893646 0.158478
0.315582 0.897675 0.162598
0.366882 0.901794 0.165436
0.418335 0.905914 0.167175
0.464447 0.909485 0.167206
0.510864 0.912598 0.166840
0.558136 0.915497 0.165741
0.602661 0.917908 0.163788
0.644104 0.919983 0.161621
0.682159 0.921783 0.159119
0.718292 0.923248 0.156677
0.753174 0.924408 0.153687
0.785889 0.925262 0.150330
0.816620 0.925720 0.146912
0.843414 0.925812 0.143372
0.867188 0.925659 0.140381
0.885834 0.925415 0.138062
0.902985 0.925232 0.135193
0.921478 0.924805 0.129883
0.938049 0.924561 0.125793
0.948273 0.924561 0.127655
0.957489 0.924561 0.129669
0.965820 0.924561 0.130402
0.973541 0.924500 0.131378
0.980804 0.924500 0.132202
0.987671 0.924469 0.132294
0.994446 0.928345 0.221527
1.000000 0.928436 0.223083
0.131500 0.888550 0.139435
0.156311 0.891113 0.142731
0.185486 0.893982 0.146881
0.220215 0.897156 0.150604
0.262634 0.900635 0.154938
0.313629 0.904968 0.159210
0.365570 0.909698 0.162354
0.418152 0.914246 0.164246
0.464569 0.917999 0.164581
0.510956 0.921143 0.164093
0.558228 0.923920 0.162781
0.602814 0.926178 0.161194
0.644135 0.927887 0.158997
0.681976 0.929260 0.156708
0.717957 0.930389 0.154053
0.752625 0.931366 0.150848
0.785156 0.932159 0.147858
0.815613 0.932648 0.144592
0.842163 0.932800 0.141602
0.865662 0.932770 0.138947
0.884094 0.932617 0.136688
0.901031 0.932556 0.135254
0.919922 0.932404 0.131897
0.935822 0.932281 0.128021
0.946198 0.932220 0.126251
0.955597 0.932159 0.125732
0.964020 0.932098 0.126068
0.971924 0.932068 0.126007
0.979218 0.932068 0.126373
0.986298 0.932037 0.126617
0.993256 0.936249 0.239990
0.999207 0.936340 0.242096
0.125854 0.895294 0.133484
0.151581 0.897705 0.136871
0.181335 0.900574 0.141144
0.216553 0.903961 0.145386
0.258820 0.907806 0.149841
0.310303 0.912598 0.154510
0.363312 0.917603 0.157898
0.416718 0.922302 0.159882
0.463867 0.925964 0.160492
0.510254 0.928619 0.160431
0.557434 0.930695 0.159485
0.602173 0.932465 0.158020
0.643524 0.934113 0.156189
0.681274 0.935516 0.154266
0.717072 0.936768 0.151978
0.751587 0.937836 0.149384
0.783966 0.938690 0.146912
0.814148 0.939270 0.144440
0.840485 0.939545 0.142212
0.863861 0.939575 0.140381
0.882294 0.939514 0.138794
0.899017 0.939453 0.137573
0.918427 0.939301 0.134827
0.933685 0.939148 0.131104
0.944122 0.939117 0.129272
0.953674 0.939087 0.127625
0.962341 0.939026 0.127441
0.970306 0.938995 0.127319
0.977753 0.938965 0.127167
0.984833 0.938904 0.127502
0.991974 0.943207 0.253937
0.998077 0.943298 0.256805
0.119080 0.901459 0.126740
0.142151 0.903717 0.130280
0.174469 0.907227 0.134644
0.210999 0.911133 0.139404
0.253601 0.915314 0.144073
0.305145 0.920227 0.148987
0.359314 0.925232 0.152802
0.414276 0.929443 0.155243
0.462646 0.932434 0.156433
0.509003 0.934845 0.156738
0.556122 0.936981 0.156189
0.601166 0.938873 0.155579
0.642487 0.940430 0.154388
0.680420 0.941711 0.153137
0.716034 0.942871 0.151520
0.750488 0.943939 0.149628
0.782715 0.944824 0.147766
0.812775 0.945435 0.145691
