PS/3DLUTs/filmstock3.CUBE
#Copyright: (C) Copyright 2017 Kim Amland
TITLE "Kim Amland - Photographic 02"
#LUT size
LUT_3D_SIZE 8
#data domain
#LUT data points
DOMAIN_MIN 0.000000 0.000000 0.000000
DOMAIN_MAX 0.903226 0.903226 0.903226
0.001495 0.001495 0.001495
0.052948 0.001648 0.002747
0.263123 0.007874 0.019470
0.536957 0.015198 0.037262
0.731995 0.030487 0.058136
0.869293 0.077942 0.104645
0.960266 0.155975 0.181793
0.991730 0.174042 0.202148
0.002106 0.070862 0.004822
0.074982 0.073273 0.007019
0.318390 0.084625 0.024628
0.568207 0.114288 0.042816
0.750885 0.150299 0.065704
0.884155 0.191498 0.111969
0.963379 0.262024 0.181824
0.991852 0.282562 0.204773
0.024719 0.325348 0.031464
0.097809 0.339691 0.024261
0.351471 0.332672 0.029663
0.606812 0.343048 0.049469
0.778229 0.363586 0.073273
0.905243 0.388580 0.119202
0.967712 0.430176 0.189880
0.990814 0.444092 0.214172
0.044891 0.562744 0.054474
0.131042 0.595856 0.038635
0.371918 0.583099 0.045837
0.611633 0.578156 0.048767
0.785675 0.577087 0.060974
0.904510 0.591095 0.107269
0.966064 0.615417 0.175842
0.989838 0.624237 0.199036
0.066986 0.737366 0.076691
0.166168 0.750336 0.060883
0.401764 0.756897 0.066223
0.624451 0.759888 0.072083
0.788361 0.755463 0.066742
0.901215 0.752777 0.091370
0.963440 0.761353 0.151001
0.989166 0.765625 0.171814
0.104980 0.824127 0.113586
0.225922 0.834686 0.122437
0.441925 0.852814 0.129852
0.635956 0.863251 0.120758
0.787689 0.864929 0.108551
0.896332 0.862640 0.094696
0.960175 0.864258 0.139221
0.988342 0.864410 0.151276
0.135193 0.881592 0.143463
0.265137 0.893646 0.158478
0.464447 0.909485 0.167206
0.644104 0.919983 0.161621
0.785889 0.925262 0.150330
0.885834 0.925415 0.138062
0.948273 0.924561 0.127655
0.980804 0.924500 0.132202
0.171356 0.918457 0.178070
0.303802 0.930603 0.193939
0.483398 0.941986 0.203949
0.652771 0.948242 0.203369
0.786926 0.952576 0.196594
0.880219 0.953613 0.186371
0.940552 0.951935 0.139130
0.974945 0.951813 0.133057
0.001343 0.002136 0.037170
0.059906 0.005341 0.060211
0.278625 0.013916 0.084076
0.549683 0.026855 0.127899
0.744934 0.047119 0.177216
0.876831 0.095306 0.222778
0.960541 0.165955 0.301270
0.990845 0.182526 0.318634
0.004242 0.074524 0.071899
0.074677 0.074677 0.074677
0.319183 0.090179 0.098663
0.565063 0.122253 0.138000
0.745850 0.158203 0.177704
0.872864 0.193726 0.218292
0.953796 0.265747 0.293549
0.988617 0.287231 0.315796
0.018066 0.340790 0.103912
0.099731 0.343964 0.106201
0.357788 0.344269 0.121277
0.608063 0.358093 0.158936
0.783020 0.376892 0.194641
0.895721 0.394409 0.234375
0.963959 0.433899 0.307190
0.990051 0.448151 0.328217
0.033447 0.594299 0.145996
0.134796 0.601440 0.145172
0.374329 0.591522 0.155701
0.614441 0.591522 0.167328
0.786346 0.590790 0.200012
0.901459 0.598572 0.232971
0.964539 0.621735 0.305054
0.988983 0.630005 0.326080
0.058929 0.751190 0.183411
0.166992 0.754608 0.178864
0.407837 0.764069 0.193329
0.622223 0.763763 0.197327
0.784637 0.758850 0.192444
0.897339 0.757172 0.219360
0.960938 0.766205 0.284088
0.988129 0.770447 0.303314
0.111420 0.830994 0.228790
0.235748 0.844849 0.244080
0.444336 0.861053 0.251465
0.635223 0.868896 0.242737
0.786316 0.870728 0.231567
0.894623 0.867706 0.221130
0.957886 0.867828 0.270416
0.987030 0.868134 0.284210
0.146851 0.890686 0.264526
0.275635 0.902161 0.282593
0.467529 0.917450 0.291046
0.645874 0.926147 0.286316
0.786926 0.930481 0.275421
0.886383 0.930847 0.265289
0.948883 0.929932 0.256805
0.981323 0.929901 0.262299
0.187286 0.928619 0.307281
0.351196 0.941711 0.358124
0.507660 0.948669 0.366364
0.665985 0.954468 0.371063
0.794708 0.959381 0.371979
0.883423 0.961517 0.373322
0.943420 0.961914 0.380981
0.977325 0.961945 0.384552
0.013397 0.023071 0.167267
0.066132 0.029388 0.209320
0.297974 0.038757 0.294739
0.587677 0.059692 0.356262
0.773773 0.080261 0.403198
0.897522 0.128174 0.441101
0.965729 0.188446 0.478851
0.990540 0.209686 0.494568
0.018616 0.104034 0.285492
0.087860 0.108643 0.299988
0.329651 0.118958 0.328430
0.592407 0.156525 0.366394
0.765625 0.189819 0.400024
0.883301 0.221100 0.424896
0.959412 0.293488 0.470245
0.989227 0.314484 0.487396
0.023499 0.351837 0.332489
0.111511 0.360596 0.344391
0.348999 0.348999 0.348999
0.597656 0.372650 0.376343
0.781372 0.398468 0.412415
0.877106 0.401733 0.422577
0.953644 0.438965 0.465088
0.987518 0.428772 0.454895
0.035767 0.611694 0.365173
0.142944 0.604706 0.368530
0.374817 0.599396 0.378571
0.606354 0.595947 0.390137
0.780670 0.600189 0.416016
0.895050 0.608459 0.437927
0.959869 0.627808 0.474579
0.987946 0.623596 0.459229
0.055206 0.755096 0.385529
0.172943 0.767639 0.399170
0.409119 0.771820 0.415375
0.617676 0.767761 0.418274
0.778748 0.764465 0.419434
0.892334 0.763702 0.432007
0.957794 0.772400 0.466278
0.986694 0.772522 0.454407
0.122589 0.845123 0.427307
0.244019 0.857666 0.444458
0.442627 0.870850 0.450439
0.632385 0.874969 0.446320
0.782593 0.875153 0.441620
0.889435 0.872498 0.437134
0.954651 0.872223 0.458282
0.985229 0.872345 0.460663
0.160034 0.902374 0.454559
0.284424 0.914246 0.469788
0.470093 0.926483 0.478333
0.647034 0.932983 0.477936
0.787018 0.936401 0.473297
0.886230 0.937958 0.463745
0.950806 0.937897 0.456146
0.982391 0.938110 0.494904
0.199524 0.937775 0.479279
0.358032 0.947113 0.511688
0.510498 0.953461 0.519623
0.667999 0.959717 0.525604
0.795959 0.964203 0.527740
0.884735 0.967133 0.525482
0.945465 0.967712 0.528656
0.978943 0.967682 0.531006
0.033325 0.053101 0.349213
0.088013 0.058868 0.391113
0.267609 0.063904 0.465942
0.566406 0.079895 0.563080
0.772064 0.108704 0.611115
0.906525 0.151978 0.644440
0.965515 0.218140 0.669067
0.989227 0.241302 0.679443
0.032959 0.141235 0.507965
0.109222 0.146362 0.524658
0.342255 0.165100 0.563843
0.612793 0.187775 0.608337
0.783630 0.220764 0.622986
0.899231 0.255615 0.636597
0.964447 0.328796 0.663818
0.988586 0.349304 0.674133
0.038208 0.375000 0.565735
0.142212 0.381226 0.578033
0.372345 0.386475 0.595215
0.611115 0.398773 0.609589
0.779388 0.418762 0.621033
0.888367 0.431885 0.630981
0.958313 0.469147 0.654663
0.987488 0.457977 0.656586
0.038940 0.612549 0.584625
0.150330 0.610352 0.590179
0.383759 0.604309 0.595612
0.600800 0.600800 0.600800
0.777649 0.614899 0.620392
0.886353 0.620850 0.631531
0.950653 0.634033 0.647064
0.984100 0.624786 0.639771
0.060150 0.766388 0.596649
0.178741 0.776947 0.611542
0.408112 0.776306 0.618591
0.615753 0.771301 0.620453
0.774811 0.769012 0.623901
0.888641 0.770203 0.634460
0.954376 0.778046 0.652252
0.984558 0.777863 0.649170
0.129120 0.855499 0.614716
0.246002 0.867554 0.628540
0.439941 0.877289 0.636047
0.629242 0.879974 0.636780
0.780121 0.878082 0.637512
0.885132 0.875641 0.636383
0.951599 0.875763 0.648560
0.983154 0.876312 0.651459
0.166870 0.912598 0.628113
0.288879 0.922729 0.639435
0.471832 0.931946 0.649719
0.647278 0.937775 0.654144
0.786591 0.940399 0.654266
0.884308 0.941620 0.651276
0.948792 0.940887 0.649597
0.981628 0.940918 0.664886
0.207458 0.944122 0.640167
0.364441 0.951508 0.659882
0.515533 0.958191 0.669159
0.668854 0.964050 0.675110
0.796265 0.968811 0.678284
0.884857 0.971649 0.677979
0.946411 0.972443 0.678955
0.980225 0.972687 0.679230
0.050446 0.077820 0.512604
0.115356 0.082733 0.554230
0.296295 0.096405 0.634888
0.574036 0.122620 0.719788
0.778351 0.139893 0.768799
0.895477 0.171631 0.779938
0.960907 0.246826 0.796478
0.987732 0.272827 0.803589
0.046204 0.186493 0.691986
0.148163 0.193970 0.708466
0.378754 0.217316 0.745697
0.620392 0.234711 0.770691
0.787231 0.238708 0.780426
0.900940 0.281494 0.787903
0.963165 0.355621 0.805084
0.987640 0.374969 0.811859
0.057220 0.405609 0.734406
0.171387 0.408203 0.741943
0.385986 0.412079 0.752197
0.612488 0.427338 0.767975
0.784973 0.442841 0.783173
0.899475 0.463501 0.790222
0.961823 0.501312 0.802216
0.986969 0.489929 0.808350
0.057098 0.616730 0.741028
0.180328 0.618774 0.748505
0.403412 0.622223 0.759888
0.611023 0.625793 0.769135
0.778717 0.632935 0.778015
0.889801 0.640808 0.783936
0.955322 0.656433 0.793640
0.984802 0.649414 0.795868
0.067505 0.772522 0.749969
0.186340 0.781830 0.762726
0.411835 0.779297 0.767639
0.617279 0.774689 0.769470
0.772858 0.772858 0.772858
0.886078 0.779510 0.782684
0.949585 0.781555 0.787506
0.981934 0.782379 0.789398
0.137238 0.860596 0.750793
0.251617 0.871582 0.763885
0.439667 0.880920 0.775665
0.627563 0.882904 0.779968
0.778961 0.880371 0.781891
0.882019 0.878571 0.783203
0.950592 0.878937 0.789642
0.982117 0.879517 0.792999
0.174133 0.917694 0.755005
0.294952 0.926575 0.766144
0.473755 0.935760 0.779297
0.647186 0.940643 0.787354
0.785339 0.943939 0.790314
0.882843 0.943726 0.791260
0.947479 0.943512 0.795990
0.980774 0.943542 0.798981
0.216583 0.947113 0.761108
0.371918 0.954773 0.777893
0.520355 0.961914 0.788727
0.670959 0.967651 0.796906
0.795410 0.972565 0.800720
0.884796 0.975128 0.802551
0.946625 0.976166 0.804047
0.980347 0.976532 0.804626
0.071533 0.108002 0.667206
0.157318 0.118958 0.712006
0.358612 0.148895 0.791992
0.598846 0.177032 0.845795
0.758850 0.188416 0.855865
0.865997 0.195648 0.856659
0.940918 0.274811 0.869080
0.975433 0.299713 0.873535
0.079254 0.233948 0.827972
0.191833 0.244629 0.844849
0.405457 0.262451 0.861603
0.605927 0.270203 0.860626
0.763184 0.289185 0.864441
0.876831 0.311676 0.871155
0.949249 0.380402 0.882141
0.980560 0.403046 0.885132
0.098419 0.438385 0.856842
0.199585 0.431763 0.858124
0.403656 0.436096 0.866760
0.616577 0.456055 0.878967
0.779999 0.475586 0.886078
0.890991 0.490295 0.888824
0.954437 0.527527 0.890900
0.982697 0.517303 0.892242
0.099457 0.627075 0.855194
0.217224 0.632721 0.864349
0.421051 0.638916 0.875580
0.620209 0.643921 0.882874
0.781464 0.651154 0.888123
0.892853 0.657715 0.891388
0.956573 0.673248 0.892761
0.983948 0.667908 0.894104
0.112976 0.777618 0.855560
0.226654 0.785522 0.867920
0.429718 0.784607 0.874084
0.624512 0.783356 0.877869
0.777405 0.784637 0.881989
0.885498 0.788239 0.885529
0.951080 0.792664 0.888153
0.982056 0.793976 0.889435
0.146271 0.861755 0.843994
0.261292 0.871338 0.855865
0.445404 0.881683 0.871246
0.629883 0.884583 0.878143
0.779724 0.882355 0.879791
0.881226 0.881195 0.881195
0.948639 0.882874 0.884979
0.980865 0.883057 0.886261
0.182648 0.918152 0.841675
0.304260 0.926727 0.851990
0.479187 0.936554 0.867035
0.649078 0.941925 0.877686
0.785461 0.945221 0.882874
0.882721 0.945099 0.884674
0.946503 0.944977 0.885559
0.979980 0.944977 0.887085
0.227203 0.947235 0.843323
0.382446 0.955475 0.856812
0.527008 0.963196 0.868652
0.673767 0.969299 0.878510
0.796631 0.974487 0.884735
0.884521 0.977051 0.887146
0.946167 0.977936 0.888123
0.979797 0.977844 0.888885
0.143799 0.195984 0.891876
0.257172 0.208649 0.906982
0.435272 0.228546 0.918884
0.602753 0.240326 0.915497
0.741058 0.253632 0.911774
0.852142 0.274323 0.915192
0.926483 0.287323 0.919525
0.963654 0.309814 0.922516
0.149841 0.312744 0.937347
0.266846 0.319061 0.937408
0.432800 0.321503 0.926056
0.605713 0.334778 0.921478
0.754486 0.358276 0.925385
0.864044 0.379883 0.929047
0.936127 0.397491 0.932617
0.970520 0.417480 0.934265
0.157654 0.464508 0.931244
0.262878 0.461212 0.937195
0.438202 0.475769 0.941284
0.626495 0.496613 0.942688
0.772339 0.515533 0.942474
0.877014 0.530670 0.941406
0.943817 0.543915 0.941772
0.974792 0.532379 0.941254
0.173737 0.642303 0.926819
0.289032 0.650360 0.939362
0.452393 0.656891 0.948242
0.634552 0.661713 0.950806
0.781494 0.668549 0.948669
0.884521 0.676025 0.947418
0.948364 0.684448 0.947174
0.978455 0.680450 0.947021
0.184692 0.783844 0.923523
0.301208 0.788544 0.933472
0.462311 0.791168 0.942047
0.638672 0.791840 0.946320
0.782471 0.793610 0.948334
0.884796 0.797058 0.949127
0.949799 0.800079 0.949738
0.980347 0.802032 0.949432
0.206512 0.866577 0.908844
0.322083 0.874023 0.919220
0.475769 0.882080 0.933746
0.644165 0.886078 0.941956
0.784698 0.885864 0.945129
0.882294 0.886017 0.946655
0.947266 0.887299 0.947479
0.980133 0.888031 0.948029
0.189545 0.918396 0.899628
0.312317 0.926727 0.908112
0.486542 0.936371 0.924255
0.653809 0.942017 0.937042
0.787750 0.946045 0.943756
0.883118 0.946289 0.945343
0.945892 0.945923 0.945892
0.979584 0.946320 0.946808
0.232574 0.947021 0.899200
0.394623 0.955597 0.910522
0.535553 0.963287 0.923126
0.678955 0.969666 0.934814
0.799286 0.975372 0.942261
0.885101 0.977966 0.945679
0.945862 0.978546 0.946594
0.979492 0.978668 0.947205
0.195526 0.251526 0.963867
0.307953 0.260406 0.966003
0.455780 0.269592 0.962463
0.605164 0.274567 0.953003
0.740814 0.294281 0.952606
0.848663 0.312988 0.954193
0.922729 0.317841 0.954010
0.957794 0.316223 0.953583
0.195221 0.352325 0.979431
0.298706 0.346497 0.975494
0.448120 0.346283 0.964966
0.616425 0.363129 0.962585
0.756195 0.386322 0.962982
0.860687 0.406067 0.962555
0.929565 0.408936 0.961578
0.963654 0.407410 0.961060
0.195953 0.481567 0.971283
0.293579 0.483063 0.977722
0.432098 0.470337 0.977386
0.632782 0.487488 0.974121
0.778900 0.500793 0.970978
0.876068 0.510101 0.968445
0.936432 0.526062 0.967560
0.969086 0.534180 0.967224
0.219604 0.653717 0.966949
0.314087 0.659668 0.974731
0.430084 0.658173 0.981842
0.631042 0.660889 0.982819
0.785065 0.666748 0.977875
0.882355 0.674011 0.975159
0.942627 0.683197 0.974030
0.974304 0.687775 0.973572
0.231873 0.787140 0.961517
0.321289 0.790619 0.966919
0.441071 0.793335 0.973450
0.631989 0.795624 0.980194
0.783081 0.796692 0.981201
0.883942 0.799408 0.979706
0.946411 0.804016 0.978821
0.977966 0.806641 0.978241
0.247650 0.869049 0.947815
0.330872 0.874176 0.954773
0.468994 0.881439 0.965210
0.643372 0.886932 0.974548
0.784271 0.888367 0.979156
0.882813 0.888794 0.979858
0.946899 0.890198 0.979767
0.979675 0.891144 0.979736
0.226746 0.920959 0.934937
0.361237 0.929199 0.947083
0.511749 0.937103 0.959747
0.665985 0.942291 0.969360
0.793030 0.946808 0.976471
0.883911 0.947540 0.978577
0.946136 0.947632 0.979095
0.979584 0.947968 0.979431
0.234680 0.946930 0.930695
0.401917 0.955688 0.945343
0.541718 0.963287 0.956940
0.683014 0.969727 0.966125
0.801575 0.975830 0.974060
0.885864 0.978729 0.977905
0.946075 0.979401 0.979095
0.979523 0.979462 0.979462
