PS/3DLUTs/filmstock2.CUBE
#Copyright: (C) Copyright 2017 Kim Amland
TITLE "Kim Amland - Photographic 01"
#LUT size
LUT_3D_SIZE 8
#data domain
#LUT data points
DOMAIN_MIN 0.000000 0.000000 0.000000
DOMAIN_MAX 0.903226 0.903226 0.903226
0.000000 0.000000 0.000000
0.055206 0.000214 0.006042
0.253601 0.000000 0.027985
0.477692 0.000000 0.000000
0.705383 0.000000 0.000000
0.901154 0.000000 0.000000
1.000000 0.031128 0.033508
1.000000 0.133148 0.134338
0.000000 0.084747 0.006195
0.084106 0.088562 0.005219
0.268219 0.124054 0.000000
0.485321 0.149567 0.000000
0.709045 0.170471 0.000000
0.900055 0.179871 0.000000
1.000000 0.196747 0.037537
1.000000 0.228394 0.141724
0.000000 0.293915 0.000000
0.132751 0.295624 0.000000
0.300293 0.299927 0.000000
0.497284 0.327179 0.000000
0.713684 0.353912 0.000000
0.896667 0.362000 0.000000
1.000000 0.362122 0.059753
1.000000 0.365723 0.161804
0.000000 0.513977 0.000000
0.137787 0.514923 0.000000
0.338226 0.517334 0.000000
0.521606 0.521210 0.000000
0.716644 0.536255 0.000000
0.888611 0.537476 0.000000
1.000000 0.525452 0.105896
1.000000 0.512085 0.198425
0.000000 0.715179 0.000000
0.163544 0.715057 0.000000
0.357086 0.714691 0.000000
0.537384 0.713928 0.000000
0.712982 0.712402 0.000000
0.874176 0.703491 0.049927
0.996643 0.680176 0.172211
1.000000 0.654663 0.253479
0.158203 0.852875 0.156403
0.246613 0.852356 0.158783
0.382324 0.850891 0.164429
0.533447 0.848236 0.174194
0.687561 0.844360 0.188477
0.839844 0.839203 0.207031
0.970093 0.820190 0.254761
1.000000 0.785522 0.325165
0.328461 0.938477 0.327637
0.365387 0.937897 0.329010
0.443573 0.936310 0.332642
0.549866 0.933594 0.339172
0.669800 0.929565 0.348846
0.794373 0.924286 0.361816
0.918457 0.917786 0.378387
1.000000 0.898956 0.411285
0.472626 0.989014 0.471985
0.490601 0.988556 0.473083
0.532959 0.987183 0.475525
0.598572 0.984894 0.480011
0.680725 0.981506 0.486542
0.772614 0.977020 0.495392
0.868805 0.971466 0.506470
0.965546 0.964966 0.519501
0.000000 0.016296 0.082184
0.074188 0.006195 0.083832
0.261688 0.000000 0.119293
0.475677 0.000000 0.124908
0.700104 0.000000 0.138184
0.896027 0.000000 0.164063
1.000000 0.053192 0.202148
1.000000 0.172668 0.248505
0.000000 0.087585 0.087982
0.089539 0.089539 0.089966
0.268188 0.106842 0.107300
0.478577 0.117920 0.118622
0.702515 0.136230 0.137024
0.894775 0.164185 0.165161
1.000000 0.204681 0.205627
1.000000 0.253021 0.253754
0.000000 0.283936 0.107819
0.107819 0.285553 0.107819
0.289612 0.289337 0.107910
0.489532 0.316101 0.117889
0.707062 0.343781 0.136658
0.890991 0.358002 0.170288
1.000000 0.367340 0.216248
1.000000 0.380859 0.267578
0.000000 0.506012 0.121552
0.122406 0.506897 0.121857
0.330170 0.509552 0.122803
0.514313 0.513794 0.124268
0.710815 0.531158 0.143036
0.883118 0.535675 0.185913
1.000000 0.528900 0.238586
1.000000 0.522064 0.293732
0.000000 0.710754 0.166107
0.168030 0.710663 0.167084
0.357086 0.710449 0.170044
0.535400 0.709930 0.175446
0.709473 0.708893 0.183777
0.869415 0.701447 0.220520
0.991669 0.681824 0.278351
1.000000 0.660980 0.335480
0.198059 0.850006 0.269226
0.271362 0.849487 0.270599
0.395508 0.848114 0.274078
0.539795 0.845703 0.280243
0.689301 0.842133 0.289612
0.837982 0.837341 0.302368
0.965332 0.819580 0.338013
1.000000 0.788727 0.394043
0.365875 0.935944 0.396027
0.397827 0.935394 0.397217
0.467621 0.933929 0.400269
0.565674 0.931366 0.405701
0.678741 0.927673 0.413757
0.797852 0.922729 0.424500
0.917389 0.916718 0.437988
1.000000 0.898834 0.465698
0.501343 0.986908 0.516083
0.517456 0.986389 0.516937
0.555847 0.985199 0.519043
0.616364 0.983002 0.522919
0.693115 0.979828 0.528534
0.780029 0.975586 0.536163
0.871857 0.970398 0.545685
0.964905 0.964264 0.557129
0.000000 0.018280 0.293610
0.126221 0.000000 0.295471
0.294403 0.000000 0.294678
0.481659 0.000000 0.313599
0.699524 0.000000 0.339539
0.887146 0.000000 0.356628
1.000000 0.168701 0.386169
1.000000 0.278687 0.418640
0.000000 0.117615 0.289886
0.111511 0.111420 0.287415
0.286102 0.107056 0.286499
0.478851 0.111176 0.308868
0.695923 0.125488 0.336639
0.881256 0.181152 0.360077
1.000000 0.260376 0.389893
1.000000 0.331329 0.422455
0.000000 0.288055 0.288605
0.105621 0.288269 0.288940
0.305054 0.304718 0.305328
0.486328 0.314880 0.315552
0.696106 0.338959 0.339691
0.876648 0.366211 0.367004
0.999908 0.397247 0.397949
1.000000 0.432068 0.432617
0.000000 0.499939 0.324066
0.124664 0.500244 0.324921
0.326996 0.502747 0.327118
0.507446 0.506958 0.330017
0.701294 0.526215 0.349731
0.869690 0.538696 0.379486
0.995697 0.546143 0.414093
1.000000 0.555420 0.451813
0.048828 0.702850 0.365814
0.204254 0.702850 0.366608
0.368622 0.702911 0.368591
0.536438 0.702881 0.372192
0.703308 0.702728 0.377808
0.857788 0.699554 0.403442
0.976379 0.690186 0.442139
1.000000 0.681610 0.482178
0.294159 0.843048 0.434845
0.342407 0.842651 0.435760
0.438416 0.841583 0.438141
0.562164 0.839722 0.442444
0.696930 0.837036 0.448853
0.834076 0.833496 0.457550
0.952881 0.819672 0.483368
1.000000 0.798248 0.521942
0.446503 0.929871 0.520294
0.469788 0.929413 0.521057
0.523315 0.928223 0.523010
0.603546 0.926147 0.526581
0.700653 0.923126 0.531860
0.806458 0.919128 0.539001
0.914856 0.914307 0.548004
1.000000 0.899139 0.568634
0.562073 0.981964 0.603302
0.574860 0.981537 0.603973
0.605743 0.980469 0.605408
0.655731 0.978607 0.608215
0.721191 0.975922 0.612274
0.797180 0.972321 0.617889
0.879089 0.967896 0.624786
0.963287 0.962738 0.633209
0.000000 0.000000 0.521545
0.165771 0.000000 0.522491
0.342682 0.000000 0.519623
0.514496 0.000000 0.515076
0.704376 0.000000 0.526306
0.885284 0.000000 0.535889
1.000000 0.188354 0.539398
1.000000 0.344391 0.561279
0.000000 0.132996 0.513977
0.130707 0.130585 0.513092
0.331146 0.125610 0.511230
0.507782 0.121002 0.508301
0.700531 0.129913 0.523254
0.879395 0.190826 0.535614
0.999451 0.293457 0.545990
1.000000 0.411621 0.575500
0.000000 0.327393 0.507416
0.120544 0.325928 0.504944
0.326172 0.325836 0.503448
0.503754 0.326782 0.504181
0.696472 0.345062 0.522980
0.864960 0.388733 0.542694
0.984406 0.455963 0.570251
1.000000 0.528137 0.607452
0.000000 0.507294 0.508118
0.130310 0.507263 0.508118
0.335449 0.511047 0.511841
0.532959 0.532532 0.533325
0.697052 0.540741 0.541504
0.848145 0.565155 0.565887
0.965668 0.592133 0.592743
1.000000 0.618561 0.619080
0.133698 0.700287 0.537720
0.250916 0.699615 0.540344
0.408600 0.698975 0.548859
0.556976 0.699921 0.557129
0.701385 0.700897 0.561188
0.840820 0.705872 0.582275
0.951355 0.711426 0.609192
1.000000 0.717651 0.635590
0.401184 0.835144 0.592896
0.442322 0.834137 0.597961
0.510956 0.833282 0.601349
0.603882 0.832428 0.603882
0.713379 0.831116 0.607758
0.830017 0.829529 0.612976
0.935242 0.822754 0.631897
1.000000 0.814117 0.657745
0.543274 0.921417 0.652496
0.558990 0.921143 0.652985
0.596741 0.920349 0.654205
0.656494 0.919006 0.656403
0.732971 0.916992 0.659729
0.819916 0.914429 0.664185
0.911804 0.911285 0.669800
0.992371 0.900543 0.685120
0.639893 0.974731 0.706329
0.649109 0.974426 0.706726
0.671875 0.973663 0.707733
0.709656 0.972321 0.709503
0.760773 0.970306 0.712158
0.822021 0.967682 0.715881
0.889862 0.964478 0.720459
0.961121 0.960693 0.726135
0.000000 0.000000 0.724365
0.179565 0.000000 0.723755
0.361969 0.000000 0.722229
0.539734 0.000000 0.719299
0.714600 0.000000 0.715363
0.881805 0.000397 0.709503
0.999542 0.211151 0.692993
1.000000 0.360687 0.684662
0.000000 0.163422 0.718872
0.162842 0.162933 0.718353
0.356323 0.161926 0.716766
0.536041 0.162811 0.714386
0.710419 0.168762 0.711151
0.875854 0.205872 0.706482
0.997681 0.309082 0.694031
1.000000 0.424316 0.691528
0.000000 0.357666 0.708984
0.181671 0.359039 0.707703
0.360779 0.360474 0.706818
0.534027 0.363556 0.705475
0.703094 0.369476 0.703705
0.861420 0.398621 0.702362
0.977753 0.465912 0.701080
1.000000 0.539459 0.708984
0.080536 0.535339 0.704285
0.224884 0.536652 0.703156
0.392365 0.542236 0.701111
0.552643 0.552216 0.700500
0.700470 0.557159 0.700958
0.841248 0.581146 0.706726
0.948669 0.621002 0.718933
1.000000 0.665710 0.738007
0.220367 0.700470 0.701416
0.301971 0.700348 0.701233
0.433990 0.700897 0.701752
0.578339 0.705078 0.705872
0.720398 0.719971 0.720703
0.831421 0.726227 0.726898
0.927307 0.742126 0.742615
0.999603 0.759766 0.760223
0.426758 0.833313 0.712341
0.464386 0.832458 0.714294
0.542419 0.830872 0.719604
0.643402 0.829681 0.729919
0.738037 0.829956 0.738190
0.830383 0.829987 0.741119
0.919189 0.831299 0.754883
0.989166 0.834473 0.772125
0.593475 0.916809 0.748413
0.613220 0.916016 0.751648
0.657623 0.914215 0.759583
0.712738 0.912628 0.767426
0.769318 0.911743 0.769348
0.836365 0.910645 0.772095
0.909729 0.909302 0.775513
0.976563 0.904327 0.787170
0.713928 0.967377 0.798279
0.721069 0.967102 0.798920
0.737244 0.966675 0.799591
0.764496 0.965790 0.800690
0.802368 0.964600 0.802368
0.848999 0.963013 0.804565
0.902100 0.961060 0.807495
0.959229 0.958801 0.810944
0.060699 0.061646 0.862213
0.201965 0.062988 0.861694
0.362335 0.069916 0.860626
0.526978 0.089203 0.858551
0.691101 0.122742 0.855743
0.851013 0.169647 0.851837
0.996338 0.240540 0.842468
1.000000 0.381775 0.810028
0.091705 0.212311 0.858582
0.214233 0.214233 0.858185
0.368317 0.219696 0.856964
0.529785 0.230591 0.855042
0.690948 0.249481 0.852295
0.847870 0.278290 0.848663
0.988617 0.330261 0.839111
1.000000 0.441071 0.811096
0.201660 0.393829 0.849670
0.275299 0.395569 0.849304
0.400269 0.399994 0.848389
0.545197 0.408478 0.846741
0.694458 0.422180 0.844269
0.840576 0.442596 0.841248
0.968994 0.479340 0.832611
1.000000 0.550629 0.814911
0.309814 0.561676 0.840942
0.369751 0.567657 0.839630
0.479645 0.582306 0.836761
0.588776 0.588470 0.835571
0.708954 0.595642 0.834259
0.832245 0.605255 0.832794
0.942810 0.628998 0.828094
1.000000 0.672699 0.823944
0.395386 0.705505 0.834198
0.437836 0.707703 0.833496
0.523468 0.713226 0.831940
0.630859 0.723175 0.830414
0.734253 0.733917 0.830292
0.830292 0.738159 0.830658
0.920593 0.754242 0.832581
0.988068 0.779449 0.839844
0.480316 0.828949 0.829773
0.510162 0.828857 0.829681
0.574921 0.828796 0.829620
0.662262 0.829681 0.830414
0.754486 0.833099 0.833740
0.842102 0.841797 0.842346
0.911774 0.846619 0.847107
0.971252 0.856476 0.856842
0.614014 0.914886 0.830780
0.631775 0.914215 0.831970
0.672180 0.912842 0.834991
0.730347 0.911194 0.840393
0.795593 0.910278 0.848389
0.854126 0.910461 0.854279
0.910736 0.910431 0.856140
0.965210 0.910889 0.864655
0.728912 0.965607 0.851501
0.739075 0.965088 0.853271
0.762878 0.963837 0.857635
0.799103 0.962067 0.864807
0.838959 0.960510 0.872284
0.873627 0.959778 0.873688
0.913971 0.958923 0.875458
0.958221 0.957947 0.877625
0.171387 0.171844 0.949280
0.246094 0.176392 0.949036
0.368805 0.188446 0.948090
0.509583 0.210449 0.946442
0.654968 0.243896 0.944031
0.798523 0.288574 0.940674
0.935516 0.343994 0.936340
1.000000 0.408020 0.930756
0.213531 0.272339 0.946350
0.275879 0.275909 0.946167
0.387177 0.285095 0.945129
0.520844 0.301971 0.943512
0.661041 0.327972 0.941071
0.800201 0.363983 0.937744
0.932709 0.410400 0.933472
1.000000 0.461914 0.927765
0.320007 0.435211 0.938843
0.360687 0.437897 0.938507
0.445038 0.444885 0.937561
0.557312 0.457611 0.935974
0.681213 0.476868 0.933563
0.806152 0.501617 0.930511
0.926300 0.530243 0.926971
1.000000 0.564575 0.920746
0.463684 0.607452 0.927063
0.493347 0.612671 0.926300
0.545593 0.616577 0.925598
0.623291 0.623077 0.924469
0.716858 0.632507 0.922852
0.817261 0.644775 0.920898
0.918030 0.659576 0.918610
1.000000 0.681519 0.912628
0.525940 0.721222 0.920197
0.552277 0.725250 0.919434
0.609985 0.735138 0.917603
0.688629 0.751068 0.914886
0.758423 0.758179 0.913757
0.832977 0.763611 0.912903
0.911621 0.770294 0.912018
0.983337 0.784637 0.908691
0.591339 0.823822 0.913940
0.611145 0.825378 0.913513
0.655701 0.829193 0.912598
0.718750 0.835480 0.911407
0.788055 0.843903 0.910583
0.851807 0.851563 0.910736
0.910706 0.854156 0.910950
0.966614 0.863922 0.911896
0.654358 0.909271 0.909943
0.668579 0.909210 0.909882
0.701721 0.909149 0.909790
0.750610 0.909302 0.909882
0.807312 0.910126 0.910645
0.864288 0.912292 0.912750
0.916901 0.916718 0.917084
0.959839 0.920685 0.921021
0.744049 0.963989 0.907074
0.753235 0.963501 0.907715
0.774963 0.962494 0.909302
0.808319 0.961060 0.912109
0.848541 0.959625 0.916229
0.889984 0.958801 0.921692
0.925476 0.958710 0.925598
0.958801 0.958649 0.926880
0.258484 0.258636 0.999847
0.302612 0.263824 0.999817
0.390594 0.276794 0.999725
0.503937 0.299988 0.999603
0.627686 0.333862 0.998199
0.753021 0.378418 0.995056
0.873901 0.432892 0.990997
0.985565 0.489502 0.986237
0.303131 0.336304 0.999573
0.340393 0.340485 0.999481
0.418335 0.351379 0.999176
0.523346 0.370880 0.997742
0.640503 0.399902 0.995453
0.760406 0.438934 0.992249
0.876038 0.484253 0.988342
0.983307 0.531281 0.983917
0.409851 0.481476 0.993317
0.435455 0.484833 0.992950
0.493286 0.493195 0.992126
0.577240 0.507660 0.990631
0.675659 0.528015 0.988434
0.779144 0.553589 0.985626
0.881226 0.582947 0.982269
0.978058 0.614716 0.978577
0.547638 0.641724 0.981873
0.562714 0.643433 0.981628
0.598694 0.647705 0.980988
0.655334 0.655212 0.979889
0.726990 0.665924 0.978302
0.807037 0.679688 0.976257
0.889709 0.695953 0.973846
0.970947 0.714233 0.971191
0.629364 0.749969 0.973145
0.646851 0.754791 0.972412
0.686768 0.766388 0.970673
0.732422 0.775787 0.969177
0.781006 0.780823 0.968262
0.838257 0.787292 0.967102
0.900299 0.795197 0.965759
0.964233 0.804230 0.964325
0.680420 0.831085 0.966919
0.693848 0.833557 0.966461
0.725037 0.839600 0.965363
0.770782 0.849152 0.963715
0.823273 0.861267 0.961823
0.866943 0.866730 0.960999
0.911804 0.870117 0.960480
0.960052 0.874146 0.959991
0.729523 0.901215 0.961792
0.739594 0.902130 0.961578
0.763275 0.904358 0.961029
0.799194 0.908051 0.960266
0.841919 0.912994 0.959473
0.885498 0.918915 0.958984
0.924164 0.923889 0.959015
0.959137 0.925537 0.959076
0.774414 0.957977 0.958527
0.781830 0.957916 0.958466
0.799713 0.957855 0.958405
0.827362 0.957794 0.958282
0.861450 0.957977 0.958374
0.897583 0.958466 0.958832
0.932007 0.959503 0.959808
0.961487 0.961334 0.961578
