PS/3DLUTs/filmstock3.CUBE
#Copyright: (C) Copyright 2017 Kim Amland
TITLE "Kim Amland - Photographic 02"
#LUT size
LUT_3D_SIZE 5
#data domain
#LUT data points
DOMAIN_MIN 0.000000 0.000000 0.000000
DOMAIN_MAX 0.903226 0.903226 0.903226
0.001495 0.001495 0.001495
0.197968 0.006409 0.015594
0.644409 0.020905 0.046661
0.894379 0.089172 0.116241
0.991730 0.174042 0.202148
0.017914 0.250702 0.023895
0.269836 0.256470 0.024017
0.694519 0.291138 0.059296
0.919220 0.344971 0.126953
0.991058 0.404266 0.212402
0.054718 0.659515 0.065186
0.315979 0.678833 0.048889
0.709076 0.675537 0.058472
0.917877 0.678223 0.108612
0.989471 0.697296 0.185974
0.114288 0.838562 0.122742
0.397705 0.863708 0.141602
0.716370 0.879913 0.126923
0.911102 0.878662 0.104309
0.987396 0.880219 0.150787
0.171356 0.918457 0.178070
0.440460 0.939850 0.202759
0.722809 0.950531 0.200439
0.896484 0.953400 0.182922
0.974945 0.951813 0.133057
0.007965 0.015564 0.124512
0.222107 0.028412 0.221039
0.683685 0.058899 0.312378
0.913727 0.130066 0.394745
0.990875 0.201904 0.446381
0.018799 0.269989 0.256378
0.269958 0.269958 0.269958
0.687256 0.312683 0.322754
0.895721 0.355713 0.377533
0.987915 0.403076 0.426727
0.039093 0.698669 0.317810
0.327667 0.691528 0.336273
0.701813 0.686737 0.351440
0.912476 0.690247 0.394226
0.987823 0.703979 0.428772
0.131622 0.856720 0.387756
0.403503 0.880371 0.412201
0.714264 0.890259 0.403229
0.907379 0.888062 0.394135
0.985229 0.888214 0.422241
0.196930 0.935638 0.437927
0.468384 0.950684 0.476837
0.734741 0.960999 0.484924
0.901184 0.966003 0.483154
0.978699 0.966370 0.487518
0.042175 0.066315 0.436218
0.214752 0.075623 0.530304
0.685181 0.109253 0.678101
0.920837 0.166168 0.725739
0.988739 0.255005 0.751526
0.044220 0.326599 0.653290
0.310455 0.340912 0.676453
0.708435 0.366058 0.704651
0.914490 0.412506 0.720337
0.987579 0.449768 0.741638
0.043762 0.700867 0.676270
0.337006 0.701416 0.688324
0.693909 0.693909 0.693909
0.903931 0.706360 0.713562
0.983093 0.708466 0.718994
0.143951 0.873657 0.689270
0.403442 0.891113 0.709564
0.710449 0.896973 0.715607
0.901398 0.894348 0.716339
0.982513 0.894775 0.726288
0.210358 0.946045 0.702972
0.477203 0.958557 0.728973
0.735474 0.968262 0.740479
0.901825 0.973755 0.742767
0.980499 0.974823 0.743988
0.083893 0.126953 0.726074
0.315094 0.159515 0.817047
0.685272 0.197418 0.872803
0.880310 0.213654 0.873901
0.972168 0.303497 0.887238
0.107605 0.393311 0.882507
0.351624 0.389954 0.885529
0.701599 0.427765 0.895966
0.902435 0.459015 0.899963
0.980560 0.496948 0.902863
0.116089 0.711761 0.878845
0.385437 0.719849 0.894226
0.706055 0.721771 0.900421
0.906036 0.730225 0.904907
0.982758 0.736877 0.907837
0.161835 0.876251 0.861084
0.415955 0.893066 0.884399
0.711426 0.901062 0.897125
0.898956 0.899139 0.899078
0.980530 0.901093 0.902710
0.229187 0.947174 0.859894
0.489136 0.961426 0.882050
0.738220 0.972473 0.897705
0.901550 0.977661 0.903015
0.979675 0.978058 0.904541
0.195526 0.251526 0.963867
0.420258 0.268127 0.964233
0.676208 0.283508 0.951935
0.869049 0.316040 0.954285
0.957794 0.316223 0.953583
0.192871 0.444427 0.973785
0.394745 0.432526 0.975372
0.707336 0.463409 0.970581
0.888550 0.481720 0.966797
0.967499 0.489532 0.965454
0.227295 0.724854 0.964905
0.400940 0.730804 0.976196
0.712677 0.733643 0.982086
0.900055 0.740906 0.977142
0.975922 0.749725 0.975800
0.248413 0.881866 0.944916
0.437103 0.893219 0.960693
0.719238 0.903931 0.976440
0.900482 0.905884 0.979675
0.979736 0.907898 0.979706
0.234680 0.946930 0.930695
0.502136 0.961487 0.954041
0.744781 0.972900 0.970276
0.902679 0.979004 0.978302
0.979523 0.979462 0.979462
