PS/3DLUTs/filmstock2.CUBE
#Copyright: (C) Copyright 2017 Kim Amland
TITLE "Kim Amland - Photographic 01"
#LUT size
LUT_3D_SIZE 32
#data domain
DOMAIN_MIN 0.0 0.0 0.0
DOMAIN_MAX 1.0 1.0 1.0
#LUT data points
0.000000 0.000000 0.000000
0.000000 0.000000 0.000000
0.000000 0.000000 0.000000
0.002289 0.000092 0.000214
0.055206 0.000214 0.006042
0.098267 0.001434 0.013916
0.145538 0.000000 0.020966
0.197113 0.000000 0.025604
0.253601 0.000000 0.027985
0.309448 0.000000 0.023773
0.365753 0.000000 0.016632
0.421692 0.000000 0.006989
0.477692 0.000000 0.000000
0.533905 0.000000 0.000000
0.590668 0.000000 0.000000
0.647980 0.000000 0.000000
0.705383 0.000000 0.000000
0.759796 0.000000 0.000000
0.810364 0.000000 0.000000
0.857452 0.000000 0.000000
0.901154 0.000000 0.000000
0.941589 0.000000 0.000000
0.978607 0.000000 0.000000
1.000000 0.003510 0.005280
1.000000 0.031128 0.033508
1.000000 0.061646 0.063965
1.000000 0.087952 0.089691
1.000000 0.111450 0.112610
1.000000 0.133148 0.134338
1.000000 0.153503 0.154297
1.000000 0.173004 0.174133
1.000000 0.191498 0.192322
0.000000 0.000000 0.000000
0.000000 0.000000 0.000000
0.000000 0.000000 0.000000
0.015533 0.000732 0.001831
0.066559 0.000916 0.007629
0.107635 0.001556 0.015472
0.152008 0.000366 0.020905
0.201721 0.000427 0.023743
0.256042 0.000427 0.023163
0.311615 0.000336 0.018707
0.367401 0.000244 0.010193
0.423431 0.000153 0.001526
0.479034 0.000214 0.000000
0.535065 0.000336 0.000000
0.591827 0.000488 0.000000
0.648895 0.000671 0.000000
0.706207 0.000885 0.000000
0.760254 0.001526 0.000000
0.810547 0.005127 0.000000
0.857391 0.008820 0.000000
0.900970 0.016174 0.000000
0.941345 0.027832 0.000000
0.978241 0.044342 0.000000
0.999908 0.062134 0.005859
1.000000 0.080505 0.034271
1.000000 0.098969 0.064545
1.000000 0.117615 0.090576
1.000000 0.135681 0.113922
1.000000 0.153290 0.135254
1.000000 0.170502 0.155579
1.000000 0.187927 0.175079
1.000000 0.204590 0.193756
0.000000 0.000946 0.000092
0.000000 0.001190 0.000092
0.000763 0.002106 0.000092
0.032166 0.006165 0.003265
0.073456 0.013275 0.008911
0.111694 0.020569 0.014465
0.155884 0.027100 0.018280
0.205536 0.032715 0.019501
0.258942 0.036499 0.018066
0.314240 0.037994 0.011963
0.369293 0.037903 0.003204
0.425049 0.036987 0.000000
0.480560 0.040039 0.000000
0.536499 0.045776 0.000000
0.592773 0.051544 0.000000
0.650055 0.057770 0.000000
0.707001 0.063904 0.000000
0.760773 0.069427 0.000000
0.810669 0.071350 0.000000
0.857330 0.074585 0.000000
0.900726 0.079254 0.000000
0.940979 0.086182 0.000000
0.977814 0.095093 0.000000
0.999817 0.105499 0.005280
1.000000 0.117493 0.035065
1.000000 0.130615 0.065582
1.000000 0.144379 0.091888
1.000000 0.158875 0.115356
1.000000 0.173370 0.136780
1.000000 0.188354 0.157135
1.000000 0.203583 0.176666
1.000000 0.218384 0.195038
0.000000 0.041504 0.002594
0.000000 0.043793 0.003357
0.002258 0.045166 0.003387
0.037659 0.045929 0.003387
0.075317 0.048401 0.006439
0.115540 0.056213 0.011078
0.160522 0.066071 0.013885
0.209869 0.074951 0.013397
0.263031 0.082336 0.009705
0.317657 0.087524 0.002808
0.372375 0.091583 0.000000
0.427460 0.095245 0.000000
0.482605 0.100189 0.000000
0.538208 0.105591 0.000000
0.594513 0.111298 0.000000
0.651642 0.116699 0.000000
0.708069 0.121643 0.000000
0.761169 0.123993 0.000000
0.810791 0.126251 0.000000
0.857208 0.128418 0.000000
0.900513 0.131775 0.000000
0.940491 0.135956 0.000000
0.977264 0.141510 0.000000
0.999634 0.148254 0.005280
1.000000 0.156158 0.035675
1.000000 0.165680 0.067444
1.000000 0.176086 0.093903
1.000000 0.187195 0.117157
1.000000 0.198914 0.138855
1.000000 0.211212 0.159180
1.000000 0.223877 0.178711
1.000000 0.236755 0.197266
0.000000 0.084747 0.006195
0.000061 0.085724 0.006195
0.012756 0.086212 0.006104
0.048767 0.087219 0.005432
0.084106 0.088562 0.005219
0.121338 0.093262 0.005920
0.166504 0.104156 0.006226
0.216248 0.114777 0.003906
0.268219 0.124054 0.000000
0.321869 0.131744 0.000000
0.375916 0.137878 0.000000
0.430542 0.143585 0.000000
0.485321 0.149567 0.000000
0.540619 0.155823 0.000000
0.596741 0.161713 0.000000
0.653320 0.166901 0.000000
0.709045 0.170471 0.000000
0.761627 0.173126 0.000000
0.810944 0.175323 0.000000
0.857147 0.177429 0.000000
0.900055 0.179871 0.000000
0.939941 0.182861 0.000000
0.976440 0.186584 0.000000
0.999451 0.191132 0.005951
1.000000 0.196747 0.037537
1.000000 0.203278 0.070007
1.000000 0.210785 0.096466
1.000000 0.219238 0.120148
1.000000 0.228394 0.141724
1.000000 0.238068 0.161987
1.000000 0.248352 0.181305
1.000000 0.259247 0.199921
0.000000 0.131592 0.002655
0.000214 0.132538 0.001984
0.022522 0.133179 0.001312
0.062744 0.134369 0.000671
0.099915 0.135681 0.000000
0.135223 0.137756 0.000000
0.174347 0.142914 0.000000
0.223297 0.154694 0.000000
0.274506 0.165222 0.000000
0.327087 0.174347 0.000000
0.380402 0.182159 0.000000
0.434479 0.189148 0.000000
0.488678 0.196075 0.000000
0.543457 0.202637 0.000000
0.598938 0.208069 0.000000
0.654968 0.212860 0.000000
0.710144 0.217072 0.000000
0.762238 0.220154 0.000000
0.811005 0.222504 0.000000
0.856842 0.224457 0.000000
0.899567 0.226379 0.000000
0.939117 0.228607 0.000000
0.975433 0.231018 0.000000
0.999207 0.234192 0.007751
1.000000 0.237854 0.041473
1.000000 0.242249 0.073547
1.000000 0.247620 0.100128
1.000000 0.253662 0.123535
1.000000 0.260559 0.145233
1.000000 0.268005 0.165710
1.000000 0.276215 0.185028
1.000000 0.284943 0.203552
0.000000 0.184601 0.000000
0.000336 0.185242 0.000000
0.030701 0.185913 0.000000
0.075745 0.186798 0.000000
0.115662 0.188110 0.000000
0.153503 0.189636 0.000000
0.190887 0.191559 0.000000
0.231110 0.195984 0.000000
0.281372 0.207184 0.000000
0.333069 0.216949 0.000000
0.385254 0.225525 0.000000
0.438110 0.232910 0.000000
0.491577 0.240082 0.000000
0.545868 0.246460 0.000000
0.600922 0.252502 0.000000
0.656769 0.258179 0.000000
0.711243 0.262726 0.000000
0.762787 0.266205 0.000000
0.811066 0.268707 0.000000
0.856415 0.270569 0.000000
0.898804 0.272064 0.000000
0.938080 0.273621 0.000000
0.974030 0.275177 0.000000
0.998840 0.276947 0.009094
1.000000 0.279175 0.045502
1.000000 0.282074 0.078094
1.000000 0.285553 0.104736
1.000000 0.289612 0.128174
1.000000 0.294525 0.149872
1.000000 0.300049 0.170135
1.000000 0.306183 0.189423
1.000000 0.313019 0.207886
0.000000 0.240051 0.000000
0.000275 0.240387 0.000000
0.037476 0.240997 0.000000
0.086151 0.241669 0.000000
0.128326 0.242523 0.000000
0.168518 0.243744 0.000000
0.207550 0.244904 0.000000
0.246643 0.246338 0.000000
0.287170 0.249054 0.000000
0.337555 0.258911 0.000000
0.388794 0.267639 0.000000
0.441223 0.275726 0.000000
0.494263 0.283264 0.000000
0.548340 0.290344 0.000000
0.603363 0.297119 0.000000
0.658813 0.303436 0.000000
0.712463 0.308411 0.000000
0.763245 0.311920 0.000000
0.811035 0.314362 0.000000
0.855927 0.316071 0.000000
0.897919 0.317291 0.000000
0.936737 0.318146 0.000000
0.972412 0.318909 0.000000
0.998383 0.319672 0.013184
1.000000 0.320679 0.051422
1.000000 0.322113 0.083496
1.000000 0.324036 0.110138
1.000000 0.326538 0.133484
1.000000 0.329681 0.155090
1.000000 0.333466 0.175568
1.000000 0.337799 0.194733
1.000000 0.342865 0.213104
0.000000 0.293915 0.000000
0.000000 0.294189 0.000000
0.028503 0.294647 0.000000
0.085754 0.295135 0.000000
0.132751 0.295624 0.000000
0.176239 0.296509 0.000000
0.217987 0.297485 0.000000
0.259155 0.298553 0.000000
0.300293 0.299927 0.000000
0.341644 0.301575 0.000000
0.392517 0.310577 0.000000
0.444458 0.319061 0.000000
0.497284 0.327179 0.000000
0.551208 0.334839 0.000000
0.605927 0.342163 0.000000
0.660828 0.348877 0.000000
0.713684 0.353912 0.000000
0.763763 0.357422 0.000000
0.810791 0.359802 0.000000
0.855133 0.361206 0.000000
0.896667 0.362000 0.000000
0.935150 0.362274 0.000000
0.970398 0.362305 0.000000
0.997833 0.362152 0.019592
1.000000 0.362122 0.059753
1.000000 0.362366 0.090942
1.000000 0.362915 0.116730
1.000000 0.363953 0.140076
1.000000 0.365723 0.161804
1.000000 0.367859 0.181885
1.000000 0.370789 0.201050
1.000000 0.374237 0.219421
0.000000 0.347870 0.000000
0.000000 0.348206 0.000000
0.012543 0.348389 0.000000
0.081573 0.348816 0.000000
0.134338 0.349365 0.000000
0.180969 0.350006 0.000000
0.225494 0.350739 0.000000
0.268890 0.351746 0.000000
0.311554 0.352753 0.000000
0.354248 0.354004 0.000000
0.397095 0.355438 0.000000
0.448090 0.363617 0.000000
0.500732 0.371979 0.000000
0.554260 0.380127 0.000000
0.608795 0.387848 0.000000
0.662872 0.394653 0.000000
0.714691 0.399567 0.000000
0.763977 0.402954 0.000000
0.810364 0.405060 0.000000
0.854156 0.406189 0.000000
0.895142 0.406494 0.000000
0.933197 0.406219 0.000000
0.968079 0.405487 0.000000
0.997223 0.404510 0.029297
1.000000 0.403534 0.069153
1.000000 0.402618 0.099182
1.000000 0.402039 0.124786
1.000000 0.401855 0.147644
1.000000 0.402130 0.169098
1.000000 0.403015 0.189301
1.000000 0.404388 0.208374
1.000000 0.406403 0.226654
0.000000 0.402435 0.000000
0.000000 0.402588 0.000000
0.002594 0.402863 0.000000
0.077393 0.403168 0.000000
0.135498 0.403595 0.000000
0.185333 0.404205 0.000000
0.231995 0.404877 0.000000
0.277161 0.405670 0.000000
0.321442 0.406555 0.000000
0.365356 0.407684 0.000000
0.409241 0.408844 0.000000
0.453308 0.410187 0.000000
0.504089 0.417480 0.000000
0.557556 0.425842 0.000000
0.611664 0.433929 0.000000
0.664703 0.440460 0.000000
0.715668 0.445160 0.000000
0.764008 0.448181 0.000000
0.809692 0.449982 0.000000
0.852875 0.450684 0.000000
0.893341 0.450531 0.000000
0.930847 0.449615 0.000000
0.965393 0.448151 0.003693
0.996277 0.446350 0.042267
1.000000 0.444458 0.079529
1.000000 0.442657 0.108887
1.000000 0.441010 0.134003
1.000000 0.439667 0.156891
1.000000 0.438812 0.178009
1.000000 0.438416 0.197662
1.000000 0.438660 0.216766
1.000000 0.439301 0.234741
0.000000 0.457825 0.000000
0.000000 0.458099 0.000000
0.001495 0.458191 0.000000
0.073273 0.458496 0.000000
0.136597 0.458923 0.000000
0.189117 0.459412 0.000000
0.237732 0.459991 0.000000
0.284546 0.460754 0.000000
0.330139 0.461548 0.000000
0.375397 0.462555 0.000000
0.420258 0.463593 0.000000
0.465179 0.464783 0.000000
0.510040 0.466064 0.000000
0.561035 0.472595 0.000000
0.614441 0.480499 0.000000
0.666351 0.486603 0.000000
0.716309 0.490814 0.000000
0.763763 0.493469 0.000000
0.808716 0.494781 0.000000
0.851257 0.495026 0.000000
0.891144 0.494324 0.000000
0.928131 0.492706 0.000000
0.962219 0.490509 0.014832
0.993469 0.487976 0.057648
1.000000 0.485291 0.092224
1.000000 0.482544 0.120331
1.000000 0.479919 0.144714
1.000000 0.477539 0.166779
1.000000 0.475616 0.187683
1.000000 0.474091 0.207306
1.000000 0.473083 0.226013
1.000000 0.472656 0.244080
0.000000 0.513977 0.000000
0.000000 0.514099 0.000000
0.001038 0.514282 0.000000
0.070435 0.514557 0.000000
0.137787 0.514923 0.000000
0.192780 0.515411 0.000000
0.243042 0.515900 0.000000
0.291290 0.516602 0.000000
0.338226 0.517334 0.000000
0.384583 0.518158 0.000000
0.430389 0.519073 0.000000
0.476135 0.520081 0.000000
0.521606 0.521210 0.000000
0.567261 0.522369 0.000000
0.616974 0.527191 0.000000
0.667694 0.532593 0.000000
0.716644 0.536255 0.000000
0.763214 0.538361 0.000000
0.807373 0.539124 0.000000
0.849304 0.538818 0.000000
0.888611 0.537476 0.000000
0.925018 0.535248 0.000000
0.958618 0.532318 0.031982
0.989807 0.528992 0.074280
1.000000 0.525452 0.105896
1.000000 0.521851 0.132538
1.000000 0.518402 0.156403
1.000000 0.515045 0.177979
1.000000 0.512085 0.198425
1.000000 0.509552 0.217773
1.000000 0.507599 0.236511
1.000000 0.506012 0.254211
0.000000 0.570007 0.000000
0.000000 0.570099 0.000000
0.000946 0.570251 0.000000
0.069946 0.570435 0.000000
0.140015 0.570679 0.000000
0.196716 0.570953 0.000000
0.248230 0.571381 0.000000
0.297363 0.571808 0.000000
0.345123 0.572235 0.000000
0.391968 0.572784 0.000000
0.438263 0.573273 0.000000
0.484436 0.573975 0.000000
0.530151 0.574615 0.000000
0.575745 0.575226 0.000000
0.621246 0.575867 0.000000
0.668701 0.578430 0.000000
0.716614 0.581390 0.000000
0.762360 0.582855 0.000000
0.805786 0.583069 0.000000
0.847015 0.582092 0.000000
0.885590 0.580048 0.000000
0.921448 0.577148 0.011139
0.954651 0.573486 0.054321
0.985413 0.569397 0.091492
1.000000 0.565125 0.120697
1.000000 0.560730 0.146210
1.000000 0.556427 0.169220
1.000000 0.552277 0.190521
1.000000 0.548462 0.210663
1.000000 0.544983 0.229736
1.000000 0.541931 0.247894
1.000000 0.539490 0.265594
0.000000 0.622437 0.000000
0.000000 0.622467 0.000000
0.001556 0.622589 0.000000
0.074951 0.622681 0.000000
0.144531 0.622772 0.000000
0.201019 0.622925 0.000000
0.252716 0.623047 0.000000
0.301941 0.623291 0.000000
0.349823 0.623474 0.000000
0.396942 0.623749 0.000000
0.443237 0.623993 0.000000
0.489349 0.624268 0.000000
0.534973 0.624512 0.000000
0.580383 0.624817 0.000000
0.625610 0.625031 0.000000
0.670624 0.625275 0.000000
0.716248 0.626160 0.000000
0.761139 0.626862 0.000000
0.803772 0.626434 0.000000
0.844269 0.624756 0.000000
0.882202 0.621979 0.000366
0.917511 0.618347 0.033478
0.950256 0.614044 0.076935
0.980652 0.609192 0.109650
0.999786 0.604156 0.136932
1.000000 0.599091 0.161102
1.000000 0.593933 0.183289
1.000000 0.588989 0.203949
1.000000 0.584351 0.223663
1.000000 0.580048 0.242615
1.000000 0.576141 0.260437
1.000000 0.572693 0.277771
0.000000 0.670746 0.000000
0.000000 0.670746 0.000000
0.003387 0.670746 0.000000
0.087830 0.670807 0.000000
0.152100 0.670807 0.000000
0.206909 0.670868 0.000000
0.257477 0.670868 0.000000
0.306183 0.670898 0.000000
0.353516 0.670898 0.000000
0.400238 0.670929 0.000000
0.446136 0.670898 0.000000
0.491821 0.670929 0.000000
0.537079 0.670868 0.000000
0.582001 0.670776 0.000000
0.626740 0.670776 0.000000
0.671265 0.670654 0.000000
0.715668 0.670502 0.000000
0.759521 0.670319 0.000000
0.801422 0.669006 0.000000
0.841156 0.666626 0.000000
0.878387 0.663116 0.017670
0.913147 0.658752 0.062561
0.945404 0.653748 0.099121
0.975464 0.648254 0.128571
0.998718 0.642517 0.154022
1.000000 0.636658 0.177185
1.000000 0.630829 0.198700
1.000000 0.625153 0.218872
1.000000 0.619720 0.238129
1.000000 0.614594 0.256470
1.000000 0.609863 0.274017
1.000000 0.605652 0.291077
0.000000 0.715179 0.000000
0.000000 0.715118 0.000000
0.030457 0.715149 0.000000
0.106537 0.715088 0.000000
0.163544 0.715057 0.000000
0.215027 0.714966 0.000000
0.263672 0.714935 0.000000
0.310822 0.714783 0.000000
0.357086 0.714691 0.000000
0.402863 0.714508 0.000000
0.447906 0.714355 0.000000
0.492889 0.714081 0.000000
0.537384 0.713928 0.000000
0.581635 0.713593 0.000000
0.625610 0.713287 0.000000
0.669373 0.712860 0.000000
0.712982 0.712402 0.000000
0.756317 0.711914 0.000000
0.798676 0.710968 0.000000
0.837616 0.707733 0.009369
0.874176 0.703491 0.049927
0.908356 0.698364 0.090332
0.940155 0.692688 0.121552
0.969849 0.686554 0.148285
0.996643 0.680176 0.172211
1.000000 0.673645 0.194366
1.000000 0.667145 0.215118
1.000000 0.660767 0.234772
1.000000 0.654663 0.253479
1.000000 0.648804 0.271545
1.000000 0.643280 0.288727
1.000000 0.638306 0.305481
0.000000 0.755554 0.000000
0.015259 0.755554 0.000000
0.076172 0.755493 0.000000
0.130219 0.755402 0.000000
0.179047 0.755310 0.000000
0.225830 0.755127 0.000000
0.271515 0.754974 0.000000
0.316620 0.754791 0.000000
0.361084 0.754517 0.000000
0.405426 0.754211 0.000000
0.449249 0.753876 0.000000
0.492981 0.753448 0.000000
0.536469 0.753052 0.000000
0.579712 0.752502 0.000671
0.622742 0.751953 0.003571
0.665558 0.751312 0.008728
0.708221 0.750641 0.014130
0.750427 0.749878 0.019928
0.792419 0.749023 0.026550
0.833710 0.747742 0.040924
0.869568 0.742737 0.084015
0.903168 0.736938 0.116547
0.934479 0.730530 0.144196
0.963867 0.723785 0.168762
0.990875 0.716736 0.191254
1.000000 0.709595 0.212646
1.000000 0.702484 0.232635
1.000000 0.695435 0.251556
1.000000 0.688629 0.269836
1.000000 0.682098 0.287445
1.000000 0.675995 0.304443
1.000000 0.670288 0.320862
0.028625 0.791840 0.025543
0.079163 0.791748 0.026001
0.117188 0.791656 0.026459
0.157318 0.791534 0.027283
0.198151 0.791412 0.029114
0.239899 0.791199 0.031006
0.281891 0.790924 0.033417
0.324005 0.790649 0.036316
0.366241 0.790344 0.039978
0.408600 0.789856 0.044250
0.450745 0.789398 0.048401
0.493011 0.788849 0.053894
0.535065 0.788239 0.059174
0.576996 0.787598 0.065460
0.618774 0.786896 0.071472
0.660370 0.786041 0.078278
0.701843 0.785156 0.084900
0.742981 0.784180 0.091919
0.783813 0.783173 0.098724
0.824432 0.782013 0.106110
0.864532 0.780609 0.114532
0.897705 0.774261 0.142212
0.928558 0.767334 0.167267
0.957550 0.759888 0.190186
0.984253 0.752289 0.211670
1.000000 0.744507 0.231750
1.000000 0.736786 0.251038
1.000000 0.729187 0.269562
1.000000 0.721802 0.287323
1.000000 0.714661 0.304504
1.000000 0.707916 0.320984
1.000000 0.701538 0.337067
0.104248 0.824188 0.101746
0.131378 0.824127 0.102142
0.156464 0.823975 0.102753
0.186890 0.823822 0.103729
0.220917 0.823639 0.104553
0.257202 0.823425 0.106079
0.294952 0.823090 0.107666
0.333832 0.822723 0.109680
0.373108 0.822327 0.111969
0.413086 0.821838 0.114410
0.453064 0.821289 0.117432
0.493500 0.820618 0.120636
0.533783 0.819946 0.124237
0.574127 0.819153 0.128113
0.614410 0.818298 0.132202
0.654633 0.817352 0.136627
0.694733 0.816376 0.141357
0.734589 0.815277 0.146484
0.774139 0.814087 0.151703
0.813507 0.812836 0.157288
0.852570 0.811493 0.163300
0.891083 0.809906 0.169830
0.922272 0.802948 0.190857
0.950897 0.794922 0.212494
0.977295 0.786804 0.232697
0.998962 0.778534 0.252014
1.000000 0.770264 0.270569
1.000000 0.762115 0.288483
1.000000 0.754150 0.305847
1.000000 0.746460 0.322449
1.000000 0.739105 0.338593
1.000000 0.732147 0.354279
0.158203 0.852875 0.156403
0.176300 0.852783 0.156830
0.194672 0.852722 0.157349
0.218597 0.852539 0.157898
0.246613 0.852356 0.158783
0.277588 0.852051 0.159851
0.311035 0.851715 0.161133
0.346100 0.851288 0.162537
0.382324 0.850891 0.164429
0.419464 0.850342 0.166534
0.457001 0.849701 0.168762
0.495148 0.849030 0.171387
0.533447 0.848236 0.174194
0.571930 0.847412 0.177368
0.610504 0.846497 0.180695
0.649017 0.845459 0.184448
0.687561 0.844360 0.188477
0.725952 0.843201 0.192596
0.764038 0.841919 0.197144
0.802032 0.840607 0.201996
0.839844 0.839203 0.207031
0.877197 0.837646 0.212372
0.914124 0.835907 0.218201
0.943970 0.828857 0.235382
0.970093 0.820190 0.254761
0.994507 0.811340 0.273285
1.000000 0.802612 0.291199
1.000000 0.793945 0.308411
1.000000 0.785522 0.325165
1.000000 0.777313 0.341461
1.000000 0.769501 0.357117
1.000000 0.761932 0.372406
0.205078 0.878357 0.203552
0.218079 0.878265 0.203949
0.232330 0.878143 0.204285
0.251160 0.878021 0.204742
0.274139 0.877777 0.205566
0.300659 0.877502 0.206360
0.329834 0.877136 0.207458
0.361023 0.876740 0.208801
0.393799 0.876221 0.210297
0.427979 0.875671 0.212036
0.462830 0.875000 0.214020
0.498474 0.874329 0.216278
0.534485 0.873474 0.218872
0.570892 0.872620 0.221588
0.607483 0.871643 0.224640
0.644226 0.870605 0.227783
0.681061 0.869446 0.231293
0.717773 0.868225 0.235077
0.754333 0.866943 0.239075
0.790833 0.865570 0.243439
0.827209 0.864075 0.247894
0.863159 0.862549 0.252686
0.898926 0.860901 0.257690
0.934357 0.859039 0.263184
0.962738 0.852173 0.277618
0.986908 0.842957 0.295288
1.000000 0.833710 0.312714
1.000000 0.824677 0.329346
1.000000 0.815796 0.345612
1.000000 0.807129 0.361389
1.000000 0.798828 0.376587
1.000000 0.790924 0.391663
0.247925 0.900909 0.246735
0.258057 0.900848 0.247162
0.269257 0.900726 0.247467
0.284424 0.900513 0.247864
0.303497 0.900330 0.248535
0.325897 0.900024 0.249390
0.351135 0.899689 0.250305
0.378662 0.899231 0.251526
0.407990 0.898743 0.252869
0.438965 0.898193 0.254517
0.470886 0.897491 0.256287
0.503876 0.896759 0.258301
0.537445 0.895966 0.260468
0.571533 0.895081 0.263031
0.605957 0.894073 0.265747
0.640686 0.893005 0.268677
0.675629 0.891876 0.271851
0.710571 0.890625 0.275238
0.745392 0.889282 0.278900
0.780365 0.887939 0.282806
0.815094 0.886444 0.286957
0.849609 0.884888 0.291412
0.883850 0.883240 0.295898
0.917999 0.881561 0.300964
0.951569 0.879730 0.306061
0.979065 0.873169 0.318573
0.999207 0.863556 0.335052
1.000000 0.854095 0.351074
1.000000 0.844757 0.366730
1.000000 0.835754 0.382050
1.000000 0.827057 0.396942
1.000000 0.818695 0.411499
0.289093 0.920990 0.288055
0.297150 0.920837 0.288361
0.306000 0.920746 0.288635
0.318329 0.920563 0.289124
0.334167 0.920319 0.289642
0.353027 0.920074 0.290436
0.374725 0.919708 0.291382
0.398682 0.919281 0.292389
0.424713 0.918762 0.293579
0.452454 0.918182 0.295105
0.481445 0.917542 0.296661
0.511536 0.916809 0.298523
0.542542 0.915955 0.300659
0.574188 0.915100 0.302887
0.606323 0.914124 0.305389
0.638855 0.913055 0.308105
0.671753 0.911957 0.311066
0.704742 0.910706 0.314148
0.737762 0.909393 0.317596
0.770935 0.907990 0.321106
0.803986 0.906555 0.325043
0.836945 0.905029 0.329041
0.869659 0.903351 0.333405
0.902313 0.901642 0.337921
0.934479 0.899902 0.342621
0.966553 0.898071 0.347565
0.993073 0.892090 0.358063
1.000000 0.882263 0.373779
1.000000 0.872650 0.388824
1.000000 0.863251 0.403687
1.000000 0.854126 0.417847
1.000000 0.845459 0.431854
0.328461 0.938477 0.327637
0.334869 0.938354 0.327820
0.342133 0.938232 0.328094
0.352325 0.938080 0.328552
0.365387 0.937897 0.329010
0.381348 0.937592 0.329681
0.399872 0.937225 0.330536
0.420685 0.936829 0.331573
0.443573 0.936310 0.332642
0.468201 0.935760 0.333984
0.494202 0.935120 0.335510
0.521606 0.934357 0.337280
0.549866 0.933594 0.339172
0.579010 0.932678 0.341309
0.608795 0.931763 0.343567
0.639038 0.930695 0.346161
0.669800 0.929565 0.348846
0.700745 0.928345 0.351776
0.731812 0.927063 0.354919
0.763062 0.925720 0.358276
0.794373 0.924286 0.361816
0.825592 0.922760 0.365662
0.856720 0.921204 0.369690
0.887787 0.919525 0.373962
0.918457 0.917786 0.378387
0.949066 0.915985 0.383118
0.979340 0.914124 0.387787
0.999878 0.908875 0.396820
1.000000 0.898956 0.411285
1.000000 0.889252 0.425354
1.000000 0.879822 0.438812
1.000000 0.870850 0.451996
0.367126 0.953918 0.366241
0.372223 0.953827 0.366455
0.378204 0.953674 0.366669
0.386566 0.953552 0.367065
0.397461 0.953308 0.367523
0.411011 0.953033 0.368225
0.426758 0.952698 0.368988
0.444672 0.952301 0.369812
0.464691 0.951782 0.371002
0.486389 0.951263 0.372314
0.509521 0.950653 0.373688
0.534088 0.949921 0.375275
0.559723 0.949158 0.377136
0.586182 0.948303 0.379028
0.613464 0.947357 0.381134
0.641418 0.946350 0.383514
0.669891 0.945251 0.386139
0.698700 0.944122 0.388824
0.727722 0.942871 0.391724
0.756989 0.941528 0.394836
0.786377 0.940155 0.398102
0.815826 0.938690 0.401733
0.845184 0.937134 0.405457
0.874603 0.935516 0.409271
0.903687 0.933838 0.413116
0.932800 0.932068 0.417480
0.961548 0.930328 0.421814
0.989990 0.928467 0.426331
1.000000 0.923950 0.433624
1.000000 0.914001 0.446869
1.000000 0.904297 0.459534
1.000000 0.894958 0.471985
0.404480 0.967316 0.403778
0.408752 0.967224 0.403900
0.413635 0.967133 0.404144
0.420654 0.966949 0.404510
0.429779 0.966766 0.404999
0.441010 0.966492 0.405396
0.454498 0.966125 0.406189
0.470032 0.965759 0.407074
0.487213 0.965271 0.407990
0.506256 0.964752 0.409210
0.526703 0.964142 0.410461
0.548523 0.963501 0.411896
0.571503 0.962738 0.413574
0.595459 0.961914 0.415375
0.620239 0.961029 0.417236
0.645752 0.960022 0.419342
0.671997 0.959015 0.421753
0.698547 0.957886 0.424072
0.725433 0.956665 0.426758
0.752686 0.955414 0.429474
0.780182 0.954071 0.432556
0.807678 0.952667 0.435577
0.835297 0.951172 0.438934
0.862976 0.949615 0.442413
0.890411 0.948029 0.446045
0.917938 0.946320 0.449799
0.945221 0.944611 0.453796
0.972290 0.942780 0.457581
0.998566 0.940948 0.461884
1.000000 0.937317 0.467987
1.000000 0.927429 0.480286
1.000000 0.917755 0.491852
0.439667 0.978912 0.439056
0.443146 0.978851 0.439209
0.447266 0.978729 0.439392
0.453125 0.978577 0.439697
0.460846 0.978394 0.440063
0.470367 0.978149 0.440521
0.481812 0.977844 0.441101
0.495209 0.977478 0.442047
0.510132 0.977020 0.442749
0.526703 0.976501 0.443817
0.544708 0.975952 0.445068
0.564117 0.975281 0.446289
0.584534 0.974609 0.447784
0.606140 0.973816 0.449402
0.628510 0.972961 0.451111
0.651703 0.972015 0.452972
0.675659 0.971008 0.455109
0.700043 0.969910 0.457153
