PS/3DLUTs/immer-vieler.3dl
#Created by: Generate3DLut
#Generator: Copyright 2012 by Linus Hechinger
0 128 256 384 512 639 767 895 1023
0  0  0
0  0  496
0  0  976
0  0  1471
0  0  1967
0  0  2463
0  0  2943
0  0  3439
0  0  3934
0  0  16
0  0  496
0  0  976
0  6  1471
0  12  1967
0  18  2463
0  30  2943
0  52  3439
0  48  3934
0  478  32
0  478  496
0  478  976
0  494  1471
0  550  1967
0  566  2463
0  586  2943
0  622  3439
0  578  3934
0  1074  48
0  1088  528
0  1088  992
0  1088  1471
0  1104  1967
0  1122  2463
0  1154  2943
0  1154  3439
0  1188  3934
0  1694  80
0  1702  544
0  1710  1024
0  1710  1485
0  1718  1951
0  1742  2447
0  1774  2927
0  1783  3439
0  1783  3934
0  2333  96
0  2347  544
0  2349  1024
0  2363  1487
0  2365  1967
0  2333  2447
0  2379  2927
0  2441  3439
0  2345  3934
0  2983  112
0  2987  560
0  2999  1040
0  3003  1504
0  3015  1983
0  3015  2447
0  2999  2927
0  3015  3439
0  3019  3934
0  3635  128
0  3635  592
0  3635  1072
0  3635  1504
0  3635  1983
0  3635  2479
0  3635  2927
0  3593  3439
0  3565  3934
0  4095  161
0  4095  594
0  4095  1028
0  4095  1526
0  4095  1991
0  4095  2409
0  4095  2923
0  4095  3388
0  4095  3934
84  0  64
143  0  496
143  0  976
175  0  1471
191  0  1967
207  0  2463
229  0  2943
261  0  3439
257  0  3934
143  0  16
159  0  512
175  6  1008
191  12  1487
207  18  1983
245  36  2479
261  52  2959
283  68  3455
305  80  3950
143  478  32
175  522  528
175  522  1008
191  550  1487
213  570  1983
251  586  2479
267  622  2959
299  634  3455
305  594  3950
181  1088  48
207  1104  544
207  1104  1024
207  1106  1487
223  1136  1983
267  1184  2479
283  1202  2955
315  1218  3455
321  1269  3950
207  1702  80
229  1726  554
229  1734  1024
229  1734  1487
229  1742  1967
273  1783  2463
289  1807  2943
321  1823  3455
337  1815  3950
229  2347  96
273  2379  576
273  2379  1040
283  2395  1520
283  2395  1983
289  2411  2463
305  2411  2943
337  2475  3455
353  2425  3950
273  2987  112
305  3031  592
305  3043  1072
305  3043  1536
305  3043  1999
305  3043  2463
305  2999  2943
337  3043  3455
353  3067  3950
305  3635  128
337  3651  608
337  3651  1072
337  3651  1536
337  3651  2015
337  3651  2495
337  3651  2943
337  3635  3455
353  3581  3950
305  4095  161
353  4095  610
353  4095  1044
353  4095  1574
353  4095  2007
353  4095  2457
353  4095  2955
353  4095  3404
353  4095  3950
558  0  112
618  0  480
666  0  976
682  0  1471
731  0  1967
751  0  2463
767  0  2943
823  0  3439
771  0  3934
618  0  80
650  30  576
703  6  1008
719  12  1487
747  18  1983
767  36  2479
823  52  2959
823  68  3455
787  80  3950
678  490  32
731  538  528
747  554  1024
767  570  1504
795  586  1999
811  602  2495
871  662  2991
903  682  3471
835  626  3967
727  1090  48
779  1120  544
795  1138  1040
811  1138  1502
827  1154  1991
843  1200  2479
915  1235  2975
935  1267  3471
867  1269  3967
795  1726  80
827  1742  544
843  1783  1040
855  1791  1504
859  1791  1983
875  1815  2479
947  1855  2975
964  1879  3471
899  1879  3967
843  2379  96
871  2395  576
891  2441  1056
891  2441  1520
903  2457  1999
903  2457  2479
968  2477  2975
984  2507  3471
915  2409  3967
891  3015  112
951  3043  592
968  3091  1088
968  3091  1552
968  3091  2031
968  3091  2495
968  3091  2975
984  3075  3471
915  3099  3967
951  3635  128
951  3651  608
984  3667  1104
984  3667  1568
984  3667  2048
984  3667  2511
984  3667  2959
984  3635  3471
915  3597  3967
883  4095  161
899  4095  610
915  4095  1060
915  4095  1574
915  4095  2023
915  4095  2441
915  4095  2987
915  4095  3421
915  4095  3967
1054  0  193
1072  0  560
1198  0  976
1247  0  1471
1265  0  1967
1295  0  2463
1315  0  2943
1329  0  3439
1365  0  3934
1072  18  161
1138  84  640
1170  36  1024
1263  12  1487
1281  18  1983
1331  36  2479
1363  52  2959
1365  68  3455
1429  80  3950
1216  494  80
1202  554  592
1265  634  1088
1329  582  1504
1349  598  1999
1379  618  2495
1429  678  2987
1459  695  3471
1477  626  3967
1315  1106  48
1345  1122  538
1363  1154  1024
1413  1200  1520
1445  1220  2015
1477  1251  2495
1508  1281  2991
1570  1315  3503
1590  1349  3983
1379  1742  80
1409  1766  544
1429  1799  1040
1493  1847  1536
1508  1847  2015
1526  1855  2495
1558  1895  2991
1618  1935  3503
1638  1927  3983
1443  2397  96
1493  2427  576
1493  2457  1056
1556  2477  1552
1556  2477  2015
1556  2477  2495
1572  2507  2991
1618  2539  3503
1638  2473  3983
1491  3015  112
1540  3043  592
1556  3091  1088
1572  3107  1568
1572  3107  2048
1572  3107  2511
1572  3107  2991
1618  3119  3503
1638  3115  3983
1491  3635  128
1540  3651  608
1572  3667  1104
1618  3712  1600
1618  3712  2064
1618  3712  2543
1618  3712  3007
1618  3712  3503
1638  3661  3983
1526  4095  161
1590  4095  610
1590  4095  1060
1638  4095  1606
1638  4095  2056
1638  4095  2489
1638  4095  3003
1638  4095  3453
1638  4095  3983
1574  0  257
1582  0  640
1710  0  1024
1831  0  1487
1847  0  1967
1879  0  2463
1903  0  2943
1911  0  3439
1927  0  3934
1582  84  257
1686  165  705
1702  132  1072
1839  30  1487
1863  18  1983
1895  36  2479
1935  52  2959
1975  68  3455
1959  80  3950
1734  554  177
1750  614  672
1831  727  1140
1895  650  1502
1959  602  1991
1983  618  2479
2056  678  2975
2072  695  3471
2039  642  3967
1943  1136  80
1951  1138  560
1951  1156  1072
2015  1297  1584
2088  1235  2015
2104  1253  2495
2152  1297  2991
2184  1329  3503
2200  1349  3983
2015  1758  80
2039  1783  544
2072  1823  1040
2144  1863  1536
2168  1879  2031
2192  1903  2527
2208  1935  3007
2240  1959  3519
2232  1943  4015
2088  2413  96
2112  2429  576
2136  2459  1056
2160  2477  1552
2192  2523  2048
2192  2523  2527
2208  2539  3007
2240  2557  3519
2232  2521  4015
2112  3015  112
2136  3043  592
2176  3091  1088
2192  3107  1568
2208  3119  2064
2208  3119  2543
2208  3119  3007
2240  3135  3519
2232  3164  4015
2112  3635  128
2160  3651  608
2192  3667  1104
2208  3712  1600
2240  3738  2080
2240  3738  2559
2240  3738  3023
2240  3738  3519
2232  3694  4015
2120  4095  161
2136  4095  610
2152  4095  1060
2216  4095  1606
2232  4095  2072
2232  4095  2521
2232  4095  3035
2232  4095  3485
2232  4095  4015
2140  0  321
2154  0  705
2236  0  1072
2379  0  1471
2459  0  1983
2475  0  2431
2491  0  2943
2541  0  3439
2473  0  3934
2170  165  321
2248  251  769
2264  251  1152
2409  132  1536
2507  36  1999
2507  36  2479
2537  58  2955
2587  74  3455
2537  80  3950
2280  618  257
2312  727  763
2411  811  1200
2445  747  1536
2587  650  1983
2620  634  2479
2652  695  2975
2684  711  3471
2602  642  3967
2521  1152  161
2493  1186  656
2523  1237  1152
2602  1375  1632
2664  1313  1999
2746  1269  2495
2778  1299  2991
2844  1345  3503
2762  1365  3983
2680  1791  96
2730  1831  576
2732  1839  1072
2700  1871  1600
2750  1975  2096
2798  1903  2527
2844  1935  3007
2860  1959  3519
2794  1943  4015
2668  2413  96
2734  2429  576
2750  2459  1056
2766  2477  1552
2798  2523  2048
2844  2539  2543
2860  2557  3023
2877  2573  3535
2810  2537  4031
2700  3015  112
2734  3043  592
2766  3091  1088
2782  3107  1568
2844  3119  2064
2860  3135  2559
2860  3135  3023
2877  3168  3535
2810  3180  4031
2750  3635  128
2766  3651  608
2782  3667  1104
2844  3712  1600
2860  3738  2080
2877  3754  2575
2877  3754  3039
2877  3754  3535
2810  3726  4031
2666  4095  161
2714  4095  610
2698  4095  1060
2762  4095  1606
2794  4095  2072
2810  4095  2537
2810  4095  3051
2810  4095  3517
2810  4095  4031
2658  0  385
2658  0  753
2742  0  1136
2895  0  1520
2999  0  1975
3091  0  2447
3107  0  2911
3123  0  3439
3131  0  3934
2694  229  385
2810  331  827
2814  331  1216
2919  267  1568
3003  149  1967
3115  58  2463
3131  58  2911
3148  74  3455
3180  80  3950
2814  711  337
2879  839  817
3015  923  1281
3031  907  1632
3131  783  2015
3264  695  2495
3280  695  2975
3276  723  3471
3340  658  3967
3047  1202  257
3079  1297  753
3107  1377  1265
3208  1475  1712
3224  1443  2080
3348  1345  2495
3384  1313  2991
3417  1345  3503
3404  1365  3983
3224  1791  161
3224  1807  656
3240  1887  1184
3224  1959  1680
3296  2056  2160
3332  1991  2543
3417  1935  3007
3433  1959  3519
3453  1943  4015
3316  2413  112
3332  2429  592
3348  2459  1088
3348  2477  1600
3332  2539  2112
3368  2622  2608
3433  2557  3023
3449  2573  3535
3469  2537  4031
3296  3015  112
3296  3043  592
3368  3091  1088
3384  3107  1568
3417  3119  2064
3433  3135  2559
3477  3184  3055
3493  3204  3567
3501  3180  4047
3316  3635  128
3332  3651  608
3348  3667  1104
3417  3712  1600
3433  3738  2080
3449  3754  2575
3493  3796  3071
3493  3796  3567
3501  3742  4047
3308  4095  161
3340  4095  610
3388  4095  1060
3404  4095  1606
3453  4095  2072
3469  4095  2537
3501  4095  3067
3501  4095  3533
3501  4095  4047
3250  0  450
3256  0  833
3288  0  1188
3443  0  1536
3577  0  1967
3738  0  2463
3770  0  2927
3786  0  3406
3742  0  3934
3314  331  434
3421  428  881
3427  428  1249
3527  367  1600
3635  239  2015
3736  116  2479
3806  74  2943
3822  74  3439
3774  80  3950
3404  827  418
3491  887  881
3623  1000  1329
3639  1000  1696
3738  919  2080
3838  795  2479
3950  727  2959
3967  727  3439
3918  658  3967
3655  1253  321
3645  1345  833
3683  1459  1329
3776  1570  1777
3776  1570  2160
3908  1459  2543
4037  1345  3007
4037  1345  3503
3967  1365  3983
3776  1807  241
3776  1871  753
3776  1959  1265
3776  2056  1777
3860  2136  2224
3876  2096  2591
4037  1975  3007
4053  1959  3519
3999  1943  4015
3908  2429  161
3876  2429  656
3876  2459  1168
3876  2539  1696
3876  2591  2192
3946  2700  2672
4001  2622  3023
4059  2573  3535
4031  2537  4031
3946  3015  128
3963  3043  608
3979  3075  1104
4037  3119  1600
4037  3119  2096
4001  3135  2608
4053  3252  3123
4071  3204  3567
4079  3180  4047
3908  3635  128
3946  3651  608
3946  3667  1104
4037  3712  1600
4053  3738  2080
4059  3754  2575
4071  3796  3071
4089  3812  3583
4095  3774  4063
3886  4095  161
3902  4095  610
3918  4095  1060
3967  4095  1606
3999  4095  2072
4031  4095  2537
4079  4095  3067
4095  4095  3549
4095  4095  4063
3822  0  514
3838  0  867
3854  0  1220
3902  0  1590
3967  0  1991
3999  0  2393
4047  0  2923
4047  0  3388
4063  0  3902
3918  401  514
3967  498  931
3983  498  1269
3999  450  1686
4015  353  2023
4015  225  2425
4047  112  2939
4063  80  3404
4063  80  3918
4015  851  514
4047  931  931
4079  1028  1349
4095  1028  1750
4095  947  2088
4095  851  2457
4095  707  2955
4095  658  3421
4095  658  3950
4095  1365  434
4095  1461  915
4095  1542  1349
4095  1638  1831
4095  1638  2200
4095  1558  2521
4095  1429  2971
4095  1365  3453
4095  1365  3950
4095  1831  337
4095  1895  819
4095  1975  1301
4095  2104  1831
4095  2184  2264
4095  2184  2618
4095  2039  3019
4095  1943  3485
4095  1943  4015
4095  2345  273
4095  2409  739
4095  2409  1204
4095  2521  1783
4095  2634  2264
4095  2714  2682
4095  2682  3083
4095  2553  3501
4095  2537  4031
4095  3019  161
4095  3051  642
4095  3083  1108
4095  3083  1670
4095  3164  2168
4095  3196  2650
4095  3308  3164
4095  3244  3533
4095  3180  4047
4095  3565  161
4095  3581  610
4095  3597  1060
4095  3661  1606
4095  3677  2072
4095  3710  2569
4095  3742  3115
4095  3838  3597
4095  3774  4063
4095  4095  161
4095  4095  610
4095  4095  1060
4095  4095  1606
4095  4095  2072
4095  4095  2537
4095  4095  3067
4095  4095  3549
4095  4095  4095
