PS/3DLUTs/immer-vieler.3dl
#Created by: Generate3DLut
#Generator: Copyright 2012 by Linus Hechinger
0 64 128 192 256 320 384 448 512 575 639 703 767 831 895 959 1023
0  0  0
0  0  240
0  0  496
0  0  736
0  0  976
0  0  1232
0  0  1471
0  0  1711
0  0  1967
0  0  2207
0  0  2463
0  0  2703
0  0  2943
0  0  3199
0  0  3439
0  0  3695
0  0  3934
0  0  0
0  0  240
0  0  496
0  0  736
0  0  976
0  0  1232
0  0  1471
0  0  1711
0  0  1967
0  0  2207
0  0  2463
0  0  2703
0  0  2943
0  0  3199
0  0  3439
0  0  3695
0  0  3934
0  0  16
0  0  256
0  0  496
0  0  736
0  0  976
0  0  1232
0  6  1471
0  12  1711
0  12  1967
0  18  2207
0  18  2463
0  36  2703
0  30  2943
0  36  3199
0  52  3439
0  68  3695
0  48  3934
0  199  32
0  199  272
0  199  496
0  199  736
0  199  976
0  215  1232
0  238  1471
0  238  1711
0  263  1967
0  263  2207
0  279  2463
0  311  2703
0  295  2943
0  311  3199
0  311  3439
0  350  3695
0  273  3934
0  478  32
0  478  272
0  478  496
0  478  736
0  478  976
0  494  1232
0  494  1471
0  522  1711
0  550  1967
0  550  2207
0  566  2463
0  586  2703
0  586  2943
0  602  3199
0  622  3439
0  622  3695
0  578  3934
0  781  48
0  781  288
0  796  512
0  796  752
0  797  992
0  797  1232
0  797  1471
0  813  1711
0  829  1967
0  829  2207
0  860  2463
0  877  2703
0  877  2943
0  893  3199
0  894  3439
0  925  3695
0  851  3934
0  1074  48
0  1074  288
0  1088  528
0  1088  768
0  1088  992
0  1088  1232
0  1088  1471
0  1088  1711
0  1104  1967
0  1106  2207
0  1122  2463
0  1152  2703
0  1154  2943
0  1154  3199
0  1154  3439
0  1184  3695
0  1188  3934
0  1368  64
0  1368  304
0  1379  544
0  1379  768
0  1384  1008
0  1384  1248
0  1384  1471
0  1384  1711
0  1400  1967
0  1400  2207
0  1432  2449
0  1459  2702
0  1432  2939
0  1470  3190
0  1491  3439
0  1513  3695
0  1493  3934
0  1694  80
0  1702  320
0  1702  544
0  1702  784
0  1710  1024
0  1710  1249
0  1710  1485
0  1710  1711
0  1718  1951
0  1694  2191
0  1742  2447
0  1742  2687
0  1774  2927
0  1774  3190
0  1783  3439
0  1807  3695
0  1783  3934
0  2020  80
0  2020  317
0  2020  544
0  2020  768
0  2020  1008
0  2020  1248
0  2036  1471
0  2036  1711
0  2036  1935
0  1988  2191
0  2009  2447
0  2069  2687
0  2090  2927
0  2090  3190
0  2090  3439
0  2133  3695
0  2104  3934
0  2333  96
0  2347  320
0  2347  544
0  2349  784
0  2349  1024
0  2349  1264
0  2363  1487
0  2363  1727
0  2365  1967
0  2365  2175
0  2333  2447
0  2379  2687
0  2379  2927
0  2397  3190
0  2441  3439
0  2441  3695
0  2345  3934
0  2657  112
0  2672  336
0  2672  576
0  2673  816
0  2673  1040
0  2673  1280
0  2688  1504
0  2689  1743
0  2689  1967
0  2689  2207
0  2704  2447
0  2672  2687
0  2705  2927
0  2705  3190
0  2720  3439
0  2736  3695
0  2778  3934
0  2983  112
0  2987  336
0  2987  560
0  2987  800
0  2999  1040
0  3003  1280
0  3003  1504
0  3003  1727
0  3015  1983
0  3015  2223
0  3015  2447
0  3015  2687
0  2999  2927
0  2999  3190
0  3015  3439
0  3075  3695
0  3019  3934
0  3325  128
0  3334  352
0  3334  576
0  3334  816
0  3334  1056
0  3334  1296
0  3334  1504
0  3334  1743
0  3334  1983
0  3334  2223
0  3334  2463
0  3334  2687
0  3334  2911
0  3311  3190
0  3311  3439
0  3311  3695
0  3292  3934
0  3635  128
0  3635  336
0  3635  592
0  3635  816
0  3635  1072
0  3635  1296
0  3635  1504
0  3635  1759
0  3635  1983
0  3635  2223
0  3635  2479
0  3635  2687
0  3635  2927
0  3635  3174
0  3593  3439
0  3651  3695
0  3565  3934
0  3948  145
0  3948  368
0  3948  608
0  3948  848
0  3948  1072
0  3948  1312
0  3948  1520
0  3948  1776
0  3948  1999
0  3948  2255
0  3948  2479
0  3948  2703
0  3948  2959
0  3948  3174
0  3948  3455
0  3916  3695
0  3854  3934
0  4095  161
0  4095  369
0  4095  594
0  4095  787
0  4095  1028
0  4095  1253
0  4095  1526
0  4095  1766
0  4095  1991
0  4095  2216
0  4095  2409
0  4095  2730
0  4095  2923
0  4095  3148
0  4095  3388
0  4095  3613
0  4095  3934
0  0  16
0  0  240
0  0  496
0  0  736
0  0  976
0  0  1232
0  0  1471
0  0  1711
3  0  1967
3  0  2207
6  0  2463
9  0  2703
9  0  2943
12  0  3199
9  0  3439
15  0  3695
16  0  3934
0  0  0
0  0  256
0  0  496
0  0  752
0  0  992
0  0  1232
0  0  1487
0  0  1727
3  0  1967
6  0  2223
6  0  2463
9  0  2703
12  0  2959
12  0  3199
15  0  3455
15  0  3695
16  0  3934
0  0  16
0  0  256
0  0  496
0  0  752
0  6  992
0  6  1232
0  12  1487
0  12  1727
3  18  1967
6  30  2223
6  30  2463
9  36  2703
12  52  2959
12  52  3199
15  68  3455
15  52  3695
16  48  3934
0  199  32
0  215  272
0  215  512
0  215  752
0  215  992
0  215  1232
0  263  1487
0  263  1727
3  279  1967
6  279  2223
6  295  2463
9  311  2703
12  327  2959
12  311  3199
15  327  3455
15  359  3695
16  321  3934
0  478  32
0  494  288
0  494  528
0  494  752
0  494  992
0  494  1232
0  522  1487
0  538  1727
3  550  1967
6  566  2223
6  566  2463
9  586  2703
12  622  2959
12  602  3199
15  622  3455
15  622  3695
16  578  3934
0  781  48
0  781  288
0  796  528
0  796  752
0  797  992
0  797  1232
0  813  1487
0  813  1727
3  829  1967
6  860  2223
6  860  2463
9  877  2703
12  893  2959
12  893  3199
15  925  3455
15  941  3695
16  835  3934
0  1074  48
0  1090  304
0  1104  544
0  1104  784
0  1104  1008
0  1104  1248
0  1104  1487
0  1104  1727
3  1106  1967
6  1122  2223
6  1152  2463
9  1152  2703
12  1202  2959
12  1154  3199
18  1218  3455
18  1218  3695
16  1204  3934
0  1368  64
0  1384  304
0  1395  544
0  1395  784
0  1400  1024
0  1400  1248
0  1400  1487
0  1400  1727
3  1400  1967
6  1416  2223
6  1432  2449
12  1459  2702
15  1491  2943
15  1491  3190
18  1491  3455
18  1496  3695
16  1477  3934
3  1694  80
3  1702  320
3  1702  560
3  1702  800
3  1710  1012
3  1710  1249
3  1710  1485
3  1718  1711
3  1718  1951
6  1742  2207
6  1742  2447
12  1726  2687
15  1791  2943
15  1783  3190
18  1799  3455
18  1823  3695
16  1783  3934
3  2020  80
6  2036  320
6  2036  560
6  2036  784
6  2036  1024
6  2048  1264
6  2053  1487
6  2053  1727
6  2053  1967
6  2053  2207
6  2048  2447
12  2069  2687
15  2090  2943
15  2106  3190
18  2117  3455
18  2117  3695
16  2104  3934
6  2347  96
6  2347  320
6  2347  560
6  2349  800
6  2349  1024
6  2349  1264
6  2363  1504
6  2363  1727
6  2365  1967
6  2365  2191
6  2333  2447
12  2363  2687
15  2397  2943
15  2441  3190
18  2441  3455
18  2441  3695
16  2393  3934
12  2657  112
12  2672  336
12  2673  576
12  2673  816
12  2673  1040
12  2673  1280
12  2688  1504
12  2689  1743
12  2689  1951
12  2689  2207
12  2704  2431
12  2673  2687
15  2721  2943
15  2705  3190
18  2736  3455
18  2753  3695
16  2778  3934
12  2983  112
15  3015  352
15  3015  592
15  3027  832
15  3031  1072
15  3031  1296
15  3031  1536
15  3043  1759
15  3043  1999
15  3043  2223
15  3043  2463
15  3043  2703
15  2999  2943
15  3043  3190
18  3043  3455
18  3043  3695
16  3067  3934
15  3325  128
15  3334  352
15  3334  592
15  3334  816
15  3334  1056
15  3334  1296
15  3334  1504
15  3334  1759
15  3334  1983
15  3334  2239
15  3334  2479
15  3334  2687
15  3334  2943
15  3311  3190
18  3311  3455
18  3334  3695
16  3308  3934
12  3635  128
18  3651  368
18  3651  608
18  3651  832
18  3651  1072
18  3651  1312
18  3651  1552
18  3651  1759
18  3651  1999
18  3651  2239
18  3651  2479
18  3651  2703
18  3651  2943
18  3651  3174
18  3635  3455
18  3635  3695
16  3565  3934
18  3948  145
18  3948  368
18  3948  592
18  3948  848
18  3948  1072
18  3948  1328
18  3948  1552
18  3948  1759
18  3948  2015
18  3948  2239
18  3948  2479
18  3948  2719
18  3948  2943
18  3948  3190
18  3948  3439
18  3916  3695
16  3854  3934
16  4095  161
16  4095  369
16  4095  594
16  4095  819
16  4095  1028
16  4095  1237
16  4095  1542
16  4095  1750
16  4095  1991
16  4095  2216
16  4095  2441
16  4095  2730
16  4095  2955
16  4095  3164
16  4095  3388
16  4095  3613
16  4095  3934
84  0  64
100  0  240
143  0  496
143  0  736
143  0  976
159  0  1232
175  0  1471
191  0  1711
191  0  1967
207  0  2207
207  0  2463
245  0  2703
229  0  2943
245  0  3199
261  0  3439
277  0  3695
257  0  3934
100  0  32
100  0  272
143  0  496
159  0  752
175  0  992
175  0  1232
191  0  1487
191  0  1727
207  0  1967
229  0  2223
229  0  2463
245  0  2703
261  0  2959
261  0  3199
277  0  3455
261  0  3695
257  0  3934
143  0  16
143  0  256
159  0  512
159  0  752
175  6  1008
191  12  1248
191  12  1487
207  18  1743
207  18  1983
229  30  2223
245  36  2479
245  36  2719
261  52  2959
283  68  3215
283  68  3455
299  84  3711
305  80  3950
143  199  32
159  215  272
159  215  512
159  215  752
175  238  1008
191  263  1248
191  263  1487
207  279  1743
207  279  1983
229  295  2223
251  311  2479
251  311  2719
267  336  2959
283  359  3215
293  366  3455
309  391  3711
305  353  3950
143  478  32
175  494  288
175  522  528
175  522  768
175  522  1008
191  522  1248
191  550  1487
213  566  1743
213  570  1983
235  586  2223
251  586  2479
251  602  2719
267  622  2959
299  662  3215
299  634  3455
315  662  3711
305  594  3950
159  796  48
175  796  288
197  813  544
197  813  784
197  813  1008
197  813  1248
197  813  1487
213  844  1743
213  860  1983
235  860  2223
261  877  2479
261  877  2719
283  894  2959
299  957  3215
299  940  3455
315  957  3711
321  883  3950
181  1088  48
197  1104  304
207  1104  544
207  1104  784
207  1104  1024
207  1104  1248
207  1106  1487
223  1122  1743
223  1136  1983
251  1154  2223
267  1184  2479
267  1184  2718
283  1202  2955
305  1218  3215
315  1218  3455
331  1251  3711
321  1269  3950
207  1379  64
207  1400  304
223  1416  560
223  1416  800
223  1416  1040
223  1416  1264
223  1416  1504
229  1432  1738
229  1432  1975
251  1432  2212
267  1470  2463
267  1496  2703
283  1496  2943
315  1529  3206
315  1496  3455
337  1561  3711
337  1542  3950
207  1702  80
229  1710  317
229  1726  554
229  1726  791
229  1734  1024
229  1734  1264
229  1734  1487
229  1742  1727
229  1742  1967
257  1750  2207
273  1783  2463
273  1783  2703
289  1807  2943
321  1823  3206
321  1823  3455
337  1831  3711
337  1815  3950
229  2020  80
257  2048  320
257  2048  560
257  2053  800
257  2053  1040
257  2053  1264
257  2064  1504
257  2064  1727
257  2064  1967
257  2069  2207
273  2090  2463
273  2080  2703
289  2080  2943
321  2133  3206
321  2122  3455
337  2149  3711
337  2104  3950
229  2347  96
257  2349  320
273  2379  576
273  2379  816
273  2379  1040
273  2381  1280
283  2395  1520
283  2395  1743
283  2395  1983
283  2395  2223
289  2411  2463
289  2411  2703
305  2411  2943
337  2443  3206
337  2475  3455
353  2475  3711
353  2425  3950
283  2673  112
289  2673  336
289  2704  576
289  2705  816
289  2705  1056
289  2705  1280
289  2706  1520
289  2721  1759
289  2721  1983
289  2721  2207
289  2721  2463
289  2704  2703
305  2736  2943
337  2753  3206
337  2753  3455
353  2753  3711
353  2794  3950
273  2987  112
305  3031  352
305  3031  592
305  3031  832
305  3043  1072
305  3043  1296
305  3043  1536
305  3043  1759
305  3043  1999
305  3043  2207
305  3043  2463
305  3043  2703
305  2999  2943
337  3075  3206
337  3043  3455
353  3075  3711
353  3067  3950
289  3334  128
305  3334  352
337  3357  608
337  3357  848
337  3357  1088
337  3357  1328
337  3357  1552
337  3357  1792
337  3357  2015
337  3357  2255
337  3357  2479
337  3357  2719
337  3357  2959
337  3311  3206
337  3357  3455
353  3357  3711
353  3308  3950
305  3635  128
337  3651  368
337  3651  608
337  3651  848
337  3651  1072
337  3651  1312
337  3651  1536
337  3651  1759
337  3651  2015
337  3651  2239
337  3651  2495
337  3651  2719
337  3651  2943
337  3651  3206
337  3635  3455
353  3635  3711
353  3581  3950
337  3948  145
305  3948  368
353  3968  624
353  3968  864
353  3968  1088
353  3968  1328
353  3968  1568
353  3968  1808
353  3968  2015
353  3968  2255
353  3968  2495
353  3968  2719
353  3968  2959
353  3968  3206
353  3968  3439
353  3948  3711
353  3902  3950
305  4095  161
305  4095  369
353  4095  610
353  4095  835
353  4095  1044
353  4095  1269
353  4095  1574
353  4095  1799
353  4095  2007
353  4095  2216
353  4095  2457
353  4095  2746
353  4095  2955
353  4095  3164
353  4095  3404
353  4095  3645
353  4095  3950
334  0  96
334  0  288
382  0  480
398  0  736
398  0  976
424  0  1232
440  0  1471
440  0  1711
456  0  1967
456  0  2207
472  0  2463
511  0  2703
497  0  2943
520  0  3199
527  0  3439
559  0  3695
498  0  3934
334  0  80
366  0  320
382  0  496
424  0  752
424  0  992
424  0  1232
456  0  1487
456  0  1727
472  0  1967
472  0  2223
488  0  2463
511  0  2703
536  0  2959
520  0  3199
543  0  3455
559  0  3695
