PS/3DLUTs/immer-vieler.3dl
#Created by: Generate3DLut
#Generator: Copyright 2012 by Linus Hechinger
0 256 512 767 1023
0  0  0
0  0  976
0  0  1967
0  0  2943
0  0  3934
0  478  32
0  478  976
0  550  1967
0  586  2943
0  578  3934
0  1694  80
0  1710  1024
0  1718  1951
0  1774  2927
0  1783  3934
0  2983  112
0  2999  1040
0  3015  1983
0  2999  2927
0  3019  3934
0  4095  161
0  4095  1028
0  4095  1991
0  4095  2923
0  4095  3934
558  0  112
666  0  976
731  0  1967
767  0  2943
771  0  3934
678  490  32
747  554  1024
795  586  1999
871  662  2991
835  626  3967
795  1726  80
843  1783  1040
859  1791  1983
947  1855  2975
899  1879  3967
891  3015  112
968  3091  1088
968  3091  2031
968  3091  2975
915  3099  3967
883  4095  161
915  4095  1060
915  4095  2023
915  4095  2987
915  4095  3967
1574  0  257
1710  0  1024
1847  0  1967
1903  0  2943
1927  0  3934
1734  554  177
1831  727  1140
1959  602  1991
2056  678  2975
2039  642  3967
2015  1758  80
2072  1823  1040
2168  1879  2031
2208  1935  3007
2232  1943  4015
2112  3015  112
2176  3091  1088
2208  3119  2064
2208  3119  3007
2232  3164  4015
2120  4095  161
2152  4095  1060
2232  4095  2072
2232  4095  3035
2232  4095  4015
2658  0  385
2742  0  1136
2999  0  1975
3107  0  2911
3131  0  3934
2814  711  337
3015  923  1281
3131  783  2015
3280  695  2975
3340  658  3967
3224  1791  161
3240  1887  1184
3296  2056  2160
3417  1935  3007
3453  1943  4015
3296  3015  112
3368  3091  1088
3417  3119  2064
3477  3184  3055
3501  3180  4047
3308  4095  161
3388  4095  1060
3453  4095  2072
3501  4095  3067
3501  4095  4047
3822  0  514
3854  0  1220
3967  0  1991
4047  0  2923
4063  0  3902
4015  851  514
4079  1028  1349
4095  947  2088
4095  707  2955
4095  658  3950
4095  1831  337
4095  1975  1301
4095  2184  2264
4095  2039  3019
4095  1943  4015
4095  3019  161
4095  3083  1108
4095  3164  2168
4095  3308  3164
4095  3180  4047
4095  4095  161
4095  4095  1060
4095  4095  2072
4095  4095  3067
4095  4095  4095
