PS/3DLUTs/Indesign-Preview.3dl
#Created by: Generate3DLut
#Generator: Copyright 2012 by Linus Hechinger
0 64 128 192 256 320 384 448 512 575 639 703 767 831 895 959 1023
0  0  0
0  0  0
0  0  40
0  0  788
0  0  1686
0  0  2226
0  0  3162
0  0  4029
16  0  4063
32  0  4075
64  0  4089
96  0  4050
96  0  4071
112  0  4077
241  0  4089
257  0  4092
209  0  4095
0  0  0
0  0  0
0  0  0
0  0  296
0  0  1317
0  0  1846
0  0  2830
0  0  3841
0  38  4095
16  3  4095
0  0  4095
48  0  4095
64  0  4095
112  0  4095
225  16  4095
257  13  4095
241  0  4095
0  10  0
0  0  0
0  0  0
0  0  0
0  0  695
0  0  1306
0  0  2451
0  0  3328
0  321  4007
0  281  4095
0  179  4095
16  86  4095
16  44  4095
48  26  4095
145  44  4095
209  48  4095
193  32  4095
0  179  0
0  117  0
0  63  0
0  27  0
0  0  197
0  0  710
0  0  2094
0  90  2953
0  507  3742
0  676  4095
16  546  4095
0  434  4095
32  332  4095
32  289  4095
64  227  4095
145  239  4095
193  80  4095
0  747  0
0  626  0
0  466  0
0  353  0
0  241  36
0  205  416
0  209  1433
0  345  2385
0  614  3188
0  960  3950
80  931  4095
161  827  4095
209  743  4095
241  699  4095
273  630  4095
289  598  4095
321  498  4095
0  1423  0
0  1392  0
0  1247  0
0  1180  0
0  1057  0
0  1034  95
0  923  947
0  939  1797
0  1036  2529
0  1199  3238
209  1534  4079
337  1346  4095
385  1248  4095
418  1184  4095
482  1088  4095
498  1041  4095
514  931  4095
0  2072  0
0  2039  0
0  2003  0
0  1881  0
0  1811  0
0  1752  31
0  1642  682
0  1588  1315
0  1554  1943
0  1588  2569
48  1704  3378
530  1935  4095
610  1789  4095
642  1708  4095
691  1582  4095
723  1530  4095
739  1445  4095
0  2679  0
0  2663  0
0  2605  0
0  2550  0
0  2492  0
0  2422  141
0  2342  680
0  2256  1218
0  2203  1686
0  2133  2157
32  2128  2883
466  2294  3664
723  2300  4095
755  2183  4095
819  2021  4095
851  1937  4095
867  1815  4095
48  3140  0
16  3131  0
0  3075  0
0  3019  0
0  2963  96
0  2915  325
0  2826  707
0  2746  1217
0  2690  1630
0  2626  2023
48  2561  2573
434  2569  3410
755  2674  3995
803  2577  4095
867  2385  4095
915  2272  4095
947  2023  4095
610  3652  0
546  3662  0
466  3608  0
353  3555  0
353  3479  201
418  3459  479
418  3378  889
418  3303  1299
401  3234  1646
418  3170  2013
434  3094  2481
450  3003  2944
691  3009  3561
867  3046  3996
1012  2831  4095
1044  2664  4095
1076  2505  4095
1012  4089  0
996  4095  0
964  4095  0
851  4095  43
851  4095  474
883  4089  675
851  4049  1096
835  3954  1443
819  3904  1750
819  3838  2068
819  3776  2481
803  3665  2831
819  3599  3248
851  3567  3569
1060  3503  4089
1108  3230  4095
1172  2955  4095
1060  4050  0
1044  4095  0
996  4095  6
883  4095  34
867  4095  313
931  4095  546
980  4095  964
1012  4095  1343
1028  4095  1622
1060  4095  1911
1092  4095  2298
1140  4095  2684
1156  4095  3075
1172  4095  3332
1172  4035  3780
1188  3985  4083
1237  3613  4095
1124  4071  0
1124  4095  0
1076  4095  0
980  4095  48
947  4095  249
996  4095  464
1028  4095  833
1092  4095  1203
1140  4095  1502
1188  4095  1755
1220  4095  2108
1285  4095  2458
1317  4095  2786
1333  4095  3013
1333  4095  3404
1365  4095  3731
1333  4063  4079
1172  4077  0
1172  4095  3
1124  4095  28
1028  4095  50
996  4095  197
1012  4095  339
1060  4095  767
1124  4095  1124
1172  4095  1405
1237  4095  1675
1285  4095  1999
1349  4095  2343
1397  4095  2646
1413  4095  2849
1429  4095  3184
1445  4095  3437
1413  4063  3886
1237  4089  16
1253  4095  16
1220  4095  54
1156  4095  96
1076  4095  201
1092  4095  319
1140  4095  662
1204  4095  1000
1285  4095  1333
1381  4095  1612
1445  4095  1929
1510  4095  2203
1558  4095  2473
1606  4095  2690
1654  4095  3011
1654  4095  3265
1622  4079  3485
1285  4092  0
1301  4095  13
1269  4095  16
1204  4095  73
1156  4095  201
1140  4095  289
1204  4095  610
1237  4095  903
1333  4095  1237
1445  4095  1521
1526  4095  1849
1622  4095  2122
1670  4095  2377
1734  4095  2586
1815  4095  2862
1831  4095  3075
1799  4079  3324
1317  3934  0
1333  3934  16
1301  3934  16
1253  3934  96
1204  3934  161
1188  3934  353
1204  3934  642
1269  3934  964
1365  3934  1204
1493  3934  1558
1574  3934  1766
1686  3934  2088
1766  3934  2345
1863  3934  2521
1959  3934  2810
1991  3934  2907
1959  3934  3180
13  32  0
13  32  0
13  32  18
13  32  832
13  32  1714
13  32  2244
13  32  3190
38  32  4090
83  32  4079
96  32  4090
112  32  4093
131  32  4080
139  32  4083
144  32  4086
302  32  4089
302  32  4092
257  32  4095
0  0  0
0  0  0
0  0  0
0  0  289
0  0  1329
0  0  1896
0  0  2911
0  0  3915
16  22  4095
45  0  4095
19  0  4095
77  0  4095
102  3  4095
138  0  4095
273  16  4095
273  13  4095
257  0  4095
0  10  0
0  0  0
0  0  0
0  0  0
0  0  707
0  0  1321
0  0  2485
0  0  3386
0  265  4023
0  243  4095
19  151  4095
29  74  4095
51  44  4095
64  38  4095
183  50  4095
225  48  4095
209  32  4095
0  124  0
0  72  0
0  27  0
0  0  0
0  0  209
0  0  725
0  0  2110
0  90  2991
0  477  3758
12  637  4095
50  539  4095
43  420  4095
75  332  4095
91  314  4095
120  252  4095
198  239  4095
209  80  4095
0  670  0
0  518  0
0  381  0
0  281  0
0  173  48
0  145  433
0  177  1463
0  341  2412
0  622  3212
41  943  3961
173  915  4095
234  827  4095
266  743  4095
301  699  4095
333  642  4095
349  614  4095
369  498  4095
0  1373  0
0  1327  0
0  1168  0
0  1101  0
0  992  0
0  940  96
0  876  978
0  923  1829
0  1020  2545
0  1198  3254
290  1503  4079
417  1345  4095
446  1233  4095
484  1185  4095
539  1088  4095
542  1041  4095
546  931  4095
0  2007  0
0  1989  0
0  1939  0
0  1843  0
0  1793  0
0  1700  45
0  1606  697
0  1540  1347
0  1508  1959
0  1570  2585
140  1690  3408
603  1919  4095
667  1772  4095
703  1706  4095
732  1580  4095
767  1530  4095
771  1445  4095
0  2636  0
0  2621  0
0  2567  0
0  2519  0
0  2450  0
0  2390  141
0  2304  682
0  2219  1223
0  2155  1686
0  2112  2179
123  2112  2897
548  2289  3680
777  2284  4095
799  2167  4095
879  2016  4095
895  1937  4095
915  1831  4095
138  3099  0
73  3075  0
36  3035  0
30  2987  0
39  2931  84
42  2883  326
48  2794  707
51  2714  1228
67  2658  1638
67  2594  2039
139  2537  2577
494  2561  3396
818  2666  4011
872  2569  4095
949  2377  4095
985  2272  4095
980  2023  4095
619  3615  0
568  3608  0
479  3560  0
381  3507  0
400  3464  201
446  3422  447
459  3346  889
459  3266  1294
459  3196  1654
459  3137  2008
459  3067  2481
510  2977  2931
754  2993  3577
936  3019  3996
1050  2815  4095
1085  2654  4095
1108  2489  4095
1050  4089  0
1015  4093  0
944  4093  0
857  4091  45
863  4091  478
876  4069  706
872  4013  1084
872  3920  1443
872  3872  1758
872  3806  2068
869  3744  2467
869  3633  2816
869  3567  3248
894  3521  3569
1104  3459  4095
1158  3212  4095
1204  2939  4095
1101  4050  0
1082  4095  0
1028  4095  6
937  4095  43
911  4095  329
970  4095  561
1018  4095  966
1053  4095  1343
1072  4095  1638
1104  4095  1927
1136  4095  2300
1181  4095  2700
1194  4080  3091
1213  4080  3341
1216  4020  3790
1236  3952  4086
1269  3565  4095
1178  4071  0
1159  4095  0
1092  4095  0
1015  4095  48
1002  4095  277
1047  4095  480
1063  4095  835
1133  4095  1208
1181  4095  1510
1210  4095  1778
1265  4095  2110
1326  4095  2459
1358  4095  2786
1361  4095  3029
1377  4095  3415
1393  4095  3747
1381  4063  4095
1216  4077  0
1200  4095  6
1149  4095  22
1069  4095  50
1021  4095  209
1050  4095  355
1104  4095  785
1155  4095  1135
1225  4095  1421
1300  4095  1680
1341  4095  2001
1402  4095  2359
1437  4095  2662
1456  4095  2849
1485  4095  3184
1502  4095  3453
1445  4063  3870
1275  4089  16
1272  4095  32
1237  4095  64
1172  4095  105
1108  4095  201
1111  4095  335
1172  4095  676
1230  4095  1016
1326  4095  1341
1416  4095  1628
1470  4095  1943
1535  4095  2204
1583  4095  2489
1631  4095  2699
1676  4095  3017
1676  4095  3278
1638  4079  3501
1323  4092  0
1320  4095  13
1295  4095  16
1223  4095  73
1178  4095  201
1165  4095  289
1226  4095  626
1278  4095  930
1380  4095  1253
1473  4095  1537
1557  4095  1851
1653  4095  2138
1717  4095  2381
1785  4095  2586
1846  4095  2862
1862  4095  3091
1847  4079  3324
1301  3806  0
1301  3790  16
1269  3790  16
1220  3790  112
1172  3790  193
1156  3790  418
1172  3790  739
1253  3790  1092
1333  3790  1317
1461  3790  1654
1542  3790  1863
1654  3790  2168
1750  3790  2425
1831  3790  2585
1911  3790  2875
1943  3790  2955
1943  3806  3228
10  0  0
0  0  0
0  0  18
0  0  830
0  0  1726
0  0  2215
0  0  3244
116  0  4090
185  0  4095
179  0  4095
163  0  4095
175  0  4095
169  0  4095
199  0  4095
323  0  4095
301  0  4095
241  0  4095
10  0  0
0  0  0
0  0  0
0  0  268
0  0  1341
0  0  1911
0  0  2939
0  0  3954
60  13  4095
112  0  4095
102  0  4095
167  0  4095
185  19  4095
217  3  4095
321  16  4095
305  0  4095
289  0  4095
10  10  0
0  0  0
0  0  0
0  0  0
0  0  747
0  0  1320
0  0  2499
0  0  3446
18  189  4031
40  175  4095
76  124  4095
70  42  4095
108  50  4095
130  70  4095
243  70  4095
257  42  4095
241  32  4095
10  52  0
0  0  0
0  0  0
0  0  0
0  0  249
0  0  756
0  0  2112
0  99  3029
6  445  3750
130  614  4095
147  525  4095
163  429  4095
189  348  4095
191  323  4095
221  275  4095
283  255  4095
241  96  4095
10  538  0
0  373  0
0  241  0
0  145  0
0  80  60
0  60  465
0  128  1510
0  325  2455
0  622  3236
203  951  3977
303  923  4095
335  823  4095
361  743  4095
383  699  4095
410  658  4095
426  614  4095
418  498  4095
10  1279  0
0  1199  0
0  1041  0
0  990  0
0  879  0
0  844  128
0  796  1012
0  875  1877
0  1018  2594
36  1182  3292
448  1470  4079
528  1330  4095
544  1232  4095
566  1184  4095
602  1089  4095
608  1056  4095
594  947  4095
10  1941  0
0  1923  0
0  1871  0
0  1762  0
0  1694  0
0  1620  15
0  1526  713
0  1471  1363
0  1459  2007
12  1552  2623
287  1674  3441
699  1887  4095
757  1754  4095
779  1692  4095
795  1568  4095
833  1532  4095
819  1445  4095
10  2561  0
0  2567  0
0  2525  0
0  2460  0
0  2392  0
0  2332  125
0  2251  697
0  2177  1235
6  2108  1702
40  2065  2200
253  2086  2929
662  2273  3697
853  2258  4095
881  2157  4095
939  2011  4095
962  1937  4095
964  1815  4095
227  3027  0
143  3019  0
78  2979  0
84  2931  0
114  2883  84
130  2834  310
141  2738  721
157  2666  1228
179  2610  1638
199  2545  2039
277  2489  2594
602  2529  3412
909  2642  4003
958  2537  4095
1022  2361  4095
1054  2264  4095
1028  2023  4095
670  3540  0
596  3539  0
508  3517  0
432  3443  0
470  3404  197
516  3362  447
522  3293  873
522  3202  1283
528  3143  1654
538  3084  2008
544  3014  2481
592  2934  2962
851  2961  3581
1026  2992  3998
1110  2799  4095
1148  2633  4095
1172  2489  4095
1104  4087  0
1056  4075  0
976  4087  0
913  4085  63
919  4055  486
945  4033  718
935  3952  1068
941  3890  1443
935  3826  1750
935  3746  2057
935  3698  2467
925  3587  2831
915  3533  3248
980  3489  3578
1174  3441  4095
1224  3166  4095
1237  2923  4095
1168  4050  0
1136  4095  0
1066  4095  6
998  4095  59
988  4095  345
1040  4095  577
1078  4095  982
1116  4095  1348
1148  4095  1654
1180  4095  1943
1196  4095  2331
1239  4095  2716
1249  4065  3103
1271  4050  3357
1277  3988  3816
1299  3916  4086
1317  3549  4095
1222  4071  0
1210  4095  0
1140  4095  0
1066  4095  57
1046  4095  289
1098  4095  482
1130  4095  853
1190  4095  1219
1239  4095  1518
1271  4095  1794
1325  4095  2138
1383  4095  2475
1415  4095  2802
1421  4095  3036
1421  4095  3441
1447  4095  3760
1413  4047  4095
1267  4077  0
1261  4095  16
1200  4095  28
1116  4095  59
1078  4095  221
1094  4095  370
1164  4095  801
1224  4095  1156
1295  4095  1445
1363  4095  1707
1413  4095  2017
1455  4095  2375
1510  4095  2662
1532  4095  2856
1558  4095  3200
1558  4095  3456
1493  4063  3902
1313  4089  16
1307  4095  16
1263  4095  54
1204  4095  96
1140  4095  217
1146  4095  351
1210  4095  693
1281  4095  1032
1367  4095  1365
1457  4095  1644
1518  4095  1959
1576  4095  2220
1640  4095  2505
1678  4095  2715
1714  4095  3027
1720  4095  3294
1686  4079  3517
1351  4092  0
1355  4095  13
1301  4095  16
1243  4095  73
1210  4095  205
1206  4095  305
1271  4095  642
1331  4095  963
1433  4095  1277
1528  4095  1553
1610  4095  1867
1710  4095  2154
1770  4095  2397
1835  4095  2619
1903  4095  2879
1909  4095  3107
1879  4079  3340
1269  3677  16
1285  3661  16
1253  3661  32
1188  3661  145
1156  3661  241
1156  3661  498
1156  3661  835
1253  3661  1204
1333  3661  1429
1477  3661  1750
1542  3661  1959
1638  3661  2264
1734  3661  2505
1799  3661  2666
1895  3661  2923
1911  3661  3019
1895  3677  3276
7  0  0
0  0  0
0  0  0
0  0  780
0  0  1706
0  0  2171
0  0  3204
311  0  4070
341  0  4095
334  0  4095
302  0  4095
343  0  4095
327  0  4095
354  0  4095
366  0  4095
348  0  4095
273  0  4095
7  0  0
0  0  0
0  0  0
0  0  257
0  0  1281
0  0  1853
0  0  2949
118  0  3885
266  0  4095
257  0  4095
250  3  4095
289  16  4095
339  22  4095
346  19  4095
369  16  4095
369  0  4095
