PS/3DLUTs/Indesign-Preview.3dl
#Created by: Generate3DLut
#Generator: Copyright 2012 by Linus Hechinger
0 256 512 767 1023
0  0  0
0  0  1686
16  0  4063
96  0  4071
209  0  4095
0  747  0
0  241  36
0  614  3188
209  743  4095
321  498  4095
48  3140  0
0  2963  96
0  2690  1630
755  2674  3995
947  2023  4095
1124  4071  0
947  4095  249
1140  4095  1502
1317  4095  2786
1333  4063  4079
1317  3934  0
1204  3934  161
1365  3934  1204
1766  3934  2345
1959  3934  3180
8  0  0
0  0  1726
562  0  4095
458  0  4095
353  0  4095
8  132  0
0  0  120
381  646  3244
658  799  4095
610  610  4095
309  2674  0
305  2521  12
434  2272  1678
1168  2441  4059
1188  2007  4095
1369  4071  0
1237  4095  381
1393  4095  1622
1502  4095  2959
1510  3790  4095
1220  3356  16
1108  3340  385
1413  3340  1734
1766  3340  2714
1879  3356  3388
1839  0  0
1702  0  1682
1654  0  4095
1084  0  4095
835  0  4095
1630  8  0
1429  0  466
1630  586  3396
1429  847  4095
1204  707  4095
1325  1967  0
1325  1887  24
1469  1791  1823
1919  2176  4095
1734  1911  4095
1951  4071  0
1895  4095  630
1975  4071  1742
2056  3854  3119
2104  3469  4095
1943  2553  16
1783  2505  594
1959  2505  2473
1943  2521  3180
1975  2569  3710
3296  771  0
3216  803  1658
3019  867  3846
2208  1012  3902
2023  1044  4015
3240  281  0
3152  309  1124
3123  538  3549
2353  867  4095
1959  867  4095
2967  1574  0
2939  1662  578
2971  1646  2248
2895  1895  4095
2457  1879  4095
2754  3573  0
2762  3537  562
2854  3404  1710
2947  3236  3208
2907  3148  4095
2730  4095  16
2682  4095  401
2794  4095  1429
3099  4095  2714
3356  4095  3694
4095  337  48
4095  257  1220
4079  337  3613
3260  642  4047
2714  739  4095
4095  723  0
4095  626  1060
4095  658  3212
3437  819  4095
2826  947  4095
4095  1702  32
4095  1670  899
4095  1638  2489
3999  1606  4095
3260  1750  4095
4095  3148  241
4095  3115  803
4095  2971  1911
4095  2858  3404
3774  2858  4095
3983  4095  385
3967  4095  723
3918  4095  1638
4095  4095  2794
4095  4095  3999
