PS/3DLUTs/Indesign-Preview.3dl
#Created by: Generate3DLut
#Generator: Copyright 2012 by Linus Hechinger
0 128 256 384 512 639 767 895 1023
0  0  0
0  0  40
0  0  1686
0  0  3162
16  0  4063
64  0  4089
96  0  4071
241  0  4089
209  0  4095
0  10  0
0  0  0
0  0  695
0  0  2451
0  321  4007
0  179  4095
16  44  4095
145  44  4095
193  32  4095
0  747  0
0  466  0
0  241  36
0  209  1433
0  614  3188
80  931  4095
209  743  4095
273  630  4095
321  498  4095
0  2072  0
0  2003  0
0  1811  0
0  1642  682
0  1554  1943
48  1704  3378
610  1789  4095
691  1582  4095
739  1445  4095
48  3140  0
0  3075  0
0  2963  96
0  2826  707
0  2690  1630
48  2561  2573
755  2674  3995
867  2385  4095
947  2023  4095
1012  4089  0
964  4095  0
851  4095  474
851  4049  1096
819  3904  1750
819  3776  2481
819  3599  3248
1060  3503  4089
1172  2955  4095
1124  4071  0
1076  4095  0
947  4095  249
1028  4095  833
1140  4095  1502
1220  4095  2108
1317  4095  2786
1333  4095  3404
1333  4063  4079
1237  4089  16
1220  4095  54
1076  4095  201
1140  4095  662
1285  4095  1333
1445  4095  1929
1558  4095  2473
1654  4095  3011
1622  4079  3485
1317  3934  0
1301  3934  16
1204  3934  161
1204  3934  642
1365  3934  1204
1574  3934  1766
1766  3934  2345
1959  3934  2810
1959  3934  3180
10  0  0
0  0  18
0  0  1726
0  0  3244
185  0  4095
163  0  4095
169  0  4095
323  0  4095
241  0  4095
10  10  0
0  0  0
0  0  747
0  0  2499
18  189  4031
76  124  4095
108  50  4095
243  70  4095
241  32  4095
10  538  0
0  241  0
0  80  60
0  128  1510
0  622  3236
303  923  4095
361  743  4095
410  658  4095
418  498  4095
10  1941  0
0  1871  0
0  1694  0
0  1526  713
0  1459  2007
287  1674  3441
757  1754  4095
795  1568  4095
819  1445  4095
227  3027  0
78  2979  0
114  2883  84
141  2738  721
179  2610  1638
277  2489  2594
909  2642  4003
1022  2361  4095
1028  2023  4095
1104  4087  0
976  4087  0
919  4055  486
935  3952  1068
935  3826  1750
935  3698  2467
915  3533  3248
1174  3441  4095
1237  2923  4095
1222  4071  0
1140  4095  0
1046  4095  289
1130  4095  853
1239  4095  1518
1325  4095  2138
1415  4095  2802
1421  4095  3441
1413  4047  4095
1313  4089  16
1263  4095  54
1140  4095  217
1210  4095  693
1367  4095  1365
1518  4095  1959
1640  4095  2505
1714  4095  3027
1686  4079  3517
1269  3677  16
1253  3661  32
1156  3661  241
1156  3661  835
1333  3661  1429
1542  3661  1959
1734  3661  2505
1895  3661  2923
1895  3677  3276
8  0  0
0  0  30
0  0  1726
60  0  3202
562  0  4095
498  0  4095
458  0  4095
454  0  4095
353  0  4095
8  10  0
0  0  0
0  0  947
0  0  2507
490  130  4031
418  116  4095
389  64  4095
410  58  4095
401  48  4095
8  132  0
0  8  0
0  0  120
0  60  1534
381  646  3244
687  915  4095
658  799  4095
658  715  4095
610  610  4095
8  1680  0
0  1580  0
0  1437  0
0  1283  745
229  1331  2112
751  1622  3537
1008  1678  4095
1024  1534  4095
980  1429  4095
309  2674  0
185  2626  0
305  2521  12
349  2393  697
434  2272  1678
662  2232  2826
1168  2441  4059
1220  2200  4095
1188  2007  4095
1281  4057  0
1124  3952  0
1084  3888  446
1096  3788  1020
1104  3645  1710
1112  3519  2453
1144  3358  3300
1377  3266  4095
1413  2842  4095
1369  4071  0
1265  4095  0
1237  4095  381
1305  4095  964
1393  4095  1622
1473  4095  2238
1502  4095  2959
1522  4095  3629
1510  3790  4095
1449  4089  0
1361  4095  22
1293  4095  245
1369  4095  757
1538  4095  1413
1670  4095  2009
1811  4095  2573
1863  4095  3075
1815  4079  3597
1220  3356  16
1204  3340  32
1108  3340  385
1156  3340  1076
1413  3340  1734
1574  3340  2184
1766  3340  2714
1847  3340  3067
1879  3356  3388
996  0  0
901  0  0
532  0  1770
682  0  3196
1116  0  4095
879  0  4095
693  0  4095
612  0  4095
610  0  4095
831  10  0
672  0  0
530  0  1060
612  0  2660
1102  124  4063
907  143  4095
745  88  4095
682  72  4095
674  64  4095
765  8  0
514  0  0
468  0  289
546  0  1736
956  606  3364
1150  863  4095
990  803  4095
925  747  4095
867  610  4095
616  1102  0
466  962  0
470  897  0
564  879  945
791  1072  2320
1222  1469  3665
1283  1528  4095
1249  1431  4095
1204  1317  4095
658  2361  0
598  2304  0
711  2240  24
803  2128  731
869  2031  1718
1078  2096  2871
1504  2329  4083
1473  2152  4095
1429  1943  4095
1241  3629  0
1102  3597  0
1138  3537  333
1198  3453  897
1224  3312  1654
1271  3200  2437
1441  3125  3465
1648  3061  4095
1654  2666  4095
1610  4071  0
1544  4095  12
1502  4095  482
1582  4095  1046
1632  4095  1686
1694  4095  2312
1726  4091  3043
1758  4011  3720
1799  3661  4095
1642  4089  0
1560  4095  22
1516  4095  317
1610  4095  871
1744  4095  1526
1843  4095  2104
2001  4095  2698
2017  4095  3178
2023  4079  3677
1542  2939  0
1477  2907  16
1317  2907  514
1397  2907  1381
1654  2907  2136
1702  2907  2505
1815  2907  2971
1847  2907  3244
1911  2955  3581
1839  0  0
1791  0  0
1702  0  1682
1526  0  3242
1654  0  4095
1317  0  4095
1084  0  4095
964  0  4095
835  0  4095
1742  10  0
1614  0  0
1566  0  1132
1469  0  2684
1734  181  4063
1421  201  4095
1180  211  4095
1068  185  4095
996  177  4095
1630  8  0
1485  0  0
1429  0  466
1405  0  1869
1630  586  3396
1678  875  4095
1429  847  4095
1293  811  4095
1204  707  4095
1526  717  0
1373  721  0
1341  737  72
1365  769  1106
1493  976  2433
1815  1421  3792
1718  1463  4095
1606  1415  4095
1461  1317  4095
1325  1967  0
1301  1935  0
1325  1887  24
1397  1831  793
1469  1791  1823
1670  1959  3029
1919  2176  4095
1831  2080  4095
1734  1911  4095
1542  3280  0
1493  3248  0
1550  3202  269
1614  3119  861
1662  3025  1670
1710  2915  2471
1911  2935  3565
2023  2875  4095
1959  2585  4095
1951  4071  0
1887  4095  72
1895  4095  630
1943  4095  1142
1975  4071  1742
2015  3983  2393
2056  3854  3119
2088  3742  3830
2104  3469  4095
1935  4089  0
1855  4095  22
1831  4095  430
1919  4095  998
2048  4095  1598
2152  4095  2184
2272  4095  2778
2337  4095  3280
2248  4079  3838
1943  2553  16
1863  2505  32
1783  2505  594
1799  2505  1718
1959  2505  2473
1911  2521  2794
1943  2521  3180
1959  2521  3453
1975  2569  3710
2652  1220  0
2616  1253  36
2555  1253  1506
2419  1253  2479
2282  1269  3694
1857  1333  4015
1542  1333  3770
1407  1365  3981
1783  1317  3918
2604  10  0
2507  0  0
2489  0  1220
2407  0  2670
2387  219  4055
1971  307  4095
1662  349  4095
1502  339  4095
1349  337  4095
2475  8  0
2365  12  0
2331  24  751
2314  40  1945
2375  566  3437
2228  867  4095
1873  883  4095
1710  867  4095
1558  803  4095
2333  626  0
2238  636  0
2204  697  333
2218  743  1389
2250  869  2602
2459  1327  3884
2184  1373  4095
1989  1343  4095
1766  1301  4095
2206  1598  0
2156  1622  0
2136  1646  161
2154  1654  970
2200  1670  1991
2329  1831  3140
2413  2031  4095
2254  2023  4095
2056  1911  4095
2058  2832  0
2070  2830  0
2102  2802  221
2136  2752  831
2214  2692  1694
2278  2646  2571
2463  2752  3758
2461  2718  4095
2280  2441  4095
2353  4003  0
2339  4015  159
2365  3979  691
2381  3862  1176
2383  3762  1758
2415  3645  2407
2445  3517  3135
2527  3485  3926
2473  3276  4095
2306  4089  0
2256  4095  82
2268  4095  558
2335  4095  1080
2413  4095  1654
2511  4095  2248
2606  4095  2858
2654  4095  3392
2569  4079  3983
2248  4095  16
2152  4095  48
2120  4095  209
2264  4095  819
2361  4095  1285
2569  4095  1879
2794  4095  2602
2939  4095  3067
3019  4095  3533
3296  771  0
3248  803  251
3216  803  1658
3196  803  2638
3019  867  3846
2565  980  4045
2208  1012  3902
2039  1044  4035
2023  1044  4015
3336  10  0
3288  0  134
3268  0  1421
3240  0  2642
3135  279  4023
2618  414  4095
2184  488  4095
1943  510  4095
1815  514  4095
3240  281  0
3184  305  60
3152  309  1124
3140  293  2136
3123  538  3549
2834  791  4095
2353  867  4095
2132  883  4095
1959  867  4095
3095  881  0
3063  915  0
3047  947  783
3047  945  1660
3047  945  2778
3119  1279  4045
2634  1355  4095
2381  1371  4095
2216  1365  4095
2967  1574  0
2947  1582  0
2939  1662  578
2939  1646  1277
2971  1646  2248
3003  1710  3314
2895  1895  4095
2634  1927  4095
2457  1879  4095
2838  2365  0
2834  2381  0
2822  2411  373
2854  2411  1036
2887  2383  1887
2923  2379  2770
3035  2509  3846
2858  2497  4095
2682  2409  4095
2754  3573  0
2754  3581  34
2762  3537  562
2818  3477  1094
2854  3404  1710
2887  3324  2405
2947  3236  3208
3027  3240  4033
2907  3148  4095
2782  4089  32
2770  4095  239
2778  4095  727
2818  4095  1158
2854  4095  1718
2903  4089  2296
2971  4043  2943
3007  3997  3571
3019  3902  4095
2730  4095  16
2698  4095  145
2682  4095  401
2746  4095  947
2794  4095  1429
2891  4095  1959
3099  4095  2714
3260  4095  3244
3356  4095  3694
4041  514  16
4029  498  638
4017  498  1863
4011  498  2836
3720  626  3934
3144  755  4065
2616  835  3975
2377  883  4059
2312  851  4063
4059  325  0
4033  267  566
4027  257  1726
4005  273  2802
3894  341  4031
3234  474  4095
2696  564  4095
2423  628  4095
2216  610  4095
3969  723  0
3946  719  444
3940  707  1477
3920  662  2443
3920  695  3669
3443  771  4095
2852  867  4095
2557  915  4095
2345  867  4095
3834  1172  0
3824  1160  293
3808  1174  1164
3834  1160  1995
3818  1126  3011
3792  1186  4083
3156  1279  4095
2812  1311  4095
2585  1333  4095
3718  1734  0
3702  1734  195
3712  1774  972
3718  1734  1654
3738  1718  2545
3754  1702  3501
3439  1783  4095
3085  1815  4095
2794  1766  4095
3589  2377  0
3583  2389  108
3589  2407  775
3615  2407  1401
3641  2377  2160
3657  2345  2985
3686  2333  3991
3326  2365  4095
3019  2280  4095
3417  3135  0
3423  3135  54
3439  3135  626
3465  3123  1148
3513  3083  1823
3545  3035  2549
3593  2971  3360
3579  2967  4095
3292  2939  4095
3364  4089  241
3364  4085  442
3374  4069  847
3417  4015  1255
3439  3961  1783
3477  3880  2347
3519  3756  3003
3551  3681  3698
3469  3565  4095
3324  4095  209
3260  4095  289
3260  4095  594
3260  4095  1060
3244  4095  1493
3324  4095  2039
3404  4095  2746
3565  4095  3356
3661  4095  3854
4095  337  48
4095  273  369
4095  257  1220
4079  273  2505
4079  337  3613
3886  498  4015
3260  642  4047
2923  707  4063
2714  739  4095
4095  466  80
4095  321  337
4095  321  1172
4095  353  2409
4095  369  3485
3999  514  4095
3308  626  4095
2971  723  4095
2714  723  4095
4095  723  0
4095  626  273
4095  626  1060
4095  642  2232
4095  658  3212
4079  691  4063
3437  819  4095
3083  915  4095
2826  947  4095
4095  1269  0
4095  1204  289
4095  1204  964
4095  1172  1927
4095  1172  2778
4095  1172  3710
3742  1237  4095
3324  1301  4095
3051  1365  4095
4095  1702  32
4095  1702  337
4095  1670  899
4095  1638  1734
4095  1638  2489
4095  1606  3292
3999  1606  4095
3533  1670  4095
3260  1750  4095
4095  2329  145
4095  2329  385
4095  2312  851
4095  2248  1558
4095  2216  2200
4095  2200  2907
4095  2152  3967
3822  2184  4095
3485  2248  4095
4095  3148  241
4095  3131  450
4095  3115  803
4095  3035  1381
4095  2971  1911
4095  2939  2553
4095  2858  3404
4095  2810  4079
3774  2858  4095
4015  3742  305
4015  3742  498
4015  3726  803
4031  3661  1317
4063  3597  1766
4095  3517  2312
4095  3437  3115
4095  3372  3758
4031  3356  4095
3983  4095  385
3967  4095  498
3967  4095  723
3918  4095  1204
3918  4095  1638
3934  4095  2088
4095  4095  2794
4047  4095  3340
4095  4095  3999
