PS/3DLUTs/Insta-XproII.3dl
#Created by: Generate3DLut
#Generator: Copyright 2012 by Linus Hechinger
0 256 512 767 1023
0  0  755
0  0  1052
0  0  1855
0  0  2802
0  0  3324
0  494  755
0  494  1052
0  494  1855
0  494  2802
0  434  3324
0  1815  755
0  1815  1052
0  1815  1855
0  1815  2802
0  1750  3324
0  3340  755
0  3340  1052
0  3340  1855
0  3340  2802
0  3324  3324
0  3870  755
0  3870  1028
0  3870  1815
0  3870  2778
0  3870  3324
0  0  755
0  0  1052
0  0  1855
0  0  2802
0  0  3324
0  494  755
0  494  1052
0  494  1855
0  494  2802
0  434  3324
0  1815  755
0  1815  1052
0  1815  1855
0  1815  2802
0  1750  3324
0  3340  755
0  3340  1052
0  3340  1855
0  3340  2802
0  3324  3324
0  3870  755
0  3870  1028
0  3870  1815
0  3870  2778
0  3870  3324
1927  0  755
1927  0  1052
1927  0  1855
1927  0  2802
1847  0  3324
1927  494  755
1927  494  1052
1927  494  1855
1927  494  2802
1847  434  3324
1927  1815  755
1927  1815  1052
1927  1815  1855
1927  1815  2802
1847  1750  3324
1927  3340  755
1927  3340  1052
1927  3340  1855
1927  3340  2802
1847  3324  3324
1847  3870  755
1847  3870  1028
1847  3870  1815
1847  3870  2778
1847  3870  3324
3248  0  755
3248  0  1052
3248  0  1855
3248  0  2802
3228  0  3324
3248  494  755
3248  494  1052
3248  494  1855
3248  494  2802
3228  434  3324
3248  1815  755
3248  1815  1052
3248  1815  1855
3248  1815  2802
3228  1750  3324
3248  3340  755
3248  3340  1052
3248  3340  1855
3248  3340  2802
3228  3324  3324
3228  3870  755
3228  3870  1028
3228  3870  1815
3228  3870  2778
3228  3870  3324
3661  0  755
3661  0  1028
3661  0  1815
3661  0  2778
3661  0  3324
3661  434  755
3661  434  1028
3661  434  1815
3661  434  2778
3661  434  3324
3661  1750  755
3661  1750  1028
3661  1750  1815
3661  1750  2778
3661  1750  3324
3661  3324  755
3661  3324  1028
3661  3324  1815
3661  3324  2778
3661  3324  3324
3661  3870  755
3661  3870  1028
3661  3870  1815
3661  3870  2778
3661  3870  3324
