PS/3DLUTs/Insta-nashville.3dl
#Created by: Generate3DLut
#Generator: Copyright 2012 by Linus Hechinger
0 256 512 767 1023
64  434  1606
64  434  2128
64  434  2481
64  434  2706
64  434  2794
64  1546  1606
64  1546  2128
64  1546  2481
64  1546  2706
64  1461  2794
64  2658  1606
64  2658  2128
64  2658  2481
64  2658  2706
64  2634  2794
64  3252  1606
64  3252  2128
64  3252  2481
64  3252  2706
64  3244  2794
64  3501  1606
64  3501  2104
64  3501  2473
64  3501  2698
64  3501  2794
1245  434  1606
1245  434  2128
1245  434  2481
1245  434  2706
1172  434  2794
1245  1546  1606
1245  1546  2128
1245  1546  2481
1245  1546  2706
1172  1461  2794
1245  2658  1606
1245  2658  2128
1245  2658  2481
1245  2658  2706
1172  2634  2794
1245  3252  1606
1245  3252  2128
1245  3252  2481
1245  3252  2706
1172  3244  2794
1172  3501  1606
1172  3501  2104
1172  3501  2473
1172  3501  2698
1172  3501  2794
2746  434  1606
2746  434  2128
2746  434  2481
2746  434  2706
2698  434  2794
2746  1546  1606
2746  1546  2128
2746  1546  2481
2746  1546  2706
2698  1461  2794
2746  2658  1606
2746  2658  2128
2746  2658  2481
2746  2658  2706
2698  2634  2794
2746  3252  1606
2746  3252  2128
2746  3252  2481
2746  3252  2706
2698  3244  2794
2698  3501  1606
2698  3501  2104
2698  3501  2473
2698  3501  2698
2698  3501  2794
3625  434  1606
3625  434  2128
3625  434  2481
3625  434  2706
3613  434  2794
3625  1546  1606
3625  1546  2128
3625  1546  2481
3625  1546  2706
3613  1461  2794
3625  2658  1606
3625  2658  2128
3625  2658  2481
3625  2658  2706
3613  2634  2794
3625  3252  1606
3625  3252  2128
3625  3252  2481
3625  3252  2706
3613  3244  2794
3613  3501  1606
3613  3501  2104
3613  3501  2473
3613  3501  2698
3613  3501  2794
3967  434  1606
3967  434  2104
3967  434  2473
3967  434  2698
3967  434  2794
3967  1461  1606
3967  1461  2104
3967  1461  2473
3967  1461  2698
3967  1461  2794
3967  2634  1606
3967  2634  2104
3967  2634  2473
3967  2634  2698
3967  2634  2794
3967  3244  1606
3967  3244  2104
3967  3244  2473
3967  3244  2698
3967  3244  2794
3967  3501  1606
3967  3501  2104
3967  3501  2473
3967  3501  2698
3967  3501  2794
