PS/3DLUTs/Insta-walden.3dl
#Created by: Generate3DLut
#Generator: Copyright 2012 by Linus Hechinger
0 128 256 384 512 639 767 895 1023
128  177  241
145  209  327
161  241  430
177  289  548
193  305  682
305  418  1226
418  530  1859
530  642  2515
658  771  3051
128  263  257
145  279  327
161  311  430
177  349  548
193  387  682
305  482  1226
418  606  1859
530  735  2515
658  835  3051
145  365  289
145  365  343
161  381  430
177  442  548
193  462  682
305  574  1226
418  699  1859
530  827  2515
658  915  3051
161  502  321
161  502  381
161  502  474
177  516  548
193  548  682
305  646  1226
418  777  1859
530  889  2515
658  1044  3051
193  642  353
193  642  436
193  642  506
193  642  568
193  642  682
305  811  1226
418  1076  1859
530  1325  2515
658  1510  3051
305  1363  466
305  1363  548
305  1363  630
305  1363  680
305  1363  859
305  1363  1241
418  1634  1859
530  1845  2515
658  1991  3051
466  2144  626
466  2144  703
466  2144  795
466  2144  841
466  2144  1116
466  2144  1514
466  2144  1903
530  2268  2515
658  2473  3051
562  2732  723
562  2732  809
562  2732  879
562  2732  956
562  2732  1309
562  2732  1702
562  2732  2092
562  2710  2537
658  2826  3051
674  3180  835
674  3180  899
674  3180  964
674  3180  1108
674  3180  1461
674  3180  1831
674  3180  2280
674  3180  2682
674  3164  3051
157  193  257
167  209  327
199  241  430
247  289  548
285  321  699
387  418  1241
526  546  1875
638  658  2531
739  771  3067
157  269  257
199  301  359
231  343  462
269  381  566
333  446  819
436  548  1387
564  676  2003
693  805  2698
787  899  3180
199  381  305
231  414  375
231  414  462
269  462  566
333  534  819
436  646  1387
564  771  2003
693  887  2698
787  980  3180
247  518  353
269  548  430
269  548  510
269  534  566
333  598  819
436  713  1387
564  827  2003
693  996  2698
787  1204  3180
285  658  385
333  787  494
333  787  570
333  787  630
333  779  819
436  988  1387
564  1253  2003
693  1534  2698
787  1686  3180
403  1379  482
452  1556  612
452  1556  695
452  1556  745
452  1556  1004
452  1556  1403
564  1797  2003
693  2052  2698
787  2168  3180
558  2148  626
606  2268  767
606  2268  843
606  2268  909
606  2268  1245
606  2268  1654
606  2268  2035
693  2457  2698
787  2618  3180
670  2748  739
719  2871  863
719  2871  939
719  2871  1056
719  2871  1453
719  2871  1863
719  2871  2272
719  2871  2714
787  2955  3180
755  3180  835
787  3260  931
787  3260  996
787  3260  1220
787  3260  1606
787  3260  1975
787  3260  2425
787  3260  2826
787  3260  3180
269  225  289
273  241  359
285  257  446
345  305  564
377  321  707
490  434  1243
614  546  1875
727  658  2531
835  787  3067
269  301  289
317  343  391
317  343  478
365  397  582
442  456  835
538  558  1403
678  687  2019
791  805  2698
883  915  3196
285  397  305
317  430  391
349  462  510
410  510  612
474  586  939
598  711  1558
727  839  2184
855  956  2822
931  1028  3276
345  534  353
365  564  446
410  596  554
410  582  612
474  648  939
598  777  1558
727  931  2184
855  1162  2822
931  1397  3276
381  666  385
438  787  494
474  939  630
474  939  664
474  939  939
598  1196  1558
727  1445  2184
855  1694  2822
931  1879  3276
518  1395  498
554  1572  612
630  1764  775
630  1764  829
630  1764  1180
630  1764  1588
727  1985  2184
855  2212  2822
931  2329  3276
662  2160  642
711  2268  767
759  2437  891
759  2437  1010
759  2437  1397
759  2437  1815
759  2437  2212
855  2594  2822
931  2762  3276
775  2758  755
823  2887  875
871  2983  988
871  2983  1202
871  2983  1582
871  2983  1993
871  2983  2393
871  2983  2832
931  3099  3276
851  3196  851
899  3276  947
947  3372  1076
947  3372  1381
947  3372  1718
947  3372  2136
947  3372  2569
947  3372  2939
947  3372  3276
387  273  337
387  273  391
403  289  490
405  305  564
442  321  707
566  434  1243
699  546  1875
825  658  2531
964  787  3067
389  349  337
424  381  430
440  397  522
456  414  598
518  462  835
630  558  1403
763  693  2019
905  821  2714
1028  915  3196
405  442  353
440  474  446
486  522  554
502  538  628
568  614  956
713  727  1574
855  855  2212
970  972  2838
1076  1044  3292
422  534  369
456  566  462
502  612  570
552  646  664
648  729  1116
777  883  1734
921  1170  2389
1048  1373  2987
1317  1638  3437
456  674  385
518  803  510
568  956  646
650  1172  767
650  1172  1124
777  1397  1734
921  1710  2389
1048  1927  2987
1317  2120  3437
584  1395  498
664  1588  644
729  1781  779
795  1969  947
795  1969  1333
795  1969  1764
921  2212  2389
1048  2423  2987
1317  2569  3437
747  2164  642
809  2284  783
889  2469  923
956  2642  1176
956  2642  1598
956  2642  2011
956  2642  2409
1048  2758  2987
1317  2939  3437
871  2758  755
937  2897  885
1002  2999  1020
1078  3160  1377
1078  3160  1774
1078  3160  2198
1078  3160  2589
1078  3160  3003
1317  3244  3437
964  3196  851
1044  3292  964
1108  3404  1092
1317  3453  1574
1317  3453  1943
1317  3453  2329
1317  3453  2762
1317  3453  3131
1317  3453  3437
554  305  369
554  305  430
554  305  510
562  321  582
578  321  707
691  434  1243
827  546  1875
996  658  2531
1204  787  3067
570  407  385
618  440  488
618  440  558
618  440  628
642  462  835
755  558  1403
947  693  2019
1228  821  2714
1413  915  3196
570  478  385
618  522  488
674  570  602
674  570  662
715  614  964
875  727  1574
1140  855  2212
1405  972  2838
1590  1044  3292
570  564  385
618  596  488
674  646  618
787  697  719
835  745  1124
1092  901  1764
1453  1206  2425
1686  1421  3045
1879  1686  3485
586  674  385
642  803  510
715  972  662
851  1188  783
1100  1413  1317
1333  1630  1957
1662  1959  2594
1919  2208  3214
2072  2361  3613
715  1395  498
795  1588  644
907  1781  791
1132  2001  980
1373  2238  1550
1373  2238  2003
1662  2453  2594
1919  2700  3214
2072  2794  3613
883  2164  642
988  2284  783
1188  2469  923
1477  2690  1222
1694  2826  1815
1694  2826  2258
1694  2826  2626
1919  2999  3214
2072  3164  3613
1044  2758  755
1261  2897  885
1437  2999  1020
1710  3214  1427
1935  3348  2031
1935  3348  2503
1935  3348  2854
1935  3348  3230
2072  3421  3613
1220  3196  851
1429  3292  964
1622  3404  1092
1863  3485  1606
2072  3645  2168
2072  3645  2569
2072  3645  3019
2072  3645  3308
2072  3645  3597
1010  385  450
1010  385  526
1010  385  602
1024  385  662
1024  385  827
1056  434  1257
1359  546  1875
1572  658  2537
1734  787  3067
1024  478  450
1249  532  590
1249  532  666
1263  532  729
1263  532  988
1279  564  1417
1538  699  2019
1779  821  2714
1879  915  3196
1024  578  450
1263  646  596
1443  711  747
1443  711  799
1443  711  1148
1459  727  1588
1714  859  2212
1913  972  2838
2088  1060  3292
1024  632  450
1263  699  596
1443  777  747
1662  873  931
1662  873  1317
1678  903  1779
1971  1208  2437
2184  1435  3051
2296  1702  3485
1024  795  450
1263  988  596
1443  1196  747
1664  1405  945
1921  1670  1542
1953  1702  2007
2214  2007  2654
2455  2264  3262
2553  2425  3661
1088  1409  498
1311  1588  644
1491  1781  795
1712  2001  980
1969  2258  1590
2198  2501  2276
2405  2698  2842
2604  2921  3388
2730  3035  3774
1407  2164  642
1570  2288  789
1762  2469  923
2003  2690  1237
2200  2854  1839
2437  3035  2501
2437  3035  2862
2602  3180  3388
2730  3404  3774
1618  2758  755
1809  2897  891
1943  2999  1020
2200  3214  1429
2439  3364  2064
2618  3487  2712
2618  3487  3043
2618  3487  3394
2730  3597  3774
1734  3196  851
1895  3292  964
2088  3404  1092
2280  3485  1606
2521  3661  2184
2714  3790  2826
2714  3790  3228
2714  3790  3501
2730  3806  3774
1807  546  594
1819  546  687
1819  546  763
1819  546  807
1819  546  1084
1823  562  1495
1823  562  1891
2007  674  2537
2200  787  3067
1823  634  594
1931  693  741
1931  693  823
1931  693  879
1931  693  1228
1943  693  1638
1947  699  2031
2184  837  2714
2361  915  3196
1811  727  594
1931  791  741
2108  843  875
2108  843  992
2108  843  1381
2108  855  1813
2120  871  2216
2320  976  2838
2489  1060  3292
1823  793  594
1931  843  741
2108  949  875
2325  1206  1188
2325  1192  1590
2325  1206  2023
2341  1222  2437
2521  1437  3051
2698  1718  3485
1823  1116  594
1931  1269  741
2108  1461  875
2325  1734  1188
2497  1951  1791
2533  1991  2262
2553  2015  2658
2750  2272  3268
2875  2425  3661
1823  1650  594
1927  1797  735
2108  2003  875
2325  2244  1188
2497  2455  1791
2690  2684  2469
2754  2748  2891
2903  2969  3437
3083  3083  3822
1867  2164  642
1979  2300  789
2156  2469  923
2373  2690  1237
2545  2854  1839
2738  3047  2519
2931  3272  3123
3043  3408  3567
3196  3533  3854
2039  2758  755
2192  2897  901
2337  2999  1020
2545  3214  1429
2730  3364  2064
2895  3503  2730
3059  3669  3268
3059  3669  3583
3196  3726  3854
2200  3196  851
2377  3292  980
2505  3404  1092
2666  3485  1606
2842  3661  2184
3051  3822  2842
3196  3886  3421
3196  3886  3661
3196  3886  3854
2399  642  691
2399  642  779
2399  642  859
2399  642  913
2399  658  1277
2399  658  1684
2399  658  2064
2415  674  2521
2537  787  3067
2405  751  707
2501  789  837
2501  789  907
2501  789  1040
2501  789  1421
2501  805  1847
2501  805  2232
2539  837  2724
2650  931  3196
2405  827  707
2507  891  847
2594  927  960
2594  927  1168
2594  939  1558
2594  943  1963
2594  943  2369
2632  988  2838
2762  1076  3308
2405  905  707
2507  996  847
2594  1158  960
2784  1389  1365
2800  1405  1791
2806  1405  2228
2806  1405  2594
2838  1451  3057
2955  1718  3485
2405  1325  707
2507  1526  847
2594  1686  960
2784  1935  1365
2953  2192  2007
2989  2224  2501
2989  2224  2842
3037  2280  3268
3148  2425  3661
2405  1847  707
2507  2037  847
2594  2184  960
2784  2437  1365
2953  2686  2007
3101  2889  2666
3140  2923  3051
3182  2969  3437
3292  3083  3822
2405  2300  707
2507  2453  847
2604  2581  960
2784  2790  1365
2963  2983  2015
3127  3184  2696
3270  3408  3256
3292  3437  3589
3324  3565  3870
2437  2758  755
2565  2897  901
2652  2999  1020
2838  3214  1429
3011  3364  2072
3156  3503  2730
3302  3692  3300
3308  3746  3696
3340  3774  3950
2537  3196  851
2666  3292  980
2778  3404  1092
2939  3485  1606
3099  3661  2184
3260  3822  2842
3340  3918  3453
3340  3950  3758
3340  3950  3950
2778  739  787
2778  739  851
2778  739  915
2778  739  1076
2778  739  1413
2778  739  1783
2778  739  2232
2778  739  2634
2810  771  3035
2794  819  803
2875  867  899
2875  867  980
2875  867  1188
2875  867  1574
2875  867  1943
2875  867  2393
2875  867  2794
2907  915  3196
2794  915  803
2875  947  899
2907  996  1012
2907  996  1333
2907  996  1670
2907  996  2088
2907  996  2521
2907  996  2907
2955  1044  3292
2794  1044  803
2875  1156  899
2907  1365  1012
2987  1622  1542
2987  1622  1927
2987  1622  2296
2987  1622  2746
3003  1638  3131
3051  1686  3485
2794  1493  803
2875  1670  899
2907  1847  1012
2987  2088  1542
3067  2296  2104
3099  2329  2537
3099  2329  2987
3131  2361  3308
3180  2409  3661
2794  1975  803
2875  2136  899
2907  2296  1012
2987  2537  1542
3067  2730  2104
3148  2939  2730
3196  2987  3196
3244  3035  3517
3292  3083  3822
2794  2473  803
2875  2585  899
2907  2730  1012
2987  2907  1542
3067  3099  2104
3180  3356  2762
3260  3501  3372
3292  3533  3645
3324  3565  3870
2794  2826  803
2891  2955  915
2923  3099  1044
3019  3260  1574
3115  3421  2152
3212  3581  2794
3292  3726  3404
3308  3758  3726
3324  3774  3950
2826  3196  851
2939  3292  964
2987  3404  1092
3051  3485  1606
3148  3661  2184
3244  3806  2826
3324  3918  3453
3324  3950  3758
3340  3983  3983
