PS/3DLUTs/Insta-brannan.3dl
#Created by: Generate3DLut
#Generator: Copyright 2012 by Linus Hechinger
0 128 256 384 512 639 767 895 1023
418  161  369
450  209  516
482  241  779
530  305  1036
610  337  1381
658  385  1875
723  450  2365
819  514  2838
915  658  3372
450  371  385
450  371  516
482  420  779
530  484  1036
610  560  1381
658  676  1875
723  753  2365
819  833  2838
915  931  3372
482  678  418
482  678  590
482  678  779
530  755  1036
610  835  1381
658  939  1875
723  1040  2365
819  1160  2838
915  1253  3372
530  974  450
530  974  650
530  974  867
530  974  1036
610  1072  1381
658  1196  1875
723  1361  2365
819  1506  2838
915  1622  3372
610  1389  482
610  1389  709
610  1389  935
610  1389  1130
610  1389  1381
658  1550  1875
723  1702  2365
819  1903  2838
915  2039  3372
658  1969  546
658  1969  779
658  1969  1000
658  1969  1214
658  1969  1518
658  1969  1875
723  2124  2365
819  2292  2838
915  2409  3372
723  2549  594
723  2549  875
723  2549  1104
723  2549  1357
723  2549  1654
723  2549  2027
723  2521  2365
819  2642  2838
915  2810  3372
819  3089  691
819  3089  933
819  3089  1184
819  3089  1473
819  3089  1815
819  3089  2126
819  3089  2465
819  3079  2838
915  3148  3372
915  3629  755
915  3629  996
915  3629  1269
915  3629  1590
915  3629  1943
915  3629  2200
915  3629  2585
915  3629  2907
915  3597  3372
644  209  385
644  209  516
703  241  779
769  305  1036
859  337  1381
939  385  1875
1024  450  2365
1080  514  2838
1172  658  3372
644  371  385
703  420  590
753  474  851
859  560  1130
939  676  1518
1004  731  1983
1096  849  2493
1196  939  2957
1285  1028  3469
703  678  418
753  731  634
753  731  851
859  835  1130
939  939  1518
1004  1024  1983
1096  1176  2493
1196  1305  2957
1285  1381  3469
769  974  450
859  1072  709
859  1072  935
859  1072  1130
939  1212  1518
1004  1331  1983
1096  1506  2493
1196  1638  2957
1285  1799  3469
859  1389  482
939  1550  779
939  1550  1000
939  1550  1231
939  1550  1518
1004  1678  1983
1096  1903  2493
1196  2056  2957
1285  2152  3469
939  1969  546
1004  2092  843
1004  2092  1076
1004  2092  1341
1004  2092  1614
1004  2092  1983
1096  2292  2493
1196  2491  2957
1285  2537  3469
1024  2549  594
1096  2670  945
1096  2670  1200
1096  2670  1473
1096  2670  1815
1096  2670  2126
1096  2670  2493
1196  2822  2957
1285  2923  3469
1080  3089  691
1196  3218  1014
1196  3218  1321
1196  3218  1588
1196  3218  1959
1196  3218  2310
1196  3218  2589
1196  3202  2957
1285  3308  3469
1172  3629  755
1285  3742  1076
1285  3742  1349
1285  3742  1734
1285  3742  2056
1285  3742  2361
1285  3742  2666
1285  3742  3003
1285  3742  3469
935  241  418
935  241  590
935  241  779
1028  305  1036
1092  337  1381
1184  385  1875
1309  450  2365
1409  514  2838
1477  658  3372
935  420  418
1000  474  634
1000  474  851
1092  560  1130
1184  676  1518
1281  731  1983
1437  849  2493
1534  939  2957
1622  1028  3469
935  678  418
1000  731  634
1080  831  931
1184  939  1231
1281  1024  1614
1409  1148  2124
1534  1305  2589
1666  1449  3047
1750  1542  3581
1028  974  450
1092  1072  709
1184  1212  1000
1184  1212  1231
1281  1331  1614
1409  1487  2124
1534  1638  2589
1666  1805  3047
1750  2007  3581
1092  1389  482
1184  1550  779
1281  1678  1076
1281  1678  1341
1281  1678  1614
1409  1879  2124
1534  2039  2589
1666  2192  3047
1750  2377  3581
1184  1969  546
1281  2092  843
1409  2264  1172
1409  2264  1457
1409  2264  1791
1409  2264  2124
1534  2461  2589
1666  2579  3047
1750  2666  3581
1309  2549  594
1437  2670  945
1534  2782  1321
1534  2782  1588
1534  2782  1951
1534  2782  2294
1534  2782  2589
1666  2947  3047
1750  3051  3581
1409  3089  691
1534  3218  1014
1666  3356  1421
1666  3356  1734
1666  3356  2088
1666  3356  2415
1666  3356  2694
1666  3356  3047
1750  3421  3581
1477  3629  755
1622  3742  1076
1750  3918  1510
1750  3918  1927
1750  3918  2168
1750  3918  2489
1750  3918  2842
1750  3918  3099
1750  3918  3581
1231  305  450
1231  305  650
1231  305  867
1231  305  1036
1343  337  1381
1437  385  1875
1600  450  2365
1716  514  2838
1863  658  3372
1231  484  450
1343  560  709
1343  560  935
1343  560  1130
1465  676  1518
1554  731  1983
1716  849  2493
1865  939  2957
2023  1028  3469
1231  755  450
1343  835  709
1465  939  1000
1465  939  1231
1554  1024  1614
1700  1148  2124
1865  1305  2589
2019  1449  3047
2184  1542  3581
1231  974  450
1343  1072  709
1465  1212  1000
1600  1361  1357
1716  1506  1815
1865  1638  2310
2035  1821  2718
2180  2003  3190
2345  2152  3742
1343  1389  482
1465  1550  779
1554  1678  1076
1716  1903  1473
1716  1903  1815
1865  2056  2310
2035  2232  2718
2180  2417  3190
2345  2553  3742
1437  1969  546
1554  2092  843
1700  2264  1172
1865  2491  1588
1865  2491  1959
1865  2491  2310
2035  2636  2718
2180  2778  3190
2345  2842  3742
1600  2549  594
1716  2670  945
1865  2782  1321
2035  2975  1752
2035  2975  2096
2035  2975  2459
2035  2975  2718
2180  3075  3190
2345  3196  3742
1716  3089  691
1865  3218  1014
2019  3356  1421
2180  3491  1921
2180  3491  2232
2180  3491  2559
2180  3491  2858
2180  3491  3190
2345  3533  3742
1863  3629  755
2023  3742  1076
2184  3918  1510
2345  3983  2056
2345  3983  2377
2345  3983  2634
2345  3983  2955
2345  3983  3292
2345  3983  3742
1622  337  482
1622  337  709
1622  337  935
1622  337  1130
1622  337  1381
1774  385  1875
1943  450  2365
2096  514  2838
2200  658  3372
1622  560  482
1774  676  779
1774  676  1000
1774  676  1231
1774  676  1518
1911  731  1983
2096  849  2493
2224  939  2957
2345  1028  3469
1622  835  482
1774  939  779
1911  1024  1076
1911  1024  1341
1911  1024  1614
2064  1148  2124
2216  1305  2589
2369  1449  3047
2505  1542  3581
1622  1072  482
1774  1212  779
1911  1331  1076
2096  1506  1473
2096  1506  1815
2224  1638  2310
2409  1821  2718
2553  2003  3190
2698  2152  3742
1622  1389  482
1774  1550  779
1911  1678  1076
2096  1903  1473
2224  2056  1959
2369  2192  2415
2553  2417  2858
2698  2561  3336
2794  2682  3886
1774  1969  546
1911  2092  843
2064  2264  1172
2224  2491  1588
2369  2579  2088
2369  2579  2415
2553  2778  2858
2698  2911  3336
2794  2987  3886
1943  2549  594
2096  2670  945
2216  2782  1321
2409  2975  1752
2553  3075  2232
2553  3075  2559
2553  3075  2858
2698  3212  3336
2794  3340  3886
2096  3089  691
2224  3218  1014
2369  3356  1421
2553  3491  1921
2698  3593  2385
2698  3593  2658
2698  3593  2955
2698  3593  3336
2794  3645  3886
2200  3629  755
2345  3742  1076
2505  3918  1510
2698  3983  2056
2794  3983  2505
2794  3983  2730
2794  3983  3035
2794  3983  3388
2794  3983  3886
2138  385  546
2138  385  779
2138  385  1000
2138  385  1214
2138  385  1518
2138  385  1875
2286  450  2365
2457  514  2838
2537  658  3372
2138  676  546
2254  731  843
2254  731  1076
2254  731  1341
2254  731  1614
2254  731  1983
2457  849  2493
2620  939  2957
2666  1028  3469
2138  939  546
2254  1024  843
2439  1148  1172
2439  1148  1457
2439  1148  1791
2439  1148  2124
2604  1305  2589
2734  1449  3047
2794  1542  3581
2138  1196  546
2254  1331  843
2439  1487  1172
2620  1638  1588
2620  1638  1959
2620  1638  2310
2764  1821  2718
2879  2003  3190
2971  2152  3742
2138  1550  546
2254  1678  843
2439  1879  1172
2620  2056  1588
2734  2192  2088
2734  2192  2415
2879  2417  2858
3021  2561  3336
3083  2682  3886
2138  1969  546
2254  2092  843
2439  2264  1172
2620  2491  1588
2734  2579  2088
2864  2736  2559
3021  2911  2955
3135  3025  3439
3196  3115  3886
2286  2549  594
2457  2670  945
2604  2782  1321
2764  2975  1752
2879  3075  2232
3021  3212  2658
3021  3212  2955
3135  3348  3439
3196  3485  3886
2457  3089  691
2620  3218  1014
2734  3356  1421
2879  3491  1921
3021  3593  2385
3135  3706  2808
3135  3706  3051
3135  3706  3439
3196  3774  3886
2537  3629  755
2666  3742  1076
2794  3918  1510
2971  3983  2056
3083  3983  2505
3196  3983  2858
3196  3983  3164
3196  3983  3501
3196  3983  3886
2662  450  594
2662  450  875
2662  450  1104
2662  450  1357
2662  450  1654
2662  450  2027
2662  450  2353
2786  514  2838
2907  658  3372
2662  753  594
2798  849  945
2798  849  1200
2798  849  1473
2798  849  1815
2798  849  2126
2798  849  2493
2923  939  2957
3035  1028  3469
2662  1040  594
2798  1176  945
2907  1305  1321
2907  1305  1588
2907  1305  1951
2907  1305  2294
2907  1305  2589
3059  1449  3047
3164  1542  3581
2662  1361  594
2798  1506  945
2907  1638  1321
3075  1821  1752
3075  1821  2096
3075  1821  2459
3075  1821  2718
3184  2003  3190
3324  2152  3742
2662  1702  594
2798  1903  945
2907  2039  1321
3075  2232  1752
3184  2417  2232
3184  2417  2559
3184  2417  2858
3312  2561  3336
3453  2682  3886
2662  2124  594
2798  2292  945
2907  2461  1321
3075  2636  1752
3184  2778  2232
3312  2911  2658
3312  2911  2955
3445  3025  3439
3597  3115  3886
2658  2549  594
2798  2670  945
2907  2782  1321
3075  2975  1752
3184  3075  2232
3312  3212  2658
3497  3384  3075
3617  3497  3541
3694  3565  3886
2786  3089  691
2923  3218  1014
3059  3356  1421
3184  3491  1921
3312  3593  2385
3445  3706  2808
3617  3864  3192
3617  3864  3541
3694  3934  3886
2907  3629  755
3035  3742  1076
3164  3918  1510
3324  3983  2056
3453  3983  2505
3597  3983  2858
3694  3983  3292
3694  3983  3613
3694  3983  3886
3182  514  691
3182  514  933
3182  514  1184
3182  514  1473
3182  514  1815
3182  514  2126
3182  514  2465
3182  514  2822
3244  658  3372
3182  833  691
3304  939  1014
3304  939  1321
3304  939  1588
3304  939  1959
3304  939  2310
3304  939  2589
3304  939  2941
3372  1028  3469
3182  1160  691
3304  1305  1014
3447  1449  1421
3447  1449  1734
3447  1449  2088
3447  1449  2415
3447  1449  2694
3447  1449  3047
3517  1542  3581
3182  1506  691
3304  1638  1014
3447  1805  1421
3607  2003  1921
3607  2003  2232
3607  2003  2559
3607  2003  2858
3607  2003  3190
3694  2152  3742
3182  1903  691
3304  2056  1014
3447  2192  1421
3607  2417  1921
3738  2561  2385
3738  2561  2658
3738  2561  2955
3738  2561  3336
3806  2682  3886
3182  2292  691
3304  2491  1014
3447  2579  1421
3607  2778  1921
3738  2911  2385
3856  3025  2808
3856  3025  3051
3856  3025  3439
3950  3115  3886
3182  2642  691
3304  2822  1014
3447  2947  1421
3607  3075  1921
3738  3212  2385
3856  3348  2808
4041  3497  3192
4041  3497  3541
4095  3565  3886
3166  3089  691
3288  3218  1014
3447  3356  1421
3607  3491  1921
3738  3593  2385
3856  3706  2808
4041  3864  3192
4095  3958  3651
4095  3983  3886
3244  3629  755
3372  3742  1076
3517  3918  1510
3694  3983  2056
3806  3983  2505
3950  3983  2858
4095  3983  3292
4095  3983  3742
4095  3983  3886
3774  658  755
3774  658  996
3774  658  1269
3774  658  1590
3774  658  1943
3774  658  2200
3774  658  2585
3774  658  2907
3774  658  3324
3774  931  755
3886  1028  1076
3886  1028  1349
3886  1028  1734
3886  1028  2056
3886  1028  2361
3886  1028  2666
3886  1028  3003
3886  1028  3437
3774  1253  755
3886  1381  1076
4095  1542  1510
4095  1542  1927
4095  1542  2168
4095  1542  2489
4095  1542  2842
4095  1542  3099
4095  1542  3565
3774  1622  755
3886  1799  1076
4095  2007  1510
4095  2152  2056
4095  2152  2377
4095  2152  2634
4095  2152  2955
4095  2152  3292
4095  2152  3742
3774  2039  755
3886  2152  1076
4095  2377  1510
4095  2553  2056
4095  2682  2505
4095  2682  2730
4095  2682  3035
4095  2682  3388
4095  2682  3886
3774  2409  755
3886  2537  1076
4095  2666  1510
4095  2842  2056
4095  2987  2505
4095  3115  2858
4095  3115  3164
4095  3115  3501
4095  3115  3886
3774  2810  755
3886  2923  1076
4095  3051  1510
4095  3196  2056
4095  3340  2505
4095  3485  2858
4095  3565  3292
4095  3565  3613
4095  3565  3886
3774  3148  755
3886  3308  1076
4095  3421  1510
4095  3533  2056
4095  3645  2505
4095  3774  2858
4095  3934  3292
4095  3983  3742
4095  3983  3886
3758  3629  755
3870  3742  1076
4095  3918  1510
4095  3983  2056
4095  3983  2505
4095  3983  2858
4095  3983  3292
4095  3983  3742
4095  3983  3886
