PS/3DLUTs/Insta-inkwell.3dl
#Created by: Generate3DLut
#Generator: Copyright 2012 by Linus Hechinger
0 64 128 192 256 320 384 448 512 575 639 703 767 831 895 959 1023
0  0  0
0  0  3
64  64  94
177  177  222
305  305  377
434  434  539
642  642  656
803  803  838
964  964  1020
1140  1140  1217
1317  1317  1415
1542  1542  1550
1750  1750  1779
1927  1927  1983
2104  2104  2184
2264  2264  2343
2473  2473  2473
0  3  0
0  3  3
64  79  94
177  192  222
305  323  377
434  455  539
642  663  656
803  824  838
964  985  1020
1140  1161  1217
1317  1338  1415
1542  1566  1550
1750  1771  1779
1927  1951  1983
2104  2128  2184
2264  2282  2343
2473  2473  2473
64  94  64
64  94  79
64  94  94
177  207  222
305  341  377
434  476  539
642  685  656
803  845  838
964  1006  1020
1140  1182  1217
1317  1359  1415
1542  1590  1550
1750  1793  1779
1927  1975  1983
2104  2152  2184
2264  2300  2343
2473  2473  2473
177  222  177
177  222  192
177  222  207
177  222  222
305  359  377
434  497  539
642  706  656
803  866  838
964  1027  1020
1140  1203  1217
1317  1380  1415
1542  1614  1550
1750  1814  1779
1927  1999  1983
2104  2176  2184
2264  2318  2343
2473  2473  2473
305  377  305
305  377  323
305  377  341
305  377  359
305  377  377
434  518  539
642  727  656
803  887  838
964  1048  1020
1140  1224  1217
1317  1401  1415
1542  1638  1550
1750  1835  1779
1927  2023  1983
2104  2200  2184
2264  2337  2343
2473  2473  2473
434  539  434
434  539  455
434  539  476
434  539  497
434  539  518
434  539  539
642  748  656
803  908  838
964  1069  1020
1140  1246  1217
1317  1422  1415
1542  1662  1550
1750  1856  1779
1927  2048  1983
2104  2224  2184
2264  2355  2343
2473  2473  2473
642  656  642
642  656  663
642  656  685
642  656  706
642  656  727
642  656  748
642  656  656
803  817  838
964  978  1020
1140  1154  1217
1317  1331  1415
1542  1558  1550
1750  1764  1779
1927  1943  1983
2104  2120  2184
2264  2276  2343
2473  2473  2473
803  838  803
803  838  824
803  838  845
803  838  866
803  838  887
803  838  908
803  838  817
803  838  838
964  999  1020
1140  1175  1217
1317  1352  1415
1542  1582  1550
1750  1786  1779
1927  1967  1983
2104  2144  2184
2264  2294  2343
2473  2473  2473
964  1020  964
964  1020  985
964  1020  1006
964  1020  1027
964  1020  1048
964  1020  1069
964  1020  978
964  1020  999
964  1020  1020
1140  1196  1217
1317  1373  1415
1542  1606  1550
1750  1807  1779
1927  1991  1983
2104  2168  2184
2264  2312  2343
2473  2473  2473
1140  1217  1140
1140  1217  1161
1140  1217  1182
1140  1217  1203
1140  1217  1224
1140  1217  1246
1140  1217  1154
1140  1217  1175
1140  1217  1196
1140  1217  1217
1317  1394  1415
1542  1630  1550
1750  1828  1779
1927  2015  1983
2104  2192  2184
2264  2331  2343
2473  2473  2473
1317  1415  1317
1317  1415  1338
1317  1415  1359
1317  1415  1380
1317  1415  1401
1317  1415  1422
1317  1415  1331
1317  1415  1352
1317  1415  1373
1317  1415  1394
1317  1415  1415
1542  1654  1550
1750  1849  1779
1927  2039  1983
2104  2216  2184
2264  2349  2343
2473  2473  2473
1542  1550  1542
1542  1550  1566
1542  1550  1590
1542  1550  1614
1542  1550  1638
1542  1550  1662
1542  1550  1558
1542  1550  1582
1542  1550  1606
1542  1550  1630
1542  1550  1654
1542  1550  1550
1750  1757  1779
1927  1935  1983
2104  2112  2184
2264  2270  2343
2473  2473  2473
1750  1779  1750
1750  1779  1771
1750  1779  1793
1750  1779  1814
1750  1779  1835
1750  1779  1856
1750  1779  1764
1750  1779  1786
1750  1779  1807
1750  1779  1828
1750  1779  1849
1750  1779  1757
1750  1779  1779
1927  1959  1983
2104  2136  2184
2264  2288  2343
2473  2473  2473
1927  1983  1927
1927  1983  1951
1927  1983  1975
1927  1983  1999
1927  1983  2023
1927  1983  2048
1927  1983  1943
1927  1983  1967
1927  1983  1991
1927  1983  2015
1927  1983  2039
1927  1983  1935
1927  1983  1959
1927  1983  1983
2104  2160  2184
2264  2306  2343
2473  2473  2473
2104  2184  2104
2104  2184  2128
2104  2184  2152
2104  2184  2176
2104  2184  2200
2104  2184  2224
2104  2184  2120
2104  2184  2144
2104  2184  2168
2104  2184  2192
2104  2184  2216
2104  2184  2112
2104  2184  2136
2104  2184  2160
2104  2184  2184
2264  2325  2343
2473  2473  2473
2264  2343  2264
2264  2343  2282
2264  2343  2300
2264  2343  2318
2264  2343  2337
2264  2343  2355
2264  2343  2276
2264  2343  2294
2264  2343  2312
2264  2343  2331
2264  2343  2349
2264  2343  2270
2264  2343  2288
2264  2343  2306
2264  2343  2325
2264  2343  2343
2473  2473  2473
2473  2473  2473
2473  2473  2473
2473  2473  2473
2473  2473  2473
2473  2473  2473
2473  2473  2473
2473  2473  2473
2473  2473  2473
2473  2473  2473
2473  2473  2473
2473  2473  2473
2473  2473  2473
2473  2473  2473
2473  2473  2473
2473  2473  2473
2473  2473  2473
2473  2473  2473
3  0  0
3  0  3
79  64  94
192  177  222
323  305  377
455  434  539
663  642  656
824  803  838
985  964  1020
1161  1140  1217
1338  1317  1415
1566  1542  1550
1771  1750  1779
1951  1927  1983
2128  2104  2184
2282  2264  2343
2473  2473  2473
3  3  0
79  79  79
192  192  207
323  323  359
455  455  518
615  615  700
824  824  817
985  985  999
1161  1161  1196
1338  1338  1394
1531  1531  1608
1771  1771  1757
1951  1951  1959
2128  2128  2160
2282  2282  2325
2459  2459  2519
2618  2618  2618
79  94  64
192  207  192
192  207  207
323  341  359
455  476  518
615  636  700
824  845  817
985  1006  999
1161  1182  1196
1338  1359  1394
1531  1552  1608
1771  1793  1757
1951  1975  1959
2128  2152  2160
2282  2300  2325
2459  2477  2519
2618  2618  2618
192  222  177
323  359  323
323  359  341
323  359  359
455  497  518
615  657  700
824  866  817
985  1027  999
1161  1203  1196
1338  1380  1394
1531  1573  1608
1771  1814  1757
1951  1999  1959
2128  2176  2160
2282  2318  2325
2459  2495  2519
2618  2618  2618
323  377  305
455  518  455
455  518  476
455  518  497
455  518  518
615  678  700
824  887  817
985  1048  999
1161  1224  1196
1338  1401  1394
1531  1594  1608
1771  1835  1757
1951  2023  1959
2128  2200  2160
2282  2337  2325
2459  2513  2519
2618  2618  2618
455  539  434
615  700  615
615  700  636
615  700  657
615  700  678
615  700  700
824  908  817
985  1069  999
1161  1246  1196
1338  1422  1394
1531  1615  1608
1771  1856  1757
1951  2048  1959
2128  2224  2160
2282  2355  2325
2459  2531  2519
2618  2618  2618
663  656  642
824  817  824
824  817  845
824  817  866
824  817  887
824  817  908
824  817  817
985  978  999
1161  1154  1196
1338  1331  1394
1531  1524  1608
1771  1764  1757
1951  1943  1959
2128  2120  2160
2282  2276  2325
2459  2453  2519
2618  2618  2618
824  838  803
985  999  985
985  999  1006
985  999  1027
985  999  1048
985  999  1069
985  999  978
985  999  999
1161  1175  1196
1338  1352  1394
1531  1545  1608
1771  1786  1757
1951  1967  1959
2128  2144  2160
2282  2294  2325
2459  2471  2519
2618  2618  2618
985  1020  964
1161  1196  1161
1161  1196  1182
1161  1196  1203
1161  1196  1224
1161  1196  1246
1161  1196  1154
1161  1196  1175
1161  1196  1196
1338  1373  1394
1531  1566  1608
1771  1807  1757
1951  1991  1959
2128  2168  2160
2282  2312  2325
2459  2489  2519
2618  2618  2618
1161  1217  1140
1338  1394  1338
1338  1394  1359
1338  1394  1380
1338  1394  1401
1338  1394  1422
1338  1394  1331
1338  1394  1352
1338  1394  1373
1338  1394  1394
1531  1587  1608
1771  1828  1757
1951  2015  1959
2128  2192  2160
2282  2331  2325
2459  2507  2519
2618  2618  2618
1338  1415  1317
1531  1608  1531
1531  1608  1552
1531  1608  1573
1531  1608  1594
1531  1608  1615
1531  1608  1524
1531  1608  1545
1531  1608  1566
1531  1608  1587
1531  1608  1608
1771  1849  1757
1951  2039  1959
2128  2216  2160
2282  2349  2325
2459  2525  2519
2618  2618  2618
1566  1550  1542
1771  1757  1771
1771  1757  1793
1771  1757  1814
1771  1757  1835
1771  1757  1856
1771  1757  1764
1771  1757  1786
1771  1757  1807
1771  1757  1828
1771  1757  1849
1771  1757  1757
1951  1935  1959
2128  2112  2160
2282  2270  2325
2459  2447  2519
2618  2618  2618
1771  1779  1750
1951  1959  1951
1951  1959  1975
1951  1959  1999
1951  1959  2023
1951  1959  2048
1951  1959  1943
1951  1959  1967
1951  1959  1991
1951  1959  2015
1951  1959  2039
1951  1959  1935
1951  1959  1959
2128  2136  2160
2282  2288  2325
2459  2465  2519
2618  2618  2618
1951  1983  1927
2128  2160  2128
2128  2160  2152
2128  2160  2176
2128  2160  2200
2128  2160  2224
2128  2160  2120
2128  2160  2144
2128  2160  2168
2128  2160  2192
2128  2160  2216
2128  2160  2112
2128  2160  2136
2128  2160  2160
2282  2306  2325
2459  2483  2519
2618  2618  2618
2128  2184  2104
2282  2325  2282
2282  2325  2300
2282  2325  2318
2282  2325  2337
2282  2325  2355
2282  2325  2276
2282  2325  2294
2282  2325  2312
2282  2325  2331
2282  2325  2349
2282  2325  2270
2282  2325  2288
2282  2325  2306
2282  2325  2325
2459  2501  2519
2618  2618  2618
2282  2343  2264
2459  2519  2459
2459  2519  2477
2459  2519  2495
2459  2519  2513
2459  2519  2531
2459  2519  2453
2459  2519  2471
2459  2519  2489
2459  2519  2507
2459  2519  2525
2459  2519  2447
2459  2519  2465
2459  2519  2483
2459  2519  2501
2459  2519  2519
2618  2618  2618
2473  2473  2473
2618  2618  2618
2618  2618  2618
2618  2618  2618
2618  2618  2618
2618  2618  2618
2618  2618  2618
2618  2618  2618
2618  2618  2618
2618  2618  2618
2618  2618  2618
2618  2618  2618
2618  2618  2618
2618  2618  2618
2618  2618  2618
2618  2618  2618
2618  2618  2618
94  64  64
94  64  79
94  64  94
207  177  222
341  305  377
476  434  539
685  642  656
845  803  838
1006  964  1020
1182  1140  1217
1359  1317  1415
1590  1542  1550
1793  1750  1779
1975  1927  1983
2152  2104  2184
2300  2264  2343
2473  2473  2473
94  79  64
207  192  192
207  192  207
341  323  359
476  455  518
636  615  700
845  824  817
1006  985  999
1182  1161  1196
1359  1338  1394
1552  1531  1608
1793  1771  1757
1975  1951  1959
2152  2128  2160
2300  2282  2325
2477  2459  2519
2618  2618  2618
94  94  64
207  207  192
341  341  341
476  476  497
636  636  678
791  791  845
1006  1006  978
1182  1182  1175
1359  1359  1373
1552  1552  1587
1718  1718  1783
1975  1975  1935
2152  2152  2136
2300  2300  2306
2477  2477  2501
2600  2600  2635
2730  2730  2730
207  222  177
341  359  323
476  497  476
476  497  497
636  657  678
791  809  845
1006  1027  978
1182  1203  1175
1359  1380  1373
1552  1573  1587
1718  1742  1783
1975  1999  1935
2152  2176  2136
2300  2318  2306
2477  2495  2501
2600  2615  2635
2730  2730  2730
341  377  305
476  518  455
636  678  636
636  678  657
636  678  678
791  827  845
1006  1048  978
1182  1224  1175
1359  1401  1373
1552  1594  1587
1718  1766  1783
1975  2023  1935
2152  2200  2136
2300  2337  2306
2477  2513  2501
2600  2630  2635
2730  2730  2730
476  539  434
636  700  615
791  845  791
791  845  809
791  845  827
791  845  845
1006  1069  978
1182  1246  1175
1359  1422  1373
1552  1615  1587
1718  1791  1783
1975  2048  1935
2152  2224  2136
2300  2355  2306
2477  2531  2501
2600  2645  2635
2730  2730  2730
685  656  642
845  817  824
1006  978  1006
1006  978  1027
1006  978  1048
1006  978  1069
1006  978  978
1182  1154  1175
1359  1331  1373
1552  1524  1587
1718  1686  1783
1975  1943  1935
2152  2120  2136
2300  2276  2306
2477  2453  2501
2600  2579  2635
2730  2730  2730
845  838  803
1006  999  985
1182  1175  1182
1182  1175  1203
1182  1175  1224
1182  1175  1246
1182  1175  1154
1182  1175  1175
1359  1352  1373
1552  1545  1587
1718  1710  1783
1975  1967  1935
2152  2144  2136
2300  2294  2306
2477  2471  2501
2600  2595  2635
2730  2730  2730
1006  1020  964
1182  1196  1161
1359  1373  1359
1359  1373  1380
1359  1373  1401
1359  1373  1422
1359  1373  1331
1359  1373  1352
1359  1373  1373
1552  1566  1587
1718  1734  1783
1975  1991  1935
2152  2168  2136
2300  2312  2306
2477  2489  2501
2600  2610  2635
2730  2730  2730
1182  1217  1140
1359  1394  1338
1552  1587  1552
1552  1587  1573
1552  1587  1594
1552  1587  1615
1552  1587  1524
1552  1587  1545
1552  1587  1566
1552  1587  1587
1718  1758  1783
1975  2015  1935
2152  2192  2136
2300  2331  2306
2477  2507  2501
2600  2625  2635
2730  2730  2730
1359  1415  1317
1552  1608  1531
1718  1783  1718
1718  1783  1742
1718  1783  1766
1718  1783  1791
1718  1783  1686
1718  1783  1710
1718  1783  1734
1718  1783  1758
1718  1783  1783
1975  2039  1935
2152  2216  2136
2300  2349  2306
2477  2525  2501
2600  2640  2635
2730  2730  2730
1590  1550  1542
1793  1757  1771
1975  1935  1975
1975  1935  1999
1975  1935  2023
1975  1935  2048
1975  1935  1943
1975  1935  1967
1975  1935  1991
1975  1935  2015
1975  1935  2039
1975  1935  1935
2152  2112  2136
2300  2270  2306
2477  2447  2501
2600  2574  2635
2730  2730  2730
1793  1779  1750
1975  1959  1951
2152  2136  2152
2152  2136  2176
2152  2136  2200
2152  2136  2224
2152  2136  2120
2152  2136  2144
2152  2136  2168
2152  2136  2192
2152  2136  2216
2152  2136  2112
2152  2136  2136
2300  2288  2306
2477  2465  2501
2600  2589  2635
2730  2730  2730
1975  1983  1927
2152  2160  2128
2300  2306  2300
2300  2306  2318
2300  2306  2337
2300  2306  2355
2300  2306  2276
2300  2306  2294
2300  2306  2312
2300  2306  2331
2300  2306  2349
2300  2306  2270
2300  2306  2288
2300  2306  2306
2477  2483  2501
2600  2605  2635
2730  2730  2730
2152  2184  2104
2300  2325  2282
2477  2501  2477
2477  2501  2495
2477  2501  2513
2477  2501  2531
2477  2501  2453
2477  2501  2471
2477  2501  2489
2477  2501  2507
2477  2501  2525
2477  2501  2447
2477  2501  2465
2477  2501  2483
2477  2501  2501
2600  2620  2635
2730  2730  2730
2300  2343  2264
2477  2519  2459
2600  2635  2600
2600  2635  2615
2600  2635  2630
2600  2635  2645
2600  2635  2579
2600  2635  2595
2600  2635  2610
2600  2635  2625
2600  2635  2640
2600  2635  2574
2600  2635  2589
2600  2635  2605
2600  2635  2620
2600  2635  2635
2730  2730  2730
2473  2473  2473
2618  2618  2618
2730  2730  2730
2730  2730  2730
2730  2730  2730
2730  2730  2730
2730  2730  2730
2730  2730  2730
2730  2730  2730
2730  2730  2730
2730  2730  2730
2730  2730  2730
2730  2730  2730
2730  2730  2730
2730  2730  2730
2730  2730  2730
2730  2730  2730
222  177  177
222  177  192
222  177  207
222  177  222
359  305  377
497  434  539
706  642  656
866  803  838
1027  964  1020
1203  1140  1217
1380  1317  1415
1614  1542  1550
1814  1750  1779
1999  1927  1983
2176  2104  2184
2318  2264  2343
2473  2473  2473
222  192  177
359  323  323
359  323  341
359  323  359
497  455  518
657  615  700
866  824  817
1027  985  999
1203  1161  1196
1380  1338  1394
1573  1531  1608
1814  1771  1757
1999  1951  1959
2176  2128  2160
2318  2282  2325
2495  2459  2519
