PS/3DLUTs/Insta-nashville.3dl
#Created by: Generate3DLut
#Generator: Copyright 2012 by Linus Hechinger
0 128 256 384 512 639 767 895 1023
64  434  1606
64  434  1881
64  434  2128
64  434  2314
64  434  2481
64  434  2602
64  434  2706
64  434  2794
64  434  2794
64  929  1606
64  929  1881
64  929  2128
64  929  2314
64  929  2481
64  929  2602
64  929  2706
64  929  2794
64  899  2794
64  1546  1606
64  1546  1881
64  1546  2128
64  1546  2314
64  1546  2481
64  1546  2602
64  1546  2706
64  1546  2794
64  1461  2794
64  2192  1606
64  2192  1881
64  2192  2128
64  2192  2314
64  2192  2481
64  2192  2602
64  2192  2706
64  2192  2794
64  2184  2794
64  2658  1606
64  2658  1881
64  2658  2128
64  2658  2314
64  2658  2481
64  2658  2602
64  2658  2706
64  2658  2794
64  2634  2794
64  2983  1606
64  2983  1881
64  2983  2128
64  2983  2314
64  2983  2481
64  2983  2602
64  2983  2706
64  2983  2794
64  2955  2794
64  3252  1606
64  3252  1881
64  3252  2128
64  3252  2314
64  3252  2481
64  3252  2602
64  3252  2706
64  3252  2794
64  3244  2794
64  3453  1606
64  3453  1881
64  3453  2128
64  3453  2314
64  3453  2481
64  3453  2602
64  3453  2706
64  3453  2794
64  3453  2794
64  3501  1606
64  3501  1863
64  3501  2104
64  3501  2312
64  3501  2473
64  3501  2602
64  3501  2698
64  3501  2794
64  3501  2794
614  434  1606
614  434  1881
614  434  2128
614  434  2314
614  434  2481
614  434  2602
614  434  2706
614  434  2794
578  434  2794
614  929  1606
614  929  1881
614  929  2128
614  929  2314
614  929  2481
614  929  2602
614  929  2706
614  929  2794
578  899  2794
614  1546  1606
614  1546  1881
614  1546  2128
614  1546  2314
614  1546  2481
614  1546  2602
614  1546  2706
614  1546  2794
578  1461  2794
614  2192  1606
614  2192  1881
614  2192  2128
614  2192  2314
614  2192  2481
614  2192  2602
614  2192  2706
614  2192  2794
578  2184  2794
614  2658  1606
614  2658  1881
614  2658  2128
614  2658  2314
614  2658  2481
614  2658  2602
614  2658  2706
614  2658  2794
578  2634  2794
614  2983  1606
614  2983  1881
614  2983  2128
614  2983  2314
614  2983  2481
614  2983  2602
614  2983  2706
614  2983  2794
578  2955  2794
614  3252  1606
614  3252  1881
614  3252  2128
614  3252  2314
614  3252  2481
614  3252  2602
614  3252  2706
614  3252  2794
578  3244  2794
614  3453  1606
614  3453  1881
614  3453  2128
614  3453  2314
614  3453  2481
614  3453  2602
614  3453  2706
614  3453  2794
578  3453  2794
578  3501  1606
578  3501  1863
578  3501  2104
578  3501  2312
578  3501  2473
578  3501  2602
578  3501  2698
578  3501  2794
578  3501  2794
1245  434  1606
1245  434  1881
1245  434  2128
1245  434  2314
1245  434  2481
1245  434  2602
1245  434  2706
1245  434  2794
1172  434  2794
1245  929  1606
1245  929  1881
1245  929  2128
1245  929  2314
1245  929  2481
1245  929  2602
1245  929  2706
1245  929  2794
1172  899  2794
1245  1546  1606
1245  1546  1881
1245  1546  2128
1245  1546  2314
1245  1546  2481
1245  1546  2602
1245  1546  2706
1245  1546  2794
1172  1461  2794
1245  2192  1606
1245  2192  1881
1245  2192  2128
1245  2192  2314
1245  2192  2481
1245  2192  2602
1245  2192  2706
1245  2192  2794
1172  2184  2794
1245  2658  1606
1245  2658  1881
1245  2658  2128
1245  2658  2314
1245  2658  2481
1245  2658  2602
1245  2658  2706
1245  2658  2794
1172  2634  2794
1245  2983  1606
1245  2983  1881
1245  2983  2128
1245  2983  2314
1245  2983  2481
1245  2983  2602
1245  2983  2706
1245  2983  2794
1172  2955  2794
1245  3252  1606
1245  3252  1881
1245  3252  2128
1245  3252  2314
1245  3252  2481
1245  3252  2602
1245  3252  2706
1245  3252  2794
1172  3244  2794
1245  3453  1606
1245  3453  1881
1245  3453  2128
1245  3453  2314
1245  3453  2481
1245  3453  2602
1245  3453  2706
1245  3453  2794
1172  3453  2794
1172  3501  1606
1172  3501  1863
1172  3501  2104
1172  3501  2312
1172  3501  2473
1172  3501  2602
1172  3501  2698
1172  3501  2794
1172  3501  2794
2058  434  1606
2058  434  1881
2058  434  2128
2058  434  2314
2058  434  2481
2058  434  2602
2058  434  2706
2058  434  2794
2039  434  2794
2058  929  1606
2058  929  1881
2058  929  2128
2058  929  2314
2058  929  2481
2058  929  2602
2058  929  2706
2058  929  2794
2039  899  2794
2058  1546  1606
2058  1546  1881
2058  1546  2128
2058  1546  2314
2058  1546  2481
2058  1546  2602
2058  1546  2706
2058  1546  2794
2039  1461  2794
2058  2192  1606
2058  2192  1881
2058  2192  2128
2058  2192  2314
2058  2192  2481
2058  2192  2602
2058  2192  2706
2058  2192  2794
2039  2184  2794
2058  2658  1606
2058  2658  1881
2058  2658  2128
2058  2658  2314
2058  2658  2481
2058  2658  2602
2058  2658  2706
2058  2658  2794
2039  2634  2794
2058  2983  1606
2058  2983  1881
2058  2983  2128
2058  2983  2314
2058  2983  2481
2058  2983  2602
2058  2983  2706
2058  2983  2794
2039  2955  2794
2058  3252  1606
2058  3252  1881
2058  3252  2128
2058  3252  2314
2058  3252  2481
2058  3252  2602
2058  3252  2706
2058  3252  2794
2039  3244  2794
2058  3453  1606
2058  3453  1881
2058  3453  2128
2058  3453  2314
2058  3453  2481
2058  3453  2602
2058  3453  2706
2058  3453  2794
2039  3453  2794
2039  3501  1606
2039  3501  1863
2039  3501  2104
2039  3501  2312
2039  3501  2473
2039  3501  2602
2039  3501  2698
2039  3501  2794
2039  3501  2794
2746  434  1606
2746  434  1881
2746  434  2128
2746  434  2314
2746  434  2481
2746  434  2602
2746  434  2706
2746  434  2794
2698  434  2794
2746  929  1606
2746  929  1881
2746  929  2128
2746  929  2314
2746  929  2481
2746  929  2602
2746  929  2706
2746  929  2794
2698  899  2794
2746  1546  1606
2746  1546  1881
2746  1546  2128
2746  1546  2314
2746  1546  2481
2746  1546  2602
2746  1546  2706
2746  1546  2794
2698  1461  2794
2746  2192  1606
2746  2192  1881
2746  2192  2128
2746  2192  2314
2746  2192  2481
2746  2192  2602
2746  2192  2706
2746  2192  2794
2698  2184  2794
2746  2658  1606
2746  2658  1881
2746  2658  2128
2746  2658  2314
2746  2658  2481
2746  2658  2602
2746  2658  2706
2746  2658  2794
2698  2634  2794
2746  2983  1606
2746  2983  1881
2746  2983  2128
2746  2983  2314
2746  2983  2481
2746  2983  2602
2746  2983  2706
2746  2983  2794
2698  2955  2794
2746  3252  1606
2746  3252  1881
2746  3252  2128
2746  3252  2314
2746  3252  2481
2746  3252  2602
2746  3252  2706
2746  3252  2794
2698  3244  2794
2746  3453  1606
2746  3453  1881
2746  3453  2128
2746  3453  2314
2746  3453  2481
2746  3453  2602
2746  3453  2706
2746  3453  2794
2698  3453  2794
2698  3501  1606
2698  3501  1863
2698  3501  2104
2698  3501  2312
2698  3501  2473
2698  3501  2602
2698  3501  2698
2698  3501  2794
2698  3501  2794
3252  434  1606
3252  434  1881
3252  434  2128
3252  434  2314
3252  434  2481
3252  434  2602
3252  434  2706
3252  434  2794
3196  434  2794
3252  929  1606
3252  929  1881
3252  929  2128
3252  929  2314
3252  929  2481
3252  929  2602
3252  929  2706
3252  929  2794
3196  899  2794
3252  1546  1606
3252  1546  1881
3252  1546  2128
3252  1546  2314
3252  1546  2481
3252  1546  2602
3252  1546  2706
3252  1546  2794
3196  1461  2794
3252  2192  1606
3252  2192  1881
3252  2192  2128
3252  2192  2314
3252  2192  2481
3252  2192  2602
3252  2192  2706
3252  2192  2794
3196  2184  2794
3252  2658  1606
3252  2658  1881
3252  2658  2128
3252  2658  2314
3252  2658  2481
3252  2658  2602
3252  2658  2706
3252  2658  2794
3196  2634  2794
3252  2983  1606
3252  2983  1881
3252  2983  2128
3252  2983  2314
3252  2983  2481
3252  2983  2602
3252  2983  2706
3252  2983  2794
3196  2955  2794
3252  3252  1606
3252  3252  1881
3252  3252  2128
3252  3252  2314
3252  3252  2481
3252  3252  2602
3252  3252  2706
3252  3252  2794
3196  3244  2794
3252  3453  1606
3252  3453  1881
3252  3453  2128
3252  3453  2314
3252  3453  2481
3252  3453  2602
3252  3453  2706
3252  3453  2794
3196  3453  2794
3196  3501  1606
3196  3501  1863
3196  3501  2104
3196  3501  2312
3196  3501  2473
3196  3501  2602
3196  3501  2698
3196  3501  2794
3196  3501  2794
3625  434  1606
3625  434  1881
3625  434  2128
3625  434  2314
3625  434  2481
3625  434  2602
3625  434  2706
3625  434  2794
3613  434  2794
3625  929  1606
3625  929  1881
3625  929  2128
3625  929  2314
3625  929  2481
3625  929  2602
3625  929  2706
3625  929  2794
3613  899  2794
3625  1546  1606
3625  1546  1881
3625  1546  2128
3625  1546  2314
3625  1546  2481
3625  1546  2602
3625  1546  2706
3625  1546  2794
3613  1461  2794
3625  2192  1606
3625  2192  1881
3625  2192  2128
3625  2192  2314
3625  2192  2481
3625  2192  2602
3625  2192  2706
3625  2192  2794
3613  2184  2794
3625  2658  1606
3625  2658  1881
3625  2658  2128
3625  2658  2314
3625  2658  2481
3625  2658  2602
3625  2658  2706
3625  2658  2794
3613  2634  2794
3625  2983  1606
3625  2983  1881
3625  2983  2128
3625  2983  2314
3625  2983  2481
3625  2983  2602
3625  2983  2706
3625  2983  2794
3613  2955  2794
3625  3252  1606
3625  3252  1881
3625  3252  2128
3625  3252  2314
3625  3252  2481
3625  3252  2602
3625  3252  2706
3625  3252  2794
3613  3244  2794
3625  3453  1606
3625  3453  1881
3625  3453  2128
3625  3453  2314
3625  3453  2481
3625  3453  2602
3625  3453  2706
3625  3453  2794
3613  3453  2794
3613  3501  1606
3613  3501  1863
3613  3501  2104
3613  3501  2312
3613  3501  2473
3613  3501  2602
3613  3501  2698
3613  3501  2794
3613  3501  2794
3890  434  1606
3890  434  1881
3890  434  2128
3890  434  2314
3890  434  2481
3890  434  2602
3890  434  2706
3890  434  2794
3870  434  2794
3890  929  1606
3890  929  1881
3890  929  2128
3890  929  2314
3890  929  2481
3890  929  2602
3890  929  2706
3890  929  2794
3870  899  2794
3890  1546  1606
3890  1546  1881
3890  1546  2128
3890  1546  2314
3890  1546  2481
3890  1546  2602
3890  1546  2706
3890  1546  2794
3870  1461  2794
3890  2192  1606
3890  2192  1881
3890  2192  2128
3890  2192  2314
3890  2192  2481
3890  2192  2602
3890  2192  2706
3890  2192  2794
3870  2184  2794
3890  2658  1606
3890  2658  1881
3890  2658  2128
3890  2658  2314
3890  2658  2481
3890  2658  2602
3890  2658  2706
3890  2658  2794
3870  2634  2794
3890  2983  1606
3890  2983  1881
3890  2983  2128
3890  2983  2314
3890  2983  2481
3890  2983  2602
3890  2983  2706
3890  2983  2794
3870  2955  2794
3890  3252  1606
3890  3252  1881
3890  3252  2128
3890  3252  2314
3890  3252  2481
3890  3252  2602
3890  3252  2706
3890  3252  2794
3870  3244  2794
3890  3453  1606
3890  3453  1881
3890  3453  2128
3890  3453  2314
3890  3453  2481
3890  3453  2602
3890  3453  2706
3890  3453  2794
3870  3453  2794
3870  3501  1606
3870  3501  1863
3870  3501  2104
3870  3501  2312
3870  3501  2473
3870  3501  2602
3870  3501  2698
3870  3501  2794
3870  3501  2794
3967  434  1606
3967  434  1863
3967  434  2104
3967  434  2312
3967  434  2473
3967  434  2602
3967  434  2698
3967  434  2794
3967  434  2794
3967  899  1606
3967  899  1863
3967  899  2104
3967  899  2312
3967  899  2473
3967  899  2602
3967  899  2698
3967  899  2794
3967  899  2794
3967  1461  1606
3967  1461  1863
3967  1461  2104
3967  1461  2312
3967  1461  2473
3967  1461  2602
3967  1461  2698
3967  1461  2794
3967  1461  2794
3967  2184  1606
3967  2184  1863
3967  2184  2104
3967  2184  2312
3967  2184  2473
3967  2184  2602
3967  2184  2698
3967  2184  2794
3967  2184  2794
3967  2634  1606
3967  2634  1863
3967  2634  2104
3967  2634  2312
3967  2634  2473
3967  2634  2602
3967  2634  2698
3967  2634  2794
3967  2634  2794
3967  2955  1606
3967  2955  1863
3967  2955  2104
3967  2955  2312
3967  2955  2473
3967  2955  2602
3967  2955  2698
3967  2955  2794
3967  2955  2794
3967  3244  1606
3967  3244  1863
3967  3244  2104
3967  3244  2312
3967  3244  2473
3967  3244  2602
3967  3244  2698
3967  3244  2794
3967  3244  2794
3967  3453  1606
3967  3453  1863
3967  3453  2104
3967  3453  2312
3967  3453  2473
3967  3453  2602
3967  3453  2698
3967  3453  2794
3967  3453  2794
3967  3501  1606
3967  3501  1863
3967  3501  2104
3967  3501  2312
3967  3501  2473
3967  3501  2602
3967  3501  2698
3967  3501  2794
3967  3501  2794
