PS/3DLUTs/Insta-earlybird.3dl
#Created by: Generate3DLut
#Generator: Copyright 2012 by Linus Hechinger
0 64 128 192 256 320 384 448 512 575 639 703 767 831 895 959 1023
0  0  0
0  0  0
0  0  0
0  0  0
0  0  0
0  0  0
0  0  211
0  0  569
0  0  931
0  0  1278
0  0  1558
0  0  1838
112  0  2112
161  0  2362
225  0  2559
337  0  2763
450  0  2923
0  0  0
0  0  0
0  0  0
0  0  0
0  0  0
0  0  0
0  0  239
0  0  602
0  0  956
0  0  1305
0  0  1592
0  0  1854
128  0  2140
177  0  2380
241  3  2591
385  21  2792
466  64  2939
0  0  0
0  0  0
0  0  0
0  0  0
0  0  0
0  0  0
0  0  241
0  0  618
0  0  980
0  0  1326
0  0  1606
16  6  1855
161  48  2160
225  161  2396
273  195  2608
401  301  2821
482  353  2955
0  0  0
0  0  0
0  0  0
0  0  0
0  0  0
0  0  0
0  0  259
0  0  618
0  0  980
0  72  1326
0  120  1606
48  267  1872
177  345  2160
193  417  2396
289  513  2636
401  556  2821
514  594  2987
0  0  0
0  0  0
0  0  0
0  0  0
0  0  0
0  0  0
0  48  259
0  100  618
0  197  980
0  321  1326
0  381  1606
48  490  1872
177  598  2160
193  662  2396
289  759  2636
401  851  2821
514  867  2987
0  105  0
0  120  0
0  167  0
0  167  0
0  167  0
0  167  0
0  296  259
0  391  618
0  443  980
0  570  1326
0  662  1606
48  777  1872
177  859  2160
193  953  2396
289  1067  2636
401  1145  2821
514  1156  2987
0  466  0
0  468  0
0  486  0
0  502  0
0  502  0
0  502  90
0  502  259
0  580  618
0  697  980
0  809  1326
0  887  1606
48  1018  1872
177  1154  2160
193  1224  2396
289  1289  2636
401  1383  2821
514  1493  2987
0  858  0
0  896  0
0  917  0
0  917  0
0  917  0
0  917  152
0  917  323
0  917  618
0  977  980
0  1099  1326
0  1185  1606
48  1335  1872
177  1420  2160
193  1512  2396
289  1597  2636
401  1694  2821
514  1783  2987
0  1285  0
0  1293  0
0  1325  0
0  1325  0
0  1325  0
0  1325  218
0  1325  422
0  1325  677
0  1325  980
0  1397  1326
0  1477  1606
48  1638  1872
177  1726  2160
193  1799  2396
289  1855  2636
401  1935  2821
514  1975  2987
0  1674  0
0  1690  0
0  1717  0
0  1717  0
0  1717  84
0  1717  328
0  1717  506
0  1717  784
0  1717  1044
0  1717  1326
0  1753  1606
48  1909  1872
177  1983  2160
193  2075  2396
289  2154  2636
401  2213  2821
514  2248  2987
0  1987  0
0  2007  0
0  2023  0
0  2023  0
0  2023  145
0  2023  391
0  2023  594
0  2023  843
0  2023  1108
0  2023  1357
0  2023  1606
48  2164  1872
177  2236  2160
193  2327  2396
289  2391  2636
401  2459  2821
514  2473  2987
0  2273  0
0  2304  0
16  2323  0
48  2354  63
48  2354  249
48  2354  474
48  2354  711
48  2354  982
48  2354  1245
48  2354  1496
48  2354  1718
48  2354  1872
177  2418  2160
193  2529  2396
289  2608  2636
401  2654  2821
514  2714  2987
112  2626  0
128  2650  0
161  2670  0
177  2670  111
177  2670  333
177  2670  570
177  2670  817
177  2670  1068
177  2670  1325
177  2670  1571
177  2670  1789
177  2670  1951
177  2654  2160
193  2730  2396
289  2794  2636
401  2891  2821
514  2939  2987
161  2892  0
177  2924  0
225  2940  6
193  2940  176
193  2940  397
193  2940  664
193  2940  883
193  2940  1153
193  2940  1397
193  2940  1635
193  2940  1847
193  2940  2030
193  2940  2228
193  2924  2396
289  2974  2636
401  3052  2821
514  3164  2987
225  3121  0
241  3137  0
273  3176  36
289  3204  256
289  3204  462
289  3204  748
289  3204  935
289  3204  1206
289  3204  1437
289  3204  1709
289  3204  1929
289  3204  2094
289  3204  2276
289  3204  2437
289  3194  2636
401  3214  2821
514  3276  2987
337  3341  0
385  3383  0
401  3426  70
401  3426  297
401  3426  550
401  3426  811
401  3426  1044
401  3426  1304
401  3426  1526
401  3426  1763
401  3426  1965
401  3426  2140
401  3426  2361
401  3426  2483
401  3426  2642
401  3386  2821
514  3453  2987
450  3533  0
466  3565  0
482  3581  112
514  3613  337
514  3613  578
514  3613  819
514  3613  1140
514  3613  1381
514  3613  1558
514  3613  1799
514  3613  1975
514  3613  2200
514  3613  2409
514  3613  2585
514  3613  2698
514  3613  2842
514  3565  2987
0  0  0
0  0  0
0  0  0
0  0  0
0  0  0
0  0  0
0  0  211
0  0  569
9  0  931
33  0  1278
136  0  1558
246  0  1838
352  0  2112
426  0  2362
477  0  2559
586  0  2763
642  0  2923
0  0  0
0  0  0
0  0  0
0  0  0
0  0  0
0  0  0
0  0  261
21  0  644
33  0  1036
136  0  1346
246  0  1670
361  0  1918
426  0  2176
490  0  2405
589  18  2636
690  69  2827
707  112  2955
0  0  0
0  0  0
0  0  0
0  0  0
0  0  0
0  0  0
0  0  291
24  0  688
49  0  1060
156  0  1362
268  0  1700
403  42  1951
445  102  2216
518  183  2437
608  285  2662
712  379  2856
739  401  2987
0  0  0
0  0  0
0  0  0
0  0  0
0  0  0
0  0  15
0  0  323
30  0  715
123  72  1076
188  129  1394
297  210  1718
426  331  1967
477  410  2228
547  499  2453
663  604  2690
728  641  2876
787  674  3003
0  0  0
0  0  0
0  0  0
0  0  0
0  0  0
0  12  15
0  88  351
30  209  715
123  321  1076
201  389  1394
300  486  1718
439  610  1982
487  666  2228
547  759  2453
663  859  2690
728  935  2876
787  964  3003
0  105  0
0  185  0
0  217  0
0  233  0
0  233  0
0  233  15
0  376  351
30  458  715
123  570  1076
201  662  1394
300  775  1718
439  874  1982
487  957  2228
547  1034  2453
663  1161  2690
728  1242  2876
787  1204  3003
0  466  0
0  506  0
0  536  0
0  580  0
0  594  0
0  594  121
0  594  351
30  662  715
123  809  1076
201  903  1394
300  1004  1718
439  1158  1982
487  1233  2228
547  1289  2453
663  1415  2690
728  1467  2876
787  1558  3003
0  858  0
21  943  0
24  982  0
30  1019  0
30  1019  12
30  1019  218
30  1019  401
30  1019  715
123  1131  1076
201  1196  1394
300  1319  1718
439  1442  1982
487  1512  2228
547  1575  2453
663  1699  2690
728  1764  2876
787  1799  3003
9  1285  0
33  1389  0
49  1413  0
123  1437  0
123  1437  84
123  1437  328
123  1437  506
123  1437  805
123  1437  1076
201  1477  1394
300  1598  1718
439  1742  1982
487  1783  2228
547  1879  2453
663  1951  2690
728  2048  2876
787  2088  3003
33  1674  0
136  1753  0
156  1763  0
188  1796  0
201  1796  157
201  1796  391
201  1796  598
201  1796  854
201  1796  1108
201  1796  1394
300  1871  1718
439  2027  1982
487  2085  2228
547  2139  2453
663  2251  2690
728  2277  2876
787  2312  3003
136  1987  0
246  2116  0
268  2134  0
297  2164  27
300  2164  245
300  2164  473
300  2164  711
300  2164  966
300  2164  1220
300  2164  1458
300  2164  1718
439  2278  1982
487  2331  2228
547  2391  2453
663  2475  2690
728  2565  2876
787  2521  3003
246  2273  0
361  2386  0
403  2418  0
426  2436  97
439  2481  357
439  2481  585
439  2481  819
439  2481  1079
439  2481  1341
439  2481  1604
439  2481  1831
439  2481  1982
487  2498  2228
547  2608  2453
663  2706  2690
728  2707  2876
787  2730  3003
352  2626  0
426  2690  0
445  2730  0
477  2746  176
487  2746  397
487  2746  667
487  2746  893
487  2746  1153
487  2746  1381
487  2746  1640
487  2746  1849
487  2746  2014
487  2746  2228
547  2790  2453
663  2907  2690
728  2955  2876
787  2955  3003
426  2892  0
490  2958  0
518  2974  18
547  2997  249
547  2997  462
547  2997  729
547  2997  935
547  2997  1206
547  2997  1469
547  2997  1699
547  2997  1929
547  2997  2094
547  2997  2272
547  2974  2453
663  3082  2690
728  3107  2876
787  3164  3003
477  3121  0
589  3204  0
608  3234  48
663  3262  345
663  3262  566
663  3262  841
663  3262  1058
663  3262  1304
663  3262  1542
663  3262  1807
663  3262  1995
663  3262  2192
663  3262  2377
663  3262  2522
663  3240  2690
728  3278  2876
787  3292  3003
586  3341  0
690  3432  0
712  3448  143
728  3483  382
728  3483  646
728  3483  905
728  3483  1112
728  3483  1363
728  3483  1614
728  3483  1812
728  3483  2058
728  3483  2192
728  3483  2417
728  3483  2552
728  3483  2706
728  3448  2876
787  3469  3003
642  3533  0
707  3581  0
739  3613  161
787  3613  401
787  3613  674
787  3613  867
787  3613  1172
787  3613  1397
787  3613  1654
787  3613  1847
787  3613  2023
787  3613  2232
787  3613  2425
787  3613  2602
787  3613  2714
787  3613  2875
787  3613  3003
0  0  0
0  0  0
0  0  0
0  0  0
0  0  0
0  0  0
48  0  211
145  0  569
235  0  931
301  0  1278
422  0  1558
492  0  1838
590  0  2112
703  0  2362
739  0  2559
851  0  2763
867  0  2923
0  0  0
0  0  0
0  0  0
0  0  0
0  0  0
36  0  0
96  0  261
235  0  644
307  0  1036
371  0  1346
492  0  1670
590  0  1918
672  0  2176
749  0  2405
851  18  2636
909  69  2827
964  112  2955
0  0  0
0  0  0
0  0  0
6  0  0
36  0  0
96  0  105
219  0  369
301  0  741
422  0  1100
492  0  1458
584  24  1720
723  124  2014
791  195  2272
861  253  2467
933  359  2700
1050  444  2882
1092  466  3003
0  0  0
0  0  0
6  0  0
18  0  0
42  0  0
132  0  105
235  0  401
327  36  757
450  106  1124
514  185  1458
616  283  1738
751  417  2030
823  499  2325
879  556  2483
986  634  2726
1056  724  2914
1140  755  3019
0  0  0
0  0  0
36  0  0
42  0  0
48  12  0
161  84  120
285  197  422
355  309  784
472  414  1148
562  490  1496
648  562  1783
767  715  2077
833  775  2329
905  847  2522
1012  951  2748
1092  1048  2930
1156  1044  3099
0  105  0
36  185  0
96  327  0
132  343  0
161  375  0
171  375  120
295  459  436
349  553  784
472  679  1148
562  777  1496
638  856  1783
767  1018  2077
833  1069  2329
915  1161  2522
1012  1258  2748
1092  1355  2930
1156  1317  3099
48  466  0
96  506  0
219  646  0
235  662  0
285  697  0
295  711  218
295  711  436
349  777  784
472  903  1148
562  1018  1496
638  1098  1783
767  1239  2077
833  1345  2329
915  1383  2522
1012  1481  2748
1092  1564  2930
1156  1686  3099
145  858  0
235  943  0
301  1051  0
327  1083  0
355  1099  84
349  1099  297
349  1099  488
349  1099  784
472  1195  1148
562  1330  1496
638  1383  1783
767  1554  2077
833  1624  2329
915  1694  2522
1012  1781  2748
1092  1849  2930
1156  1895  3099
235  1285  0
307  1389  0
422  1469  0
450  1493  0
472  1510  169
472  1510  408
472  1510  598
472  1510  853
472  1510  1148
562  1598  1496
638  1686  1783
767  1823  2077
833  1895  2329
915  1951  2522
1012  2056  2748
1092  2160  2930
1156  2184  3099
301  1674  0
371  1753  0
492  1860  0
514  1876  9
562  1909  249
562  1909  474
562  1909  711
562  1909  977
562  1909  1220
562  1909  1496
638  1957  1783
767  2096  2077
833  2169  2329
915  2229  2522
1012  2320  2748
1092  2385  2930
1156  2377  3099
422  1987  0
492  2116  0
584  2180  0
616  2214  63
648  2232  309
638  2232  568
638  2232  775
638  2232  1030
638  2232  1309
638  2232  1534
638  2232  1783
767  2345  2077
833  2415  2329
915  2459  2522
1012  2585  2748
1092  2648  2930
1156  2650  3099
492  2273  0
590  2386  0
723  2498  0
751  2529  176
767  2560  434
767  2560  699
767  2560  901
767  2560  1185
767  2560  1429
767  2560  1651
767  2560  1877
767  2560  2077
833  2638  2329
915  2670  2522
1012  2709  2748
1092  2773  2930
1156  2923  3099
590  2626  0
672  2690  0
791  2790  36
823  2842  249
833  2862  490
833  2862  750
833  2862  992
833  2862  1245
833  2862  1485
833  2862  1719
833  2862  1947
833  2862  2124
833  2862  2329
915  2891  2522
1012  2959  2748
1092  3007  2930
1156  3067  3099
703  2892  0
749  2958  0
861  3022  42
879  3052  297
905  3082  558
915  3082  841
915  3082  1016
915  3082  1304
915  3082  1542
915  3082  1796
915  3082  1965
915  3082  2157
915  3082  2361
915  3082  2522
1012  3130  2748
1092  3192  2930
1156  3228  3099
739  3121  0
851  3204  0
933  3272  132
986  3298  368
1012  3326  662
1012  3326  907
1012  3326  1126
1012  3326  1390
1012  3326  1622
1012  3326  1850
1012  3326  2074
1012  3326  2209
1012  3326  2425
1012  3326  2577
1012  3304  2748
1092  3362  2930
1156  3404  3099
851  3341  0
909  3432  0
1050  3505  203
1056  3521  440
1092  3553  735
1092  3553  988
1092  3553  1176
1092  3553  1442
1092  3553  1702
1092  3553  1924
1092  3553  2136
1092  3553  2258
1092  3553  2449
1092  3553  2630
1092  3553  2774
1092  3521  2930
1156  3533  3099
867  3533  0
964  3581  0
1092  3629  225
1140  3645  466
1156  3710  739
1156  3710  964
1156  3710  1285
1156  3710  1493
1156  3710  1734
1156  3710  1911
1156  3710  2136
1156  3710  2377
1156  3710  2521
1156  3710  2666
1156  3710  2810
1156  3710  2923
1156  3710  3099
63  0  0
63  0  0
63  0  0
63  0  0
93  0  0
169  0  0
256  0  211
386  0  569
474  0  931
590  0  1278
650  0  1558
770  0  1838
868  0  2112
985  0  2362
1036  0  2559
1116  0  2763
1108  0  2923
63  0  0
151  0  0
151  0  0
151  0  0
192  0  0
242  0  0
354  0  261
474  0  644
590  0  1036
650  0  1346
754  0  1670
854  0  1918
932  0  2176
1043  0  2405
1155  18  2636
1203  69  2827
