PS/3DLUTs/Insta-lord-kelvin.3dl
#Created by: Generate3DLut
#Generator: Copyright 2012 by Linus Hechinger
0 128 256 384 512 639 767 895 1023
642  369  1253
642  369  1253
642  369  1265
642  369  1321
642  369  1526
642  369  1903
642  369  2397
642  369  2569
642  369  2569
642  903  1253
642  903  1253
642  903  1265
642  903  1321
642  903  1526
642  903  1903
642  903  2397
642  903  2569
642  867  2569
642  1409  1253
642  1409  1253
642  1409  1265
642  1409  1321
642  1409  1526
642  1409  1903
642  1409  2397
642  1409  2569
642  1349  2569
642  1891  1253
642  1891  1253
642  1891  1265
642  1891  1321
642  1891  1526
642  1891  1903
642  1891  2397
642  1891  2569
642  1879  2569
642  2329  1253
642  2329  1253
642  2329  1265
642  2329  1321
642  2329  1526
642  2329  1903
642  2329  2397
642  2329  2569
642  2296  2569
642  2754  1253
642  2754  1253
642  2754  1265
642  2754  1321
642  2754  1526
642  2754  1903
642  2754  2397
642  2754  2569
642  2698  2569
642  3131  1253
642  3131  1253
642  3131  1265
642  3131  1321
642  3131  1526
642  3131  1903
642  3131  2397
642  3131  2569
642  3115  2569
642  3421  1253
642  3421  1253
642  3421  1265
642  3421  1321
642  3421  1526
642  3421  1903
642  3421  2397
642  3421  2569
642  3421  2569
642  3421  1253
642  3421  1253
642  3421  1253
642  3421  1317
642  3421  1510
642  3421  1847
642  3421  2377
642  3421  2569
642  3421  2569
1564  369  1253
1564  369  1253
1564  369  1265
1564  369  1321
1564  369  1526
1564  369  1903
1564  369  2397
1564  369  2569
1510  369  2569
1564  903  1253
1564  903  1253
1564  903  1265
1564  903  1321
1564  903  1526
1564  903  1903
1564  903  2397
1564  903  2569
1510  867  2569
1564  1409  1253
1564  1409  1253
1564  1409  1265
1564  1409  1321
1564  1409  1526
1564  1409  1903
1564  1409  2397
1564  1409  2569
1510  1349  2569
1564  1891  1253
1564  1891  1253
1564  1891  1265
1564  1891  1321
1564  1891  1526
1564  1891  1903
1564  1891  2397
1564  1891  2569
1510  1879  2569
1564  2329  1253
1564  2329  1253
1564  2329  1265
1564  2329  1321
1564  2329  1526
1564  2329  1903
1564  2329  2397
1564  2329  2569
1510  2296  2569
1564  2754  1253
1564  2754  1253
1564  2754  1265
1564  2754  1321
1564  2754  1526
1564  2754  1903
1564  2754  2397
1564  2754  2569
1510  2698  2569
1564  3131  1253
1564  3131  1253
1564  3131  1265
1564  3131  1321
1564  3131  1526
1564  3131  1903
1564  3131  2397
1564  3131  2569
1510  3115  2569
1564  3421  1253
1564  3421  1253
1564  3421  1265
1564  3421  1321
1564  3421  1526
1564  3421  1903
1564  3421  2397
1564  3421  2569
1510  3421  2569
1510  3421  1253
1510  3421  1253
1510  3421  1253
1510  3421  1317
1510  3421  1510
1510  3421  1847
1510  3421  2377
1510  3421  2569
1510  3421  2569
2381  369  1253
2381  369  1253
2381  369  1265
2381  369  1321
2381  369  1526
2381  369  1903
2381  369  2397
2381  369  2569
2296  369  2569
2381  903  1253
2381  903  1253
2381  903  1265
2381  903  1321
2381  903  1526
2381  903  1903
2381  903  2397
2381  903  2569
2296  867  2569
2381  1409  1253
2381  1409  1253
2381  1409  1265
2381  1409  1321
2381  1409  1526
2381  1409  1903
2381  1409  2397
2381  1409  2569
2296  1349  2569
2381  1891  1253
2381  1891  1253
2381  1891  1265
2381  1891  1321
2381  1891  1526
2381  1891  1903
2381  1891  2397
2381  1891  2569
2296  1879  2569
2381  2329  1253
2381  2329  1253
2381  2329  1265
2381  2329  1321
2381  2329  1526
2381  2329  1903
2381  2329  2397
2381  2329  2569
2296  2296  2569
2381  2754  1253
2381  2754  1253
2381  2754  1265
2381  2754  1321
2381  2754  1526
2381  2754  1903
2381  2754  2397
2381  2754  2569
2296  2698  2569
2381  3131  1253
2381  3131  1253
2381  3131  1265
2381  3131  1321
2381  3131  1526
2381  3131  1903
2381  3131  2397
2381  3131  2569
2296  3115  2569
2381  3421  1253
2381  3421  1253
2381  3421  1265
2381  3421  1321
2381  3421  1526
2381  3421  1903
2381  3421  2397
2381  3421  2569
2296  3421  2569
2296  3421  1253
2296  3421  1253
2296  3421  1253
2296  3421  1317
2296  3421  1510
2296  3421  1847
2296  3421  2377
2296  3421  2569
2296  3421  2569
2965  369  1253
2965  369  1253
2965  369  1265
2965  369  1321
2965  369  1526
2965  369  1903
2965  369  2397
2965  369  2569
2955  369  2569
2965  903  1253
2965  903  1253
2965  903  1265
2965  903  1321
2965  903  1526
2965  903  1903
2965  903  2397
2965  903  2569
2955  867  2569
2965  1409  1253
2965  1409  1253
2965  1409  1265
2965  1409  1321
2965  1409  1526
2965  1409  1903
2965  1409  2397
2965  1409  2569
2955  1349  2569
2965  1891  1253
2965  1891  1253
2965  1891  1265
2965  1891  1321
2965  1891  1526
2965  1891  1903
2965  1891  2397
2965  1891  2569
2955  1879  2569
2965  2329  1253
2965  2329  1253
2965  2329  1265
2965  2329  1321
2965  2329  1526
2965  2329  1903
2965  2329  2397
2965  2329  2569
2955  2296  2569
2965  2754  1253
2965  2754  1253
2965  2754  1265
2965  2754  1321
2965  2754  1526
2965  2754  1903
2965  2754  2397
2965  2754  2569
2955  2698  2569
2965  3131  1253
2965  3131  1253
2965  3131  1265
2965  3131  1321
2965  3131  1526
2965  3131  1903
2965  3131  2397
2965  3131  2569
2955  3115  2569
2965  3421  1253
2965  3421  1253
2965  3421  1265
2965  3421  1321
2965  3421  1526
2965  3421  1903
2965  3421  2397
2965  3421  2569
2955  3421  2569
2955  3421  1253
2955  3421  1253
2955  3421  1253
2955  3421  1317
2955  3421  1510
2955  3421  1847
2955  3421  2377
2955  3421  2569
2955  3421  2569
3396  369  1253
3396  369  1253
3396  369  1265
3396  369  1321
3396  369  1526
3396  369  1903
3396  369  2397
3396  369  2569
3372  369  2569
3396  903  1253
3396  903  1253
3396  903  1265
3396  903  1321
3396  903  1526
3396  903  1903
3396  903  2397
3396  903  2569
3372  867  2569
3396  1409  1253
3396  1409  1253
3396  1409  1265
3396  1409  1321
3396  1409  1526
3396  1409  1903
3396  1409  2397
3396  1409  2569
3372  1349  2569
3396  1891  1253
3396  1891  1253
3396  1891  1265
3396  1891  1321
3396  1891  1526
3396  1891  1903
3396  1891  2397
3396  1891  2569
3372  1879  2569
3396  2329  1253
3396  2329  1253
3396  2329  1265
3396  2329  1321
3396  2329  1526
3396  2329  1903
3396  2329  2397
3396  2329  2569
3372  2296  2569
3396  2754  1253
3396  2754  1253
3396  2754  1265
3396  2754  1321
3396  2754  1526
3396  2754  1903
3396  2754  2397
3396  2754  2569
3372  2698  2569
3396  3131  1253
3396  3131  1253
3396  3131  1265
3396  3131  1321
3396  3131  1526
3396  3131  1903
3396  3131  2397
3396  3131  2569
3372  3115  2569
3396  3421  1253
3396  3421  1253
3396  3421  1265
3396  3421  1321
3396  3421  1526
3396  3421  1903
3396  3421  2397
3396  3421  2569
3372  3421  2569
3372  3421  1253
3372  3421  1253
3372  3421  1253
3372  3421  1317
3372  3421  1510
3372  3421  1847
3372  3421  2377
3372  3421  2569
3372  3421  2569
3657  369  1253
3657  369  1253
3657  369  1265
3657  369  1321
3657  369  1526
3657  369  1903
3657  369  2397
3657  369  2569
3629  369  2569
3657  903  1253
3657  903  1253
3657  903  1265
3657  903  1321
3657  903  1526
3657  903  1903
3657  903  2397
3657  903  2569
3629  867  2569
3657  1409  1253
3657  1409  1253
3657  1409  1265
3657  1409  1321
3657  1409  1526
3657  1409  1903
3657  1409  2397
3657  1409  2569
3629  1349  2569
3657  1891  1253
3657  1891  1253
3657  1891  1265
3657  1891  1321
3657  1891  1526
3657  1891  1903
3657  1891  2397
3657  1891  2569
3629  1879  2569
3657  2329  1253
3657  2329  1253
3657  2329  1265
3657  2329  1321
3657  2329  1526
3657  2329  1903
3657  2329  2397
3657  2329  2569
3629  2296  2569
3657  2754  1253
3657  2754  1253
3657  2754  1265
3657  2754  1321
3657  2754  1526
3657  2754  1903
3657  2754  2397
3657  2754  2569
3629  2698  2569
3657  3131  1253
3657  3131  1253
3657  3131  1265
3657  3131  1321
3657  3131  1526
3657  3131  1903
3657  3131  2397
3657  3131  2569
3629  3115  2569
3657  3421  1253
3657  3421  1253
3657  3421  1265
3657  3421  1321
3657  3421  1526
3657  3421  1903
3657  3421  2397
3657  3421  2569
3629  3421  2569
3629  3421  1253
3629  3421  1253
3629  3421  1253
3629  3421  1317
3629  3421  1510
3629  3421  1847
3629  3421  2377
3629  3421  2569
3629  3421  2569
3846  369  1253
3846  369  1253
3846  369  1265
3846  369  1321
3846  369  1526
3846  369  1903
3846  369  2397
3846  369  2569
3838  369  2569
3846  903  1253
3846  903  1253
3846  903  1265
3846  903  1321
3846  903  1526
3846  903  1903
3846  903  2397
3846  903  2569
3838  867  2569
3846  1409  1253
3846  1409  1253
3846  1409  1265
3846  1409  1321
3846  1409  1526
3846  1409  1903
3846  1409  2397
3846  1409  2569
3838  1349  2569
3846  1891  1253
3846  1891  1253
3846  1891  1265
3846  1891  1321
3846  1891  1526
3846  1891  1903
3846  1891  2397
3846  1891  2569
3838  1879  2569
3846  2329  1253
3846  2329  1253
3846  2329  1265
3846  2329  1321
3846  2329  1526
3846  2329  1903
3846  2329  2397
3846  2329  2569
3838  2296  2569
3846  2754  1253
3846  2754  1253
3846  2754  1265
3846  2754  1321
3846  2754  1526
3846  2754  1903
3846  2754  2397
3846  2754  2569
3838  2698  2569
3846  3131  1253
3846  3131  1253
3846  3131  1265
3846  3131  1321
3846  3131  1526
3846  3131  1903
3846  3131  2397
3846  3131  2569
3838  3115  2569
3846  3421  1253
3846  3421  1253
3846  3421  1265
3846  3421  1321
3846  3421  1526
3846  3421  1903
3846  3421  2397
3846  3421  2569
3838  3421  2569
3838  3421  1253
3838  3421  1253
3838  3421  1253
3838  3421  1317
3838  3421  1510
3838  3421  1847
3838  3421  2377
3838  3421  2569
3838  3421  2569
3944  369  1253
3944  369  1253
3944  369  1265
3944  369  1321
3944  369  1526
3944  369  1903
3944  369  2397
3944  369  2569
3934  369  2569
3944  903  1253
3944  903  1253
3944  903  1265
3944  903  1321
3944  903  1526
3944  903  1903
3944  903  2397
3944  903  2569
3934  867  2569
3944  1409  1253
3944  1409  1253
3944  1409  1265
3944  1409  1321
3944  1409  1526
3944  1409  1903
3944  1409  2397
3944  1409  2569
3934  1349  2569
3944  1891  1253
3944  1891  1253
3944  1891  1265
3944  1891  1321
3944  1891  1526
3944  1891  1903
3944  1891  2397
3944  1891  2569
3934  1879  2569
3944  2329  1253
3944  2329  1253
3944  2329  1265
3944  2329  1321
3944  2329  1526
3944  2329  1903
3944  2329  2397
3944  2329  2569
3934  2296  2569
3944  2754  1253
3944  2754  1253
3944  2754  1265
3944  2754  1321
3944  2754  1526
3944  2754  1903
3944  2754  2397
3944  2754  2569
3934  2698  2569
3944  3131  1253
3944  3131  1253
3944  3131  1265
3944  3131  1321
3944  3131  1526
3944  3131  1903
3944  3131  2397
3944  3131  2569
3934  3115  2569
3944  3421  1253
3944  3421  1253
3944  3421  1265
3944  3421  1321
3944  3421  1526
3944  3421  1903
3944  3421  2397
3944  3421  2569
3934  3421  2569
3934  3421  1253
3934  3421  1253
3934  3421  1253
3934  3421  1317
3934  3421  1510
3934  3421  1847
3934  3421  2377
3934  3421  2569
3934  3421  2569
4015  369  1253
4015  369  1253
4015  369  1253
4015  369  1317
4015  369  1510
4015  369  1847
4015  369  2377
4015  369  2569
4015  369  2569
4015  867  1253
4015  867  1253
4015  867  1253
4015  867  1317
4015  867  1510
4015  867  1847
4015  867  2377
4015  867  2569
4015  867  2569
4015  1349  1253
4015  1349  1253
4015  1349  1253
4015  1349  1317
4015  1349  1510
4015  1349  1847
4015  1349  2377
4015  1349  2569
4015  1349  2569
4015  1879  1253
4015  1879  1253
4015  1879  1253
4015  1879  1317
4015  1879  1510
4015  1879  1847
4015  1879  2377
4015  1879  2569
4015  1879  2569
4015  2296  1253
4015  2296  1253
4015  2296  1253
4015  2296  1317
4015  2296  1510
4015  2296  1847
4015  2296  2377
4015  2296  2569
4015  2296  2569
4015  2698  1253
4015  2698  1253
4015  2698  1253
4015  2698  1317
4015  2698  1510
4015  2698  1847
4015  2698  2377
4015  2698  2569
4015  2698  2569
4015  3115  1253
4015  3115  1253
4015  3115  1253
4015  3115  1317
4015  3115  1510
4015  3115  1847
4015  3115  2377
4015  3115  2569
4015  3115  2569
4015  3421  1253
4015  3421  1253
4015  3421  1253
4015  3421  1317
4015  3421  1510
4015  3421  1847
4015  3421  2377
4015  3421  2569
4015  3421  2569
4015  3421  1253
4015  3421  1253
4015  3421  1253
4015  3421  1317
4015  3421  1510
4015  3421  1847
4015  3421  2377
4015  3421  2569
4015  3421  2569
