PS/3DLUTs/Insta-sutro.3dl
#Created by: Generate3DLut
#Generator: Copyright 2012 by Linus Hechinger
0 256 512 767 1023
707  48  177
739  161  373
883  305  1301
947  401  2092
980  450  2329
739  377  209
739  389  373
883  570  1301
947  678  2092
980  707  2329
867  1333  321
867  1333  550
883  1341  1301
947  1654  2092
980  1702  2329
947  2204  401
947  2204  674
947  2204  1622
947  2192  2068
980  2296  2329
1012  2505  450
1012  2505  691
1012  2505  1702
1012  2505  2168
1012  2489  2345
927  145  225
939  161  373
1100  305  1309
1168  401  2092
1188  466  2345
939  393  241
1052  522  502
1233  763  1678
1433  1004  2389
1461  1028  2650
1100  1381  337
1204  1710  715
1233  1734  1678
1433  2007  2389
1461  2088  2650
1180  2228  418
1437  2553  1024
1437  2553  1967
1437  2553  2401
1461  2634  2650
1204  2537  466
1477  2891  1060
1477  2891  2039
1477  2891  2489
1477  2891  2666
1654  305  321
1654  305  550
1678  305  1309
1927  401  2092
2007  466  2345
1678  570  337
1991  743  715
1999  763  1678
2240  1008  2401
2280  1028  2650
1686  1381  337
2007  1750  731
2457  2256  2192
2682  2521  2854
2714  2553  3083
1943  2228  418
2272  2573  1028
2698  3067  2441
2698  3067  2879
2714  3164  3083
2007  2537  466
2345  2923  1092
2746  3404  2489
2746  3404  2955
2746  3404  3115
2389  401  401
2389  401  674
2389  401  1590
2389  401  2084
2473  466  2345
2397  678  401
2694  1004  988
2694  1004  1951
2694  1008  2401
2746  1028  2650
2397  1654  401
2718  2015  1000
3131  2529  2441
3131  2545  2879
3180  2569  3115
2389  2228  418
2722  2573  1028
3144  3095  2465
3380  3380  3127
3453  3437  3356
2505  2537  466
2810  2923  1092
3228  3404  2505
3469  3694  3244
3485  3710  3404
2650  450  450
2650  450  691
2650  450  1638
2650  450  2168
2650  466  2329
2666  707  450
2955  1028  1028
2955  1028  2023
2955  1028  2473
2955  1028  2650
2666  1718  450
2971  2088  1028
3388  2569  2489
3404  2602  2955
3404  2602  3131
2666  2312  450
2971  2666  1028
3388  3180  2489
3645  3469  3196
3677  3469  3404
2666  2537  466
3003  2923  1092
3404  3404  2505
3677  3694  3244
3742  3742  3437
