PS/3DLUTs/Insta-XproII.3dl
#Created by: Generate3DLut
#Generator: Copyright 2012 by Linus Hechinger
0 64 128 192 256 320 384 448 512 575 639 703 767 831 895 959 1023
0  0  755
0  0  793
0  0  857
0  0  949
0  0  1052
0  0  1201
0  0  1357
0  0  1598
0  0  1855
0  0  2138
0  0  2383
0  0  2622
0  0  2802
0  0  2985
0  0  3135
0  0  3251
0  0  3324
0  0  755
0  0  793
0  0  857
0  0  949
0  0  1052
0  0  1201
0  0  1357
0  0  1598
0  0  1855
0  0  2138
0  0  2383
0  0  2622
0  0  2802
0  0  2985
0  0  3135
0  0  3251
0  0  3324
0  102  755
0  102  793
0  102  857
0  102  949
0  102  1052
0  102  1201
0  102  1357
0  102  1598
0  102  1855
0  102  2138
0  102  2383
0  102  2622
0  102  2802
0  102  2985
0  102  3135
0  102  3251
0  96  3324
0  277  755
0  277  793
0  277  857
0  277  949
0  277  1052
0  277  1201
0  277  1357
0  277  1598
0  277  1855
0  277  2138
0  277  2383
0  277  2622
0  277  2802
0  277  2985
0  277  3135
0  277  3251
0  241  3324
0  494  755
0  494  793
0  494  857
0  494  949
0  494  1052
0  494  1201
0  494  1357
0  494  1598
0  494  1855
0  494  2138
0  494  2383
0  494  2622
0  494  2802
0  494  2985
0  494  3135
0  494  3251
0  434  3324
0  765  755
0  765  793
0  765  857
0  765  949
0  765  1052
0  765  1201
0  765  1357
0  765  1598
0  765  1855
0  765  2138
0  765  2383
0  765  2622
0  765  2802
0  765  2985
0  765  3135
0  765  3251
0  674  3324
0  1072  755
0  1072  793
0  1072  857
0  1072  949
0  1072  1052
0  1072  1201
0  1072  1357
0  1072  1598
0  1072  1855
0  1072  2138
0  1072  2383
0  1072  2622
0  1072  2802
0  1072  2985
0  1072  3135
0  1072  3251
0  1060  3324
0  1421  755
0  1421  793
0  1421  857
0  1421  949
0  1421  1052
0  1421  1201
0  1421  1357
0  1421  1598
0  1421  1855
0  1421  2138
0  1421  2383
0  1421  2622
0  1421  2802
0  1421  2985
0  1421  3135
0  1421  3251
0  1381  3324
0  1815  755
0  1815  793
0  1815  857
0  1815  949
0  1815  1052
0  1815  1201
0  1815  1357
0  1815  1598
0  1815  1855
0  1815  2138
0  1815  2383
0  1815  2622
0  1815  2802
0  1815  2985
0  1815  3135
0  1815  3251
0  1750  3324
0  2284  755
0  2284  793
0  2284  857
0  2284  949
0  2284  1052
0  2284  1201
0  2284  1357
0  2284  1598
0  2284  1855
0  2284  2138
0  2284  2383
0  2284  2622
0  2284  2802
0  2284  2985
0  2284  3135
0  2284  3251
0  2152  3324
0  2684  755
0  2684  793
0  2684  857
0  2684  949
0  2684  1052
0  2684  1201
0  2684  1357
0  2684  1598
0  2684  1855
0  2684  2138
0  2684  2383
0  2684  2622
0  2684  2802
0  2684  2985
0  2684  3135
0  2684  3251
0  2585  3324
0  3026  755
0  3026  793
0  3026  857
0  3026  949
0  3026  1052
0  3026  1201
0  3026  1357
0  3026  1598
0  3026  1855
0  3026  2138
0  3026  2383
0  3026  2622
0  3026  2802
0  3026  2985
0  3026  3135
0  3026  3251
0  3019  3324
0  3340  755
0  3340  793
0  3340  857
0  3340  949
0  3340  1052
0  3340  1201
0  3340  1357
0  3340  1598
0  3340  1855
0  3340  2138
0  3340  2383
0  3340  2622
0  3340  2802
0  3340  2985
0  3340  3135
0  3340  3251
0  3324  3324
0  3570  755
0  3570  793
0  3570  857
0  3570  949
0  3570  1052
0  3570  1201
0  3570  1357
0  3570  1598
0  3570  1855
0  3570  2138
0  3570  2383
0  3570  2622
0  3570  2802
0  3570  2985
0  3570  3135
0  3570  3251
0  3549  3324
0  3734  755
0  3734  793
0  3734  857
0  3734  949
0  3734  1052
0  3734  1201
0  3734  1357
0  3734  1598
0  3734  1855
0  3734  2138
0  3734  2383
0  3734  2622
0  3734  2802
0  3734  2985
0  3734  3135
0  3734  3251
0  3694  3324
0  3864  755
0  3864  793
0  3864  857
0  3864  949
0  3864  1052
0  3864  1201
0  3864  1357
0  3864  1598
0  3864  1855
0  3864  2138
0  3864  2383
0  3864  2622
0  3864  2802
0  3864  2985
0  3864  3135
0  3864  3251
0  3838  3324
0  3870  755
0  3870  787
0  3870  851
0  3870  931
0  3870  1028
0  3870  1156
0  3870  1349
0  3870  1558
0  3870  1815
0  3870  2072
0  3870  2312
0  3870  2618
0  3870  2778
0  3870  2971
0  3870  3115
0  3870  3212
0  3870  3324
0  0  755
0  0  793
0  0  857
0  0  949
0  0  1052
0  0  1201
0  0  1357
0  0  1598
0  0  1855
0  0  2138
0  0  2383
0  0  2622
0  0  2802
0  0  2985
0  0  3135
0  0  3251
0  0  3324
0  0  755
0  0  793
0  0  857
0  0  949
0  0  1052
0  0  1201
0  0  1357
0  0  1598
0  0  1855
0  0  2138
0  0  2383
0  0  2622
0  0  2802
0  0  2985
0  0  3135
0  0  3251
0  0  3324
0  102  755
0  102  793
0  102  857
0  102  949
0  102  1052
0  102  1201
0  102  1357
0  102  1598
0  102  1855
0  102  2138
0  102  2383
0  102  2622
0  102  2802
0  102  2985
0  102  3135
0  102  3251
0  96  3324
0  277  755
0  277  793
0  277  857
0  277  949
0  277  1052
0  277  1201
0  277  1357
0  277  1598
0  277  1855
0  277  2138
0  277  2383
0  277  2622
0  277  2802
0  277  2985
0  277  3135
0  277  3251
0  241  3324
0  494  755
0  494  793
0  494  857
0  494  949
0  494  1052
0  494  1201
0  494  1357
0  494  1598
0  494  1855
0  494  2138
0  494  2383
0  494  2622
0  494  2802
0  494  2985
0  494  3135
0  494  3251
0  434  3324
0  765  755
0  765  793
0  765  857
0  765  949
0  765  1052
0  765  1201
0  765  1357
0  765  1598
0  765  1855
0  765  2138
0  765  2383
0  765  2622
0  765  2802
0  765  2985
0  765  3135
0  765  3251
0  674  3324
0  1072  755
0  1072  793
0  1072  857
0  1072  949
0  1072  1052
0  1072  1201
0  1072  1357
0  1072  1598
0  1072  1855
0  1072  2138
0  1072  2383
0  1072  2622
0  1072  2802
0  1072  2985
0  1072  3135
0  1072  3251
0  1060  3324
0  1421  755
0  1421  793
0  1421  857
0  1421  949
0  1421  1052
0  1421  1201
0  1421  1357
0  1421  1598
0  1421  1855
0  1421  2138
0  1421  2383
0  1421  2622
0  1421  2802
0  1421  2985
0  1421  3135
0  1421  3251
0  1381  3324
0  1815  755
0  1815  793
0  1815  857
0  1815  949
0  1815  1052
0  1815  1201
0  1815  1357
0  1815  1598
0  1815  1855
0  1815  2138
0  1815  2383
0  1815  2622
0  1815  2802
0  1815  2985
0  1815  3135
0  1815  3251
0  1750  3324
0  2284  755
0  2284  793
0  2284  857
0  2284  949
0  2284  1052
0  2284  1201
0  2284  1357
0  2284  1598
0  2284  1855
0  2284  2138
0  2284  2383
0  2284  2622
0  2284  2802
0  2284  2985
0  2284  3135
0  2284  3251
0  2152  3324
0  2684  755
0  2684  793
0  2684  857
0  2684  949
0  2684  1052
0  2684  1201
0  2684  1357
0  2684  1598
0  2684  1855
0  2684  2138
0  2684  2383
0  2684  2622
0  2684  2802
0  2684  2985
0  2684  3135
0  2684  3251
0  2585  3324
0  3026  755
0  3026  793
0  3026  857
0  3026  949
0  3026  1052
0  3026  1201
0  3026  1357
0  3026  1598
0  3026  1855
0  3026  2138
0  3026  2383
0  3026  2622
0  3026  2802
0  3026  2985
0  3026  3135
0  3026  3251
0  3019  3324
0  3340  755
0  3340  793
0  3340  857
0  3340  949
0  3340  1052
0  3340  1201
0  3340  1357
0  3340  1598
0  3340  1855
0  3340  2138
0  3340  2383
0  3340  2622
0  3340  2802
0  3340  2985
0  3340  3135
0  3340  3251
0  3324  3324
0  3570  755
0  3570  793
0  3570  857
0  3570  949
0  3570  1052
0  3570  1201
0  3570  1357
0  3570  1598
0  3570  1855
0  3570  2138
0  3570  2383
0  3570  2622
0  3570  2802
0  3570  2985
0  3570  3135
0  3570  3251
0  3549  3324
0  3734  755
0  3734  793
0  3734  857
0  3734  949
0  3734  1052
0  3734  1201
0  3734  1357
0  3734  1598
0  3734  1855
0  3734  2138
0  3734  2383
0  3734  2622
0  3734  2802
0  3734  2985
0  3734  3135
0  3734  3251
0  3694  3324
0  3864  755
0  3864  793
0  3864  857
0  3864  949
0  3864  1052
0  3864  1201
0  3864  1357
0  3864  1598
0  3864  1855
0  3864  2138
0  3864  2383
0  3864  2622
0  3864  2802
0  3864  2985
0  3864  3135
0  3864  3251
0  3838  3324
0  3870  755
0  3870  787
0  3870  851
0  3870  931
0  3870  1028
0  3870  1156
0  3870  1349
0  3870  1558
0  3870  1815
0  3870  2072
0  3870  2312
0  3870  2618
0  3870  2778
0  3870  2971
0  3870  3115
0  3870  3212
0  3870  3324
0  0  755
0  0  793
0  0  857
0  0  949
0  0  1052
0  0  1201
0  0  1357
0  0  1598
0  0  1855
0  0  2138
0  0  2383
0  0  2622
0  0  2802
0  0  2985
0  0  3135
0  0  3251
0  0  3324
0  0  755
0  0  793
0  0  857
0  0  949
0  0  1052
0  0  1201
0  0  1357
0  0  1598
0  0  1855
0  0  2138
0  0  2383
0  0  2622
0  0  2802
0  0  2985
0  0  3135
0  0  3251
0  0  3324
0  102  755
0  102  793
0  102  857
0  102  949
0  102  1052
0  102  1201
0  102  1357
0  102  1598
0  102  1855
0  102  2138
0  102  2383
0  102  2622
0  102  2802
0  102  2985
0  102  3135
0  102  3251
0  96  3324
0  277  755
0  277  793
0  277  857
0  277  949
0  277  1052
0  277  1201
0  277  1357
0  277  1598
0  277  1855
0  277  2138
0  277  2383
0  277  2622
0  277  2802
0  277  2985
0  277  3135
0  277  3251
0  241  3324
0  494  755
0  494  793
0  494  857
0  494  949
0  494  1052
0  494  1201
0  494  1357
0  494  1598
0  494  1855
0  494  2138
0  494  2383
0  494  2622
0  494  2802
0  494  2985
0  494  3135
0  494  3251
0  434  3324
0  765  755
0  765  793
0  765  857
0  765  949
0  765  1052
0  765  1201
0  765  1357
0  765  1598
0  765  1855
0  765  2138
0  765  2383
0  765  2622
0  765  2802
0  765  2985
0  765  3135
0  765  3251
0  674  3324
0  1072  755
0  1072  793
0  1072  857
0  1072  949
0  1072  1052
0  1072  1201
0  1072  1357
0  1072  1598
0  1072  1855
0  1072  2138
0  1072  2383
0  1072  2622
0  1072  2802
0  1072  2985
0  1072  3135
0  1072  3251
0  1060  3324
0  1421  755
0  1421  793
0  1421  857
0  1421  949
0  1421  1052
0  1421  1201
0  1421  1357
0  1421  1598
0  1421  1855
0  1421  2138
0  1421  2383
0  1421  2622
0  1421  2802
0  1421  2985
0  1421  3135
0  1421  3251
0  1381  3324
0  1815  755
0  1815  793
0  1815  857
0  1815  949
0  1815  1052
0  1815  1201
0  1815  1357
0  1815  1598
0  1815  1855
0  1815  2138
0  1815  2383
0  1815  2622
0  1815  2802
0  1815  2985
0  1815  3135
0  1815  3251
0  1750  3324
0  2284  755
0  2284  793
0  2284  857
0  2284  949
0  2284  1052
0  2284  1201
0  2284  1357
0  2284  1598
0  2284  1855
0  2284  2138
0  2284  2383
0  2284  2622
0  2284  2802
0  2284  2985
0  2284  3135
0  2284  3251
0  2152  3324
0  2684  755
0  2684  793
0  2684  857
0  2684  949
0  2684  1052
0  2684  1201
0  2684  1357
0  2684  1598
0  2684  1855
0  2684  2138
0  2684  2383
0  2684  2622
0  2684  2802
0  2684  2985
0  2684  3135
0  2684  3251
0  2585  3324
0  3026  755
0  3026  793
0  3026  857
0  3026  949
0  3026  1052
0  3026  1201
0  3026  1357
0  3026  1598
0  3026  1855
0  3026  2138
0  3026  2383
0  3026  2622
0  3026  2802
0  3026  2985
0  3026  3135
0  3026  3251
0  3019  3324
0  3340  755
0  3340  793
0  3340  857
0  3340  949
0  3340  1052
0  3340  1201
0  3340  1357
0  3340  1598
0  3340  1855
0  3340  2138
0  3340  2383
0  3340  2622
0  3340  2802
0  3340  2985
0  3340  3135
0  3340  3251
0  3324  3324
0  3570  755
0  3570  793
0  3570  857
0  3570  949
0  3570  1052
0  3570  1201
0  3570  1357
0  3570  1598
0  3570  1855
0  3570  2138
0  3570  2383
0  3570  2622
0  3570  2802
0  3570  2985
0  3570  3135
0  3570  3251
0  3549  3324
0  3734  755
0  3734  793
0  3734  857
0  3734  949
0  3734  1052
0  3734  1201
0  3734  1357
0  3734  1598
0  3734  1855
0  3734  2138
0  3734  2383
0  3734  2622
0  3734  2802
0  3734  2985
0  3734  3135
0  3734  3251
0  3694  3324
0  3864  755
0  3864  793
0  3864  857
0  3864  949
0  3864  1052
0  3864  1201
0  3864  1357
0  3864  1598
0  3864  1855
0  3864  2138
0  3864  2383
0  3864  2622
0  3864  2802
0  3864  2985
0  3864  3135
0  3864  3251
0  3838  3324
0  3870  755
0  3870  787
0  3870  851
0  3870  931
0  3870  1028
0  3870  1156
0  3870  1349
0  3870  1558
0  3870  1815
0  3870  2072
0  3870  2312
0  3870  2618
0  3870  2778
0  3870  2971
0  3870  3115
0  3870  3212
0  3870  3324
0  0  755
0  0  793
0  0  857
0  0  949
0  0  1052
0  0  1201
0  0  1357
0  0  1598
0  0  1855
0  0  2138
0  0  2383
0  0  2622
0  0  2802
0  0  2985
0  0  3135
0  0  3251
0  0  3324
0  0  755
0  0  793
0  0  857
0  0  949
0  0  1052
0  0  1201
0  0  1357
0  0  1598
0  0  1855
0  0  2138
0  0  2383
0  0  2622
0  0  2802
0  0  2985
0  0  3135
0  0  3251
