PS/3DLUTs/Insta-gotham.3dl
#Created by: Generate3DLut
#Generator: Copyright 2012 by Linus Hechinger
0 64 128 192 256 320 384 448 512 575 639 703 767 831 895 959 1023
0  0  0
0  0  0
0  0  0
0  0  0
0  0  0
0  0  0
0  0  0
0  0  0
0  0  0
0  0  0
0  0  0
0  0  282
450  658  883
931  1028  1219
1301  1365  1514
1574  1590  1729
1863  1911  1911
0  0  0
0  0  0
0  0  0
0  0  0
0  0  0
0  0  0
0  0  0
0  0  0
0  0  0
0  0  0
0  0  0
0  84  282
450  722  883
931  1067  1219
1301  1398  1514
1574  1620  1729
1863  1911  1911
0  0  0
0  0  0
0  0  0
0  0  0
0  0  0
0  0  0
0  0  0
0  0  0
0  0  0
0  0  0
0  0  0
0  169  282
450  785  883
931  1106  1219
1301  1431  1514
1574  1650  1729
1863  1911  1911
0  0  0
0  0  0
0  0  0
0  0  0
0  0  0
0  0  0
0  0  0
0  0  0
0  0  0
0  0  0
0  0  0
0  253  282
450  848  883
931  1145  1219
1301  1464  1514
1574  1680  1729
1863  1911  1911
0  0  0
0  0  0
0  0  0
0  0  0
0  0  0
0  0  0
0  0  0
0  0  0
0  0  0
0  0  0
0  0  0
0  337  282
450  911  883
931  1184  1219
1301  1497  1514
1574  1710  1729
1863  1911  1911
0  0  0
0  0  0
0  0  0
0  0  0
0  0  0
0  0  0
0  0  0
0  0  0
0  0  0
0  0  0
0  0  0
0  422  282
450  975  883
931  1223  1219
1301  1531  1514
1574  1740  1729
1863  1911  1911
0  0  0
0  0  0
0  0  0
0  0  0
0  0  0
0  0  0
0  0  0
0  0  0
0  0  0
0  0  0
0  0  0
0  56  282
450  701  883
931  1054  1219
1301  1387  1514
1574  1610  1729
1863  1911  1911
0  0  0
0  0  0
0  0  0
0  0  0
0  0  0
0  0  0
0  0  0
0  0  0
0  0  0
0  0  0
0  0  0
0  141  282
450  764  883
931  1093  1219
1301  1420  1514
1574  1640  1729
1863  1911  1911
0  0  0
0  0  0
0  0  0
0  0  0
0  0  0
0  0  0
0  0  0
0  0  0
0  0  0
0  0  0
0  0  0
0  225  282
450  827  883
931  1132  1219
1301  1453  1514
1574  1670  1729
1863  1911  1911
0  0  0
0  0  0
0  0  0
0  0  0
0  0  0
0  0  0
0  0  0
0  0  0
0  0  0
0  0  0
0  0  0
0  309  282
450  890  883
931  1171  1219
1301  1486  1514
1574  1700  1729
1863  1911  1911
0  0  0
0  0  0
0  0  0
0  0  0
0  0  0
0  0  0
0  0  0
0  0  0
0  0  0
0  0  0
0  0  0
0  393  282
450  953  883
931  1210  1219
1301  1520  1514
1574  1730  1729
1863  1911  1911
0  28  257
0  28  332
0  28  407
0  28  483
0  28  558
0  28  633
0  28  307
0  28  382
0  28  458
0  28  533
0  28  608
0  28  282
450  679  883
931  1041  1219
1301  1376  1514
1574  1600  1729
1863  1911  1911
450  743  819
450  743  867
450  743  915
450  743  964
450  743  1012
450  743  1060
450  743  851
450  743  899
450  743  947
450  743  996
450  743  1044
450  743  835
450  743  883
931  1080  1219
1301  1409  1514
1574  1630  1729
1863  1911  1911
931  1119  1156
931  1119  1183
931  1119  1210
931  1119  1238
931  1119  1265
931  1119  1292
931  1119  1174
931  1119  1201
931  1119  1228
931  1119  1256
931  1119  1283
931  1119  1165
931  1119  1192
931  1119  1219
1301  1442  1514
1574  1660  1729
1863  1911  1911
1301  1475  1413
1301  1475  1443
1301  1475  1473
1301  1475  1504
1301  1475  1534
1301  1475  1564
1301  1475  1433
1301  1475  1463
1301  1475  1493
1301  1475  1524
1301  1475  1554
1301  1475  1423
1301  1475  1453
1301  1475  1483
1301  1475  1514
1574  1690  1729
1863  1911  1911
1574  1720  1638
1574  1720  1659
1574  1720  1680
1574  1720  1701
1574  1720  1722
1574  1720  1743
1574  1720  1652
1574  1720  1673
1574  1720  1694
1574  1720  1715
1574  1720  1736
1574  1720  1645
1574  1720  1666
1574  1720  1687
1574  1720  1708
1574  1720  1729
1863  1911  1911
1863  1911  1911
1863  1911  1911
1863  1911  1911
1863  1911  1911
1863  1911  1911
1863  1911  1911
1863  1911  1911
1863  1911  1911
1863  1911  1911
1863  1911  1911
1863  1911  1911
1863  1911  1911
1863  1911  1911
1863  1911  1911
1863  1911  1911
1863  1911  1911
1863  1911  1911
0  0  0
0  0  0
0  0  0
0  0  0
0  0  0
0  0  0
0  0  0
0  0  0
0  0  0
0  0  0
0  0  0
30  0  282
519  658  883
977  1028  1219
1343  1365  1514
1604  1590  1729
1863  1911  1911
0  0  0
0  0  0
0  0  0
0  0  0
0  0  0
0  0  0
0  0  0
0  0  0
0  0  0
0  0  0
0  48  476
519  722  835
977  1067  1192
1343  1398  1483
1604  1620  1708
1874  1890  1967
2136  2120  2088
0  0  0
0  0  0
0  0  0
0  0  0
0  0  0
0  0  0
0  0  0
0  0  0
0  0  0
0  0  0
0  96  476
519  785  835
977  1106  1192
1343  1431  1483
1604  1650  1708
1874  1917  1967
2136  2120  2088
0  0  0
0  0  0
0  0  0
0  0  0
0  0  0
0  0  0
0  0  0
0  0  0
0  0  0
0  0  0
0  145  476
519  848  835
977  1145  1192
1343  1464  1483
1604  1680  1708
1874  1944  1967
2136  2120  2088
0  0  0
0  0  0
0  0  0
0  0  0
0  0  0
0  0  0
0  0  0
0  0  0
0  0  0
0  0  0
0  193  476
519  911  835
977  1184  1192
1343  1497  1483
1604  1710  1708
1874  1971  1967
2136  2120  2088
0  0  0
0  0  0
0  0  0
0  0  0
0  0  0
0  0  0
0  0  0
0  0  0
0  0  0
0  0  0
0  241  476
519  975  835
977  1223  1192
1343  1531  1483
1604  1740  1708
1874  1998  1967
2136  2120  2088
0  0  0
0  0  0
0  0  0
0  0  0
0  0  0
0  0  0
0  0  0
0  0  0
0  0  0
0  0  0
0  32  476
519  701  835
977  1054  1192
1343  1387  1483
1604  1610  1708
1874  1881  1967
2136  2120  2088
0  0  0
0  0  0
0  0  0
0  0  0
0  0  0
0  0  0
0  0  0
0  0  0
0  0  0
0  0  0
0  80  476
519  764  835
977  1093  1192
1343  1420  1483
1604  1640  1708
1874  1908  1967
2136  2120  2088
0  0  0
0  0  0
0  0  0
0  0  0
0  0  0
0  0  0
0  0  0
0  0  0
0  0  0
0  0  0
0  128  476
519  827  835
977  1132  1192
1343  1453  1483
1604  1670  1708
1874  1935  1967
2136  2120  2088
0  0  0
0  0  0
0  0  0
0  0  0
0  0  0
0  0  0
0  0  0
0  0  0
0  0  0
0  0  0
0  177  476
519  890  835
977  1171  1192
1343  1486  1483
1604  1700  1708
1874  1962  1967
2136  2120  2088
0  0  0
0  225  178
0  225  259
0  225  340
0  225  422
0  225  503
0  225  151
0  225  232
0  225  313
0  225  394
0  225  476
519  953  835
977  1210  1192
1343  1520  1483
1604  1730  1708
1874  1989  1967
2136  2120  2088
30  28  257
519  679  867
519  679  915
519  679  964
519  679  1012
519  679  1060
519  679  851
519  679  899
519  679  947
519  679  996
519  679  1044
519  679  835
977  1041  1192
1343  1376  1483
1604  1600  1708
1874  1872  1967
2136  2120  2088
519  743  819
977  1080  1183
977  1080  1210
977  1080  1238
977  1080  1265
977  1080  1292
977  1080  1174
977  1080  1201
977  1080  1228
977  1080  1256
977  1080  1283
977  1080  1165
977  1080  1192
1343  1409  1483
1604  1630  1708
1874  1899  1967
2136  2120  2088
977  1119  1156
1343  1442  1443
1343  1442  1473
1343  1442  1504
1343  1442  1534
1343  1442  1564
1343  1442  1433
1343  1442  1463
1343  1442  1493
1343  1442  1524
1343  1442  1554
1343  1442  1423
1343  1442  1453
1343  1442  1483
1604  1660  1708
1874  1926  1967
2136  2120  2088
1343  1475  1413
1604  1690  1659
1604  1690  1680
1604  1690  1701
1604  1690  1722
1604  1690  1743
1604  1690  1652
1604  1690  1673
1604  1690  1694
1604  1690  1715
1604  1690  1736
1604  1690  1645
1604  1690  1666
1604  1690  1687
1604  1690  1708
1874  1953  1967
2136  2120  2088
1604  1720  1638
1874  1980  1887
1874  1980  1911
1874  1980  1935
1874  1980  1959
1874  1980  1983
1874  1980  1879
1874  1980  1903
1874  1980  1927
1874  1980  1951
1874  1980  1975
1874  1980  1871
1874  1980  1895
1874  1980  1919
1874  1980  1943
1874  1980  1967
2136  2120  2088
1863  1911  1911
2136  2120  2088
2136  2120  2088
2136  2120  2088
2136  2120  2088
2136  2120  2088
2136  2120  2088
2136  2120  2088
2136  2120  2088
2136  2120  2088
2136  2120  2088
2136  2120  2088
2136  2120  2088
2136  2120  2088
2136  2120  2088
2136  2120  2088
2136  2120  2088
0  0  0
0  0  0
0  0  0
0  0  0
0  0  0
0  0  0
0  0  0
0  0  0
0  0  0
0  0  0
0  0  0
60  0  282
588  658  883
1022  1028  1219
1385  1365  1514
1634  1590  1729
1863  1911  1911
0  0  0
0  0  0
0  0  0
0  0  0
0  0  0
0  0  0
0  0  0
0  0  0
0  0  0
0  0  0
0  48  476
588  722  835
1022  1067  1192
1385  1398  1483
1634  1620  1708
1901  1890  1967
2136  2120  2088
0  0  0
0  0  0
0  0  0
0  0  0
0  0  0
0  0  0
0  0  0
0  0  0
0  0  0
0  96  394
347  588  897
1022  1106  1165
1385  1431  1453
1634  1650  1687
1901  1917  1943
2110  2098  2118
2329  2296  2248
0  0  0
0  0  0
0  0  0
0  0  0
0  0  0
0  0  0
0  0  0
0  0  0
0  0  0
0  145  394
347  657  897
1022  1145  1165
1385  1464  1453
1634  1680  1687
1901  1944  1943
2110  2119  2118
2329  2296  2248
0  0  0
0  0  0
0  0  0
0  0  0
0  0  0
0  0  0
0  0  0
0  0  0
0  0  0
0  193  394
347  727  897
1022  1184  1165
1385  1497  1453
1634  1710  1687
1901  1971  1943
2110  2140  2118
2329  2296  2248
0  0  0
0  0  0
0  0  0
0  0  0
0  0  0
0  0  0
0  0  0
0  0  0
0  0  0
0  241  394
347  796  897
1022  1223  1165
1385  1531  1453
1634  1740  1687
1901  1998  1943
2110  2161  2118
2329  2296  2248
0  0  0
0  0  0
0  0  0
0  0  0
0  0  0
0  0  0
0  0  0
0  0  0
0  0  0
0  32  394
347  496  897
1022  1054  1165
1385  1387  1453
1634  1610  1687
1901  1881  1943
2110  2070  2118
2329  2296  2248
0  0  0
0  0  0
0  0  0
0  0  0
0  0  0
0  0  0
0  0  0
0  0  0
0  0  0
0  80  394
347  565  897
1022  1093  1165
1385  1420  1453
1634  1640  1687
1901  1908  1943
2110  2091  2118
2329  2296  2248
0  0  0
0  0  0
0  0  0
0  0  0
0  0  0
0  0  0
0  0  0
0  0  0
0  0  0
0  128  394
347  634  897
1022  1132  1165
1385  1453  1453
1634  1670  1687
1901  1935  1943
2110  2112  2118
2329  2296  2248
0  0  0
0  0  0
0  177  259
0  177  340
0  177  422
0  177  503
0  177  151
0  177  232
0  177  313
0  177  394
347  704  897
1022  1171  1165
1385  1486  1453
1634  1700  1687
1901  1962  1943
2110  2133  2118
2329  2296  2248
0  0  0
0  225  178
347  773  761
347  773  812
347  773  863
347  773  914
347  773  693
347  773  744
347  773  795
347  773  846
347  773  897
1022  1210  1165
1385  1520  1453
1634  1730  1687
1901  1989  1943
2110  2154  2118
2329  2296  2248
60  28  257
588  679  867
1022  1041  1210
1022  1041  1238
1022  1041  1265
1022  1041  1292
1022  1041  1174
1022  1041  1201
1022  1041  1228
1022  1041  1256
1022  1041  1283
1022  1041  1165
1385  1376  1453
1634  1600  1687
1901  1872  1943
2110  2063  2118
2329  2296  2248
588  743  819
1022  1080  1183
1385  1409  1473
1385  1409  1504
1385  1409  1534
1385  1409  1564
1385  1409  1433
1385  1409  1463
1385  1409  1493
1385  1409  1524
1385  1409  1554
1385  1409  1423
1385  1409  1453
1634  1630  1687
1901  1899  1943
2110  2084  2118
2329  2296  2248
1022  1119  1156
1385  1442  1443
1634  1660  1680
1634  1660  1701
1634  1660  1722
1634  1660  1743
1634  1660  1652
1634  1660  1673
1634  1660  1694
1634  1660  1715
1634  1660  1736
1634  1660  1645
1634  1660  1666
1634  1660  1687
1901  1926  1943
2110  2105  2118
2329  2296  2248
1385  1475  1413
1634  1690  1659
1901  1953  1911
1901  1953  1935
1901  1953  1959
1901  1953  1983
1901  1953  1879
1901  1953  1903
1901  1953  1927
1901  1953  1951
1901  1953  1975
1901  1953  1871
1901  1953  1895
1901  1953  1919
1901  1953  1943
2110  2126  2118
2329  2296  2248
1634  1720  1638
1901  1980  1887
2110  2147  2076
2110  2147  2094
2110  2147  2112
2110  2147  2130
2110  2147  2052
2110  2147  2070
2110  2147  2088
2110  2147  2106
2110  2147  2124
2110  2147  2045
2110  2147  2064
2110  2147  2082
2110  2147  2100
2110  2147  2118
2329  2296  2248
1863  1911  1911
2136  2120  2088
2329  2296  2248
2329  2296  2248
2329  2296  2248
2329  2296  2248
2329  2296  2248
2329  2296  2248
2329  2296  2248
2329  2296  2248
2329  2296  2248
2329  2296  2248
2329  2296  2248
2329  2296  2248
2329  2296  2248
2329  2296  2248
2329  2296  2248
0  0  0
0  0  0
0  0  0
0  0  0
0  0  0
0  0  0
0  0  0
0  0  0
0  0  0
0  0  0
0  0  0
90  0  282
657  658  883
1067  1028  1219
1427  1365  1514
1664  1590  1729
1863  1911  1911
0  0  0
0  0  0
0  0  0
0  0  0
0  0  0
0  0  0
0  0  0
0  0  0
0  0  0
0  0  0
0  48  476
657  722  835
1067  1067  1192
1427  1398  1483
1664  1620  1708
1928  1890  1967
