PS/3DLUTs/Insta-brannan.3dl
#Created by: Generate3DLut
#Generator: Copyright 2012 by Linus Hechinger
0 64 128 192 256 320 384 448 512 575 639 703 767 831 895 959 1023
418  161  369
418  193  424
450  209  516
466  225  653
482  241  779
514  257  927
530  305  1036
562  321  1186
610  337  1381
642  353  1586
658  385  1875
707  418  2078
723  450  2365
755  498  2596
819  514  2838
867  562  3065
915  658  3372
418  279  369
418  279  424
450  295  516
466  314  653
482  327  779
514  359  927
530  365  1036
562  411  1186
610  433  1381
642  462  1586
658  523  1875
707  567  2078
723  583  2365
755  667  2596
819  684  2838
867  722  3065
915  771  3372
450  371  385
450  371  437
450  371  516
466  387  653
482  420  779
514  458  927
530  484  1036
562  532  1186
610  560  1381
642  624  1586
658  676  1875
707  709  2078
723  753  2365
755  781  2596
819  833  2838
867  887  3065
915  931  3372
466  493  401
466  493  459
466  493  554
466  493  653
482  532  779
514  575  927
530  639  1036
562  678  1186
610  702  1381
642  752  1586
658  793  1875
707  855  2078
723  896  2365
755  935  2596
819  984  2838
867  1057  3065
915  1060  3372
482  678  418
482  678  462
482  678  590
482  678  686
482  678  779
514  699  927
530  755  1036
562  795  1186
610  835  1381
642  899  1586
658  939  1875
707  1008  2078
723  1040  2365
755  1104  2596
819  1160  2838
867  1233  3065
915  1253  3372
514  829  418
514  829  507
514  829  612
514  829  718
514  829  819
514  829  927
530  880  1036
562  926  1186
610  976  1381
642  1024  1586
658  1057  1875
707  1165  2078
723  1230  2365
755  1264  2596
819  1358  2838
867  1422  3065
915  1429  3372
530  974  450
530  974  529
530  974  650
530  974  750
530  974  867
530  974  962
530  974  1036
562  1020  1186
610  1072  1381
642  1136  1586
658  1196  1875
707  1267  2078
723  1361  2365
755  1411  2596
819  1506  2838
867  1552  3065
915  1622  3372
562  1159  450
562  1159  558
562  1159  682
562  1159  782
562  1159  899
562  1159  993
562  1159  1068
562  1159  1186
610  1235  1381
642  1304  1586
658  1363  1875
707  1464  2078
723  1535  2365
755  1583  2596
819  1662  2838
867  1769  3065
915  1847  3372
610  1389  482
610  1389  603
610  1389  709
610  1389  816
610  1389  935
610  1389  1041
610  1389  1130
610  1389  1251
610  1389  1381
642  1477  1586
658  1550  1875
707  1622  2078
723  1702  2365
755  1791  2596
819  1903  2838
867  1999  3065
915  2039  3372
642  1613  514
642  1613  622
642  1613  741
642  1613  871
642  1613  984
642  1613  1072
642  1613  1166
642  1613  1316
642  1613  1445
642  1613  1586
658  1699  1875
707  1839  2078
723  1936  2365
755  2014  2596
819  2074  2838
867  2154  3065
915  2184  3372
658  1969  546
658  1969  670
658  1969  779
658  1969  903
658  1969  1000
658  1969  1119
658  1969  1214
658  1969  1369
658  1969  1518
658  1969  1629
658  1969  1875
707  2048  2078
723  2124  2365
755  2188  2596
819  2292  2838
867  2389  3065
915  2409  3372
707  2196  594
707  2196  716
707  2196  817
707  2196  942
707  2196  1056
707  2196  1184
707  2196  1293
707  2196  1443
707  2196  1590
707  2196  1741
707  2196  1951
707  2196  2078
723  2289  2365
755  2415  2596
819  2463  2838
867  2542  3065
915  2585  3372
723  2549  594
723  2549  732
723  2549  875
723  2549  975
723  2549  1104
723  2549  1247
723  2549  1357
723  2549  1503
723  2549  1654
723  2549  1845
723  2549  2027
723  2549  2142
723  2521  2365
755  2581  2596
819  2642  2838
867  2730  3065
915  2810  3372
755  2793  642
755  2793  767
755  2793  897
755  2793  1014
755  2793  1140
755  2793  1295
755  2793  1393
755  2793  1562
755  2793  1702
755  2793  1913
755  2793  2076
755  2793  2208
755  2793  2405
755  2770  2596
819  2869  2838
867  2940  3065
915  2987  3372
819  3089  691
819  3089  786
819  3089  933
819  3089  1032
819  3089  1184
819  3089  1345
819  3089  1473
819  3089  1609
819  3089  1815
819  3089  1971
819  3089  2126
819  3089  2302
819  3089  2465
819  3089  2630
819  3079  2838
867  3127  3065
915  3148  3372
867  3380  723
867  3380  847
867  3380  966
867  3380  1105
867  3380  1261
867  3380  1408
867  3380  1534
867  3380  1684
867  3380  1895
867  3380  2041
867  3380  2192
867  3380  2351
867  3380  2529
867  3380  2692
867  3380  2893
867  3351  3065
915  3356  3372
915  3629  755
915  3629  883
915  3629  996
915  3629  1124
915  3629  1269
915  3629  1397
915  3629  1590
915  3629  1750
915  3629  1943
915  3629  2072
915  3629  2200
915  3629  2425
915  3629  2585
915  3629  2730
915  3629  2907
915  3629  3051
915  3597  3372
533  193  369
533  193  424
536  209  516
558  225  653
577  241  779
619  257  927
654  305  1036
684  321  1186
716  337  1381
738  353  1586
802  385  1875
863  418  2078
879  450  2365
927  498  2596
946  514  2838
1005  562  3065
1044  658  3372
533  279  369
539  295  440
558  314  564
577  327  686
619  346  819
651  362  961
684  411  1084
716  433  1262
738  462  1445
773  507  1629
847  551  1931
895  612  2142
927  667  2421
960  697  2646
1005  722  2893
1024  757  3129
1060  819  3421
536  371  385
558  397  459
558  397  564
577  420  686
619  458  819
651  474  961
684  532  1084
716  560  1262
738  624  1445
773  676  1629
847  693  1931
895  753  2142
927  801  2421
960  833  2646
1005  887  2893
1024  923  3129
1060  964  3421
558  493  401
577  532  462
577  532  564
577  532  686
619  559  819
651  625  961
684  686  1084
716  702  1262
738  752  1445
773  777  1629
847  839  1931
895  905  2142
927  951  2421
960  1000  2646
1005  1048  2893
1024  1096  3129
1060  1108  3421
577  678  418
619  699  494
619  699  612
619  699  709
619  699  819
651  731  961
684  795  1084
716  851  1262
738  883  1445
773  939  1629
847  992  1931
895  1040  2142
927  1104  2421
960  1160  2646
1005  1228  2893
1024  1289  3129
1060  1317  3421
619  829  418
651  863  526
651  863  634
651  863  750
651  863  851
651  863  961
684  942  1084
716  976  1262
738  1024  1445
773  1057  1629
847  1150  1931
895  1230  2142
927  1295  2421
960  1358  2646
1005  1422  2893
1024  1502  3129
1060  1493  3421
654  974  450
684  1036  558
684  1036  682
684  1036  791
684  1036  899
684  1036  994
684  1036  1084
716  1072  1262
738  1136  1445
773  1196  1629
847  1265  1931
895  1361  2142
927  1441  2421
960  1506  2646
1005  1552  2893
1024  1622  3129
1060  1686  3421
684  1159  450
716  1246  603
716  1246  709
716  1246  816
716  1246  951
716  1246  1041
716  1246  1130
716  1246  1262
738  1288  1445
773  1363  1629
847  1437  1931
895  1535  2142
927  1583  2421
960  1667  2646
1005  1726  2893
1024  1854  3129
1060  1975  3421
716  1389  482
738  1477  622
738  1477  741
738  1477  871
738  1477  980
738  1477  1072
738  1477  1166
738  1477  1305
738  1477  1445
773  1542  1629
847  1598  1931
895  1702  2142
927  1807  2421
960  1903  2646
1005  1991  2893
1024  2039  3129
1060  2088  3421
738  1613  514
773  1699  654
773  1699  779
773  1699  887
773  1699  1000
773  1699  1119
773  1699  1214
773  1699  1369
773  1699  1510
773  1699  1629
847  1774  1931
895  1936  2142
927  2014  2421
960  2095  2646
1005  2122  2893
1024  2240  3129
1060  2280  3421
802  1969  546
847  2029  703
847  2029  801
847  2029  942
847  2029  1032
847  2029  1168
847  2029  1293
847  2029  1416
847  2029  1574
847  2029  1704
847  2029  1931
895  2124  2142
927  2188  2421
960  2292  2646
1005  2389  2893
1024  2461  3129
1060  2457  3421
863  2196  594
895  2289  735
895  2289  875
895  2289  975
895  2289  1104
895  2289  1247
895  2289  1357
895  2289  1503
895  2289  1654
895  2289  1845
895  2289  2027
895  2289  2142
927  2415  2421
960  2478  2646
1005  2542  2893
1024  2562  3129
1060  2682  3421
879  2549  594
927  2585  767
927  2585  907
927  2585  1023
927  2585  1140
927  2585  1311
927  2585  1409
927  2585  1562
927  2585  1710
927  2585  1913
927  2585  2076
927  2585  2208
927  2585  2421
960  2670  2646
1005  2730  2893
1024  2782  3129
1060  2875  3421
927  2793  642
960  2892  799
960  2892  933
960  2892  1048
960  2892  1184
960  2892  1345
960  2892  1473
960  2892  1625
960  2892  1815
960  2892  1987
960  2892  2126
960  2892  2319
960  2892  2493
960  2869  2646
1005  2940  2893
1024  2999  3129
1060  3019  3421
946  3089  691
1005  3127  847
1005  3127  966
1005  3127  1089
1005  3127  1245
1005  3127  1408
1005  3127  1534
1005  3127  1668
1005  3127  1871
1005  3127  2025
1005  3127  2192
1005  3127  2351
1005  3127  2529
1005  3127  2692
1005  3111  2893
1024  3202  3129
1060  3196  3421
1005  3380  723
1024  3448  879
1024  3448  1008
1024  3448  1135
1024  3448  1305
1024  3448  1469
1024  3448  1570
1024  3448  1780
1024  3448  1951
1024  3448  2106
1024  3448  2294
1024  3448  2430
1024  3448  2589
1024  3448  2763
1024  3448  2941
1024  3432  3129
1060  3421  3421
1044  3629  755
1060  3677  915
1060  3677  1028
1060  3677  1140
1060  3677  1333
1060  3677  1461
1060  3677  1638
1060  3677  1879
1060  3677  1991
1060  3677  2136
1060  3677  2296
1060  3677  2505
1060  3677  2650
1060  3677  2778
1060  3677  2955
1060  3677  3099
1060  3677  3421
644  209  385
644  209  437
644  209  516
676  225  653
703  241  779
735  257  927
769  305  1036
817  321  1186
859  337  1381
901  353  1586
939  385  1875
972  418  2078
1024  450  2365
1042  498  2596
1080  514  2838
1138  562  3065
1172  658  3372
644  295  385
676  314  459
676  314  564
693  327  686
735  346  819
753  362  961
817  411  1084
859  433  1262
901  462  1445
939  507  1629
962  551  1931
1024  612  2142
1068  667  2421
1080  697  2646
1138  722  2893
1180  757  3129
1220  819  3421
644  371  385
676  397  459
703  420  590
735  458  718
753  474  851
791  516  993
859  560  1130
901  624  1316
939  676  1518
962  693  1704
1004  731  1983
1042  781  2208
1096  849  2493
1138  887  2699
1196  939  2957
1241  994  3204
1285  1028  3469
676  493  401
693  532  462
735  575  612
735  575  718
753  616  851
791  669  993
859  702  1130
901  752  1316
939  777  1518
962  839  1704
1004  887  1983
1042  935  2208
1096  1000  2493
1138  1057  2699
1196  1096  2957
1241  1171  3204
1285  1188  3469
703  678  418
735  699  494
753  731  634
753  731  741
753  731  851
791  767  993
859  835  1130
901  899  1316
939  939  1518
962  992  1704
1004  1024  1983
1042  1104  2208
1096  1176  2493
1138  1233  2699
1196  1305  2957
1241  1353  3204
1285  1381  3469
735  829  418
753  863  526
791  911  666
791  911  773
791  911  883
791  911  993
859  976  1130
901  1024  1316
939  1072  1518
962  1119  1704
1004  1213  1983
1042  1264  2208
1096  1358  2493
1138  1438  2699
1196  1502  2957
1241  1551  3204
1285  1542  3469
769  974  450
817  1036  558
859  1072  709
859  1072  816
859  1072  935
859  1072  1041
859  1072  1130
901  1136  1316
939  1212  1518
962  1265  1704
1004  1331  1983
1042  1411  2208
1096  1506  2493
1138  1568  2699
1196  1638  2957
1241  1688  3204
1285  1799  3469
817  1159  450
859  1246  603
901  1304  741
901  1304  871
901  1304  984
901  1304  1072
901  1304  1166
901  1304  1316
939  1363  1518
962  1437  1704
1004  1503  1983
1042  1583  2208
1096  1667  2493
1138  1769  2699
1196  1854  2957
1241  1952  3204
1285  2007  3469
859  1389  482
901  1477  622
939  1550  779
939  1550  887
939  1550  1000
939  1550  1120
939  1550  1231
939  1550  1369
939  1550  1518
962  1582  1704
1004  1678  1983
1042  1807  2208
1096  1903  2493
1138  1991  2699
1196  2056  2957
1241  2104  3204
1285  2152  3469
901  1613  514
939  1699  654
962  1774  801
962  1774  942
962  1774  1032
962  1774  1152
962  1774  1279
962  1774  1416
962  1774  1558
962  1774  1704
1004  1904  1983
1042  2014  2208
1096  2095  2493
1138  2154  2699
1196  2240  2957
1241  2338  3204
1285  2393  3469
939  1969  546
962  2029  703
1004  2092  843
1004  2092  975
1004  2092  1076
1004  2092  1231
1004  2092  1341
1004  2092  1475
1004  2092  1614
1004  2092  1807
1004  2092  1983
1042  2188  2208
1096  2292  2493
1138  2389  2699
1196  2491  2957
1241  2523  3204
1285  2537  3469
972  2196  594
1024  2289  735
1042  2415  897
1042  2415  1014
1042  2415  1140
1042  2415  1295
1042  2415  1393
1042  2415  1562
1042  2415  1710
1042  2415  1913
1042  2415  2076
1042  2415  2208
1096  2463  2493
1138  2542  2699
1196  2578  2957
1241  2656  3204
1285  2730  3469
1024  2549  594
1068  2585  767
1096  2670  945
1096  2670  1048
1096  2670  1200
1096  2670  1345
1096  2670  1473
1096  2670  1625
1096  2670  1815
1096  2670  1987
1096  2670  2126
1096  2670  2302
1096  2670  2493
1138  2730  2699
1196  2822  2957
1241  2871  3204
1285  2923  3469
1042  2793  642
1080  2892  799
1138  2956  966
1138  2956  1105
1138  2956  1261
1138  2956  1409
1138  2956  1550
1138  2956  1684
1138  2956  1871
1138  2956  2041
1138  2956  2192
1138  2956  2351
1138  2956  2529
1138  2956  2699
1196  3015  2957
1241  3068  3204
1285  3115  3469
1080  3089  691
1138  3127  847
1196  3218  1014
1196  3218  1135
1196  3218  1321
1196  3218  1469
1196  3218  1588
1196  3218  1780
1196  3218  1959
1196  3218  2106
1196  3218  2310
1196  3218  2431
1196  3218  2589
1196  3218  2779
1196  3202  2957
1241  3260  3204
1285  3308  3469
1138  3380  723
1180  3448  879
1241  3512  1042
1241  3512  1194
1241  3512  1337
1241  3512  1534
1241  3512  1650
1241  3512  1817
1241  3512  1991
1241  3512  2159
1241  3512  2345
1241  3512  2479
1241  3512  2634
1241  3512  2820
1241  3512  2979
1241  3483  3204
1285  3485  3469
1172  3629  755
1220  3677  915
1285  3742  1076
1285  3742  1204
1285  3742  1349
1285  3742  1526
1285  3742  1734
1285  3742  1927
1285  3742  2056
1285  3742  2184
1285  3742  2361
1285  3742  2553
1285  3742  2666
1285  3742  2858
1285  3742  3003
1285  3742  3164
1285  3742  3469
775  225  401
775  225  459
775  225  554
775  225  653
823  241  779
871  257  927
910  305  1036
935  321  1186
977  337  1381
1023  353  1586
1048  385  1875
1105  418  2078
1137  450  2365
1192  498  2596
1234  514  2838
1323  562  3065
1333  658  3372
775  314  401
823  327  462
823  327  564
823  327  686
855  346  819
903  362  961
951  411  1084
977  433  1262
1023  462  1445
1039  507  1629
1089  551  1931
1153  612  2142
1208  667  2421
1250  697  2646
1307  722  2893
1362  757  3129
