PS/3DLUTs/Insta-sutro.3dl
#Created by: Generate3DLut
#Generator: Copyright 2012 by Linus Hechinger
0 128 256 384 512 639 767 895 1023
707  48  177
723  96  231
739  161  373
819  241  654
883  305  1301
915  369  1833
947  401  2092
980  418  2252
980  450  2329
723  205  193
723  205  241
739  253  373
819  345  654
883  430  1301
915  494  1833
947  536  2092
980  552  2252
980  562  2329
739  377  209
739  377  269
739  389  373
819  502  654
883  570  1301
915  630  1833
947  678  2092
980  739  2252
980  707  2329
819  656  289
819  656  333
819  656  474
819  658  654
883  849  1301
915  996  1833
947  1122  2092
980  1182  2252
980  1220  2329
867  1333  321
867  1333  410
867  1333  550
867  1333  805
883  1341  1301
915  1542  1833
947  1654  2092
980  1726  2252
980  1702  2329
915  1895  369
915  1895  478
915  1895  614
915  1895  966
915  1895  1485
915  1865  1833
947  1997  2092
980  2064  2252
980  2023  2329
947  2204  401
947  2204  510
947  2204  674
947  2204  1104
947  2204  1622
947  2204  1917
947  2192  2068
980  2248  2252
980  2296  2329
980  2413  450
980  2413  536
980  2413  695
980  2413  1156
980  2413  1662
980  2413  1953
980  2413  2132
980  2407  2246
980  2409  2329
1012  2505  450
1012  2505  546
1012  2505  691
1012  2505  1188
1012  2505  1702
1012  2505  1959
1012  2505  2168
1012  2505  2264
1012  2489  2345
773  96  193
783  96  231
831  161  373
895  241  654
960  305  1309
1034  369  1833
1056  401  2092
1082  418  2252
1076  466  2345
783  205  193
831  247  269
863  301  434
943  397  755
1018  484  1493
1062  542  1949
1098  574  2220
1120  606  2397
1108  610  2457
841  393  241
863  450  301
863  450  434
943  554  755
1018  630  1493
1062  743  1949
1098  827  2220
1120  891  2397
1108  851  2457
911  672  289
943  783  381
943  783  522
943  783  755
1018  1000  1493
1062  1156  1949
1098  1273  2220
1120  1367  2397
1108  1365  2457
960  1381  337
1018  1526  468
1018  1526  610
1018  1526  951
1018  1542  1493
1062  1686  1949
1098  1799  2220
1120  1879  2397
1108  1863  2457
1034  1931  385
1062  2058  526
1062  2058  691
1062  2058  1128
1062  2058  1638
1062  2058  1949
1098  2158  2220
1120  2252  2397
1108  2168  2457
1056  2228  418
1098  2385  558
1098  2385  803
1098  2385  1287
1098  2385  1783
1098  2385  2080
1098  2361  2228
1120  2409  2397
1108  2425  2457
1088  2439  450
1120  2583  590
1120  2583  847
1120  2583  1365
1120  2583  1847
1120  2583  2158
1120  2583  2280
1120  2557  2403
1108  2553  2457
1092  2537  466
1124  2682  610
1124  2682  835
1124  2682  1413
1124  2682  1847
1124  2682  2120
1124  2682  2312
1124  2682  2393
1108  2666  2457
927  145  225
927  145  269
939  161  373
1016  241  654
1100  305  1309
1144  369  1833
1168  401  2092
1192  418  2252
1188  466  2345
939  259  241
972  291  301
972  301  434
1068  397  769
1132  484  1493
1192  542  1949
1277  590  2228
1317  606  2403
1285  610  2457
939  393  241
996  454  311
1052  522  502
1132  626  951
1233  763  1678
1341  915  2156
1433  1004  2389
1465  1080  2557
1461  1028  2650
1036  672  289
1068  789  391
1132  968  594
1132  968  951
1233  1206  1678
1341  1373  2156
1433  1512  2389
1465  1618  2557
1461  1638  2650
1100  1381  337
1144  1542  468
1204  1710  715
1204  1710  1162
1233  1734  1678
1341  1903  2156
1433  2007  2389
1465  2088  2557
1461  2088  2650
1144  1931  385
1204  2072  526
1341  2280  879
1341  2280  1367
1341  2280  1847
1341  2280  2156
1433  2367  2389
1465  2415  2557
1461  2393  2650
1180  2228  418
1281  2389  558
1437  2553  1024
1437  2553  1508
1437  2553  1967
1437  2553  2226
1437  2553  2401
1465  2581  2557
1461  2634  2650
1208  2439  450
1345  2604  590
1485  2806  1084
1485  2806  1590
1485  2806  2023
1485  2806  2320
1485  2806  2445
1485  2806  2583
1461  2762  2650
1204  2537  466
1317  2682  610
1477  2891  1060
1477  2891  1622
1477  2891  2039
1477  2891  2296
1477  2891  2489
1477  2891  2602
1477  2891  2666
1146  225  273
1146  225  333
1146  225  466
1146  241  654
1281  305  1309
1407  369  1833
1491  401  2092
1568  418  2252
1606  466  2345
1162  355  289
1202  397  381
1202  397  522
1216  397  769
1379  484  1493
1512  542  1949
1650  590  2228
1712  606  2403
1702  610  2457
1162  514  289
1216  554  381
1365  626  594
1381  630  968
1570  763  1678
1704  915  2156
1857  1008  2401
1935  1084  2563
1927  1028  2650
1162  672  289
1218  789  391
1379  1000  610
1622  1245  1210
1803  1504  1959
1959  1702  2397
2084  1801  2646
2132  1895  2830
2136  1911  2875
1281  1381  337
1379  1542  468
1574  1750  731
1803  2007  1481
1803  2015  1959
1959  2192  2397
2084  2288  2646
2132  2361  2830
2136  2345  2875
1437  1931  385
1514  2072  526
1750  2296  895
1975  2527  1660
1975  2527  2128
1975  2527  2413
2084  2652  2646
2132  2672  2830
2136  2666  2875
1493  2228  418
1666  2389  558
1873  2573  1028
2102  2875  1829
2102  2875  2240
2102  2875  2527
2102  2875  2666
2132  2903  2840
2136  2891  2875
1570  2439  450
1720  2604  590
1943  2840  1088
2152  3059  1861
2152  3059  2288
2152  3059  2559
2152  3059  2698
2152  3059  2852
2168  3035  2891
1622  2537  466
1750  2682  610
1959  2923  1092
2184  3196  1911
2184  3196  2312
2184  3196  2553
2184  3196  2746
2184  3196  2858
2184  3196  2939
1654  305  321
1654  305  397
1654  305  550
1654  305  789
1678  305  1309
1831  369  1833
1927  401  2092
1999  418  2252
2007  466  2345
1678  430  337
1799  484  462
1799  484  598
1799  484  937
1823  484  1493
1967  542  1949
2048  590  2228
2136  606  2403
2088  610  2457
1678  570  337
1815  630  468
1991  743  715
1991  743  1162
1999  763  1678
2136  915  2156
2240  1008  2401
2304  1084  2563
2280  1028  2650
1678  849  337
1815  996  468
1991  1190  715
2248  1497  1481
2264  1560  1991
2401  1706  2413
2521  1833  2654
2561  1895  2852
2569  1927  2891
1686  1381  337
1815  1542  468
2007  1750  731
2272  2056  1518
2457  2256  2192
2594  2417  2622
2682  2521  2854
2730  2585  3001
2714  2553  3083
1839  1931  385
1967  2072  526
2152  2296  895
2409  2543  1706
2594  2752  2329
2594  2752  2622
2682  2875  2854
2730  2929  3001
2714  2891  3083
1943  2228  418
2088  2389  558
2272  2573  1028
2537  2891  1859
2698  3067  2441
2698  3067  2736
2698  3067  2879
2730  3111  3013
2714  3164  3083
2007  2439  450
2144  2604  590
2329  2840  1088
2602  3097  1895
2754  3306  2505
2754  3306  2800
2754  3306  2943
2754  3306  3029
2746  3324  3115
2007  2537  466
2136  2682  610
2345  2923  1092
2602  3196  1927
2746  3404  2489
2746  3404  2762
2746  3404  2955
2746  3404  3035
2746  3404  3115
2126  353  369
2126  353  468
2126  353  614
2126  353  966
2126  353  1485
2128  369  1833
2210  401  2092
2258  418  2252
2264  466  2345
2128  510  385
2254  542  510
2254  542  678
2254  542  1108
2254  542  1630
2256  542  1949
2351  590  2228
2445  606  2403
2377  610  2457
2128  634  385
2254  739  516
2443  895  839
2443  895  1351
2443  895  1823
2445  915  2156
2561  1008  2401
2598  1084  2563
2585  1028  2650
2128  1010  385
2254  1156  516
2459  1373  879
2700  1706  1660
2700  1706  2128
2700  1706  2413
2798  1833  2654
2820  1895  2852
2810  1927  2891
2128  1542  385
2254  1678  516
2459  1903  879
2700  2192  1660
2866  2417  2329
2881  2433  2638
3021  2545  2879
3041  2602  3023
3035  2569  3115
2156  1931  385
2268  2072  526
2489  2296  895
2702  2543  1706
2881  2794  2353
3039  2945  2794
3107  3009  2971
3142  3075  3162
3131  3067  3260
2240  2228  418
2385  2389  558
2577  2573  1028
2800  2891  1859
3025  3095  2465
3123  3240  2881
3123  3240  2995
3172  3308  3184
3131  3340  3260
2318  2439  450
2461  2604  590
2630  2840  1088
2866  3097  1895
3063  3322  2521
3174  3467  2945
3174  3467  3079
3174  3467  3220
3148  3469  3276
2264  2537  466
2425  2682  610
2602  2923  1092
2826  3196  1927
3035  3404  2505
3180  3565  2955
3180  3565  3115
3180  3565  3244
3180  3565  3292
2389  401  401
2389  401  510
2389  401  674
2389  401  1102
2389  401  1590
2389  401  1903
2389  401  2084
2437  418  2252
2473  466  2345
2397  536  401
2537  574  552
2537  574  763
2537  574  1265
2537  574  1758
2537  574  2064
2553  590  2228
2606  606  2403
2602  610  2457
2397  678  401
2541  831  558
2694  1004  988
2694  1004  1493
2694  1004  1951
2694  1004  2224
2694  1008  2401
2742  1084  2563
2746  1028  2650
2397  1122  401
2541  1287  558
2718  1554  1000
2963  1833  1829
2963  1833  2240
2963  1833  2527
2951  1833  2654
3011  1895  2852
3035  1927  2891
2397  1654  401
2541  1799  558
2718  2015  1000
2963  2329  1829
3131  2529  2441
3131  2545  2736
3131  2545  2879
3168  2602  3023
3180  2569  3115
2397  1997  401
2541  2158  558
2718  2369  1000
2963  2668  1829
3131  2881  2441
3260  3011  2852
3280  3027  3011
3324  3103  3184
3340  3083  3276
2389  2228  418
2541  2389  558
2722  2573  1028
2975  2891  1859
3144  3095  2465
3280  3264  2885
3380  3380  3127
3421  3421  3286
3453  3437  3356
2469  2439  450
2614  2604  590
2762  2840  1088
3043  3097  1895
3196  3322  2521
3348  3479  2945
3445  3585  3196
3449  3585  3312
3469  3613  3372
2505  2537  466
2618  2682  610
2810  2923  1092
3067  3196  1927
3228  3404  2505
3372  3565  2955
3469  3694  3244
3485  3710  3356
3485  3710  3404
2596  418  450
2596  418  536
2596  418  691
2596  418  1156
2596  418  1662
2596  418  1953
2596  418  2156
2589  418  2252
2602  466  2345
2596  558  450
2702  606  580
2702  606  843
2702  606  1349
2702  606  1823
2702  606  2142
2702  606  2252
2702  606  2397
2682  610  2457
2596  751  450
2712  907  590
2879  1080  1068
2879  1080  1590
2879  1080  2015
2879  1080  2302
2879  1080  2437
2879  1084  2563
2875  1028  2650
2596  1198  450
2712  1367  590
2905  1632  1072
3119  1895  1859
3119  1895  2280
3119  1895  2557
3119  1895  2698
3119  1895  2840
3131  1927  2891
2596  1726  450
2712  1895  590
2905  2096  1072
3125  2385  1875
3328  2610  2505
3328  2610  2798
3328  2610  2907
3328  2610  3049
3340  2569  3115
2596  2064  450
2712  2252  590
2905  2449  1072
3125  2704  1875
3328  2933  2505
3457  3075  2929
3473  3105  3079
3473  3105  3190
3485  3083  3276
2596  2276  450
2712  2413  590
2905  2622  1072
3125  2907  1875
3328  3135  2513
3457  3308  2929
3527  3421  3148
3563  3421  3312
3613  3469  3372
2596  2439  450
2712  2604  590
2921  2840  1088
3142  3097  1895
3340  3322  2521
3473  3479  2945
3581  3585  3196
3639  3688  3372
3645  3694  3437
2618  2537  466
2714  2682  610
2939  2923  1092
3148  3196  1927
3340  3404  2505
3517  3565  2955
3613  3694  3244
3629  3710  3372
3645  3742  3437
2650  450  450
2650  450  530
2650  450  691
2650  450  1172
2650  450  1638
2650  450  1927
2650  450  2168
2650  450  2232
2650  466  2329
2666  562  450
2778  610  578
2778  610  819
2778  610  1365
2778  610  1815
2778  610  2088
2778  610  2264
2778  610  2377
2778  610  2425
2666  707  450
2794  867  594
2955  1028  1028
2955  1028  1606
2955  1028  2023
2955  1028  2264
2955  1028  2473
2955  1028  2569
2955  1028  2650
2666  1220  450
2794  1413  594
2971  1638  1028
3196  1943  1911
3196  1943  2312
3196  1943  2553
3196  1943  2730
3196  1943  2858
3196  1943  2939
2666  1718  450
2794  1879  594
2971  2088  1028
3196  2393  1911
3388  2569  2489
3404  2602  2762
3404  2602  2955
3404  2602  3067
3404  2602  3131
2666  2039  450
2794  2184  594
2971  2409  1028
3196  2682  1911
3388  2923  2489
3517  3067  2891
3533  3083  3083
3533  3083  3196
3533  3083  3276
2666  2312  450
2794  2425  594
2971  2666  1028
3196  2939  1911
3388  3180  2489
3517  3340  2891
3645  3469  3196
3645  3469  3340
3677  3469  3404
2650  2425  450
2778  2553  594
3003  2842  1060
3228  3083  1927
3404  3340  2505
3533  3485  2939
3645  3613  3244
3694  3694  3372
3742  3694  3437
2666  2537  466
2794  2682  610
3003  2923  1092
3228  3196  1927
3404  3404  2505
3581  3565  2955
3677  3694  3244
3694  3710  3372
3742  3742  3437
