PS/3DLUTs/Insta-walden.3dl
#Created by: Generate3DLut
#Generator: Copyright 2012 by Linus Hechinger
0 64 128 192 256 320 384 448 512 575 639 703 767 831 895 959 1023
128  177  241
128  193  279
145  209  327
145  209  371
161  241  430
161  257  481
177  289  548
193  305  599
193  305  682
241  353  950
305  418  1226
369  482  1550
418  530  1859
482  594  2199
530  642  2515
578  691  2824
658  771  3051
128  215  241
128  215  279
145  244  327
145  244  371
161  276  430
161  279  481
177  324  548
193  327  599
193  343  682
241  391  950
305  453  1226
369  523  1550
418  568  1859
482  632  2199
530  684  2515
578  732  2824
658  803  3051
128  263  257
128  269  292
145  279  327
145  295  371
161  311  430
161  317  481
177  349  548
193  375  599
193  387  682
241  430  950
305  482  1226
369  564  1550
418  606  1859
482  670  2199
530  735  2515
578  783  2824
658  835  3051
145  323  273
145  323  308
145  323  343
145  323  371
161  346  430
161  362  481
177  394  548
193  411  599
193  420  682
241  477  950
305  523  1226
369  605  1550
418  653  1859
482  718  2199
530  782  2515
578  830  2824
658  867  3051
145  365  289
145  365  311
145  365  343
145  365  378
161  381  430
161  393  481
177  442  548
193  446  599
193  462  682
241  522  950
305  574  1226
369  650  1550
418  699  1859
482  763  2199
530  827  2515
578  871  2824
658  915  3051
161  448  305
161  448  340
161  448  369
161  448  403
161  448  446
161  448  481
177  480  548
193  496  599
193  512  682
241  575  950
305  624  1226
369  704  1550
418  753  1859
482  817  2199
530  865  2515
578  929  2824
658  964  3051
161  502  321
161  502  359
161  502  381
161  502  436
161  502  474
161  502  512
177  516  548
193  518  599
193  548  682
241  598  950
305  646  1226
369  727  1550
418  777  1859
482  839  2199
530  889  2515
578  958  2824
658  1044  3051
193  572  353
193  572  388
193  572  414
193  572  459
193  572  506
193  572  529
193  572  550
193  567  599
193  588  682
241  641  950
305  701  1226
369  775  1550
418  843  1859
482  956  2199
530  1057  2515
578  1158  2824
658  1285  3051
193  642  353
193  642  404
193  642  436
193  642  468
193  642  506
193  642  560
193  642  568
193  642  604
193  642  682
241  707  950
305  811  1226
369  964  1550
418  1076  1859
482  1204  2199
530  1325  2515
578  1461  2824
658  1510  3051
241  972  401
241  972  440
241  972  478
241  972  532
241  972  570
241  972  608
241  972  616
241  972  668
241  972  747
241  972  950
305  1063  1226
369  1256  1550
418  1384  1859
482  1464  2199
530  1587  2515
578  1705  2824
658  1718  3051
305  1363  466
305  1363  494
305  1363  548
305  1363  596
305  1363  630
305  1363  687
305  1363  680
305  1363  733
305  1363  859
305  1363  1030
305  1363  1241
369  1495  1550
418  1634  1859
482  1748  2199
530  1845  2515
578  1973  2824
658  1991  3051
401  1759  562
401  1759  603
401  1759  644
401  1759  676
401  1759  731
401  1759  768
401  1759  777
401  1759  833
401  1759  1020
401  1759  1223
401  1759  1415
401  1759  1582
418  1808  1859
482  1922  2199
530  2049  2515
578  2159  2824
658  2280  3051
466  2144  626
466  2144  664
466  2144  703
466  2144  750
466  2144  795
466  2144  833
466  2144  841
466  2144  945
466  2144  1116
466  2144  1330
466  2144  1514
466  2144  1678
466  2144  1903
482  2176  2199
530  2268  2515
578  2389  2824
658  2473  3051
514  2451  674
514  2451  713
514  2451  751
514  2451  796
514  2451  843
514  2451  880
514  2451  887
514  2451  1026
514  2451  1220
514  2451  1388
514  2451  1596
514  2451  1790
514  2451  1987
514  2451  2231
530  2520  2515
578  2594  2824
658  2666  3051
562  2732  723
562  2732  761
562  2732  809
562  2732  844
562  2732  879
562  2732  914
562  2732  956
562  2732  1106
562  2732  1309
562  2732  1523
562  2732  1702
562  2732  1885
562  2732  2092
562  2732  2313
562  2710  2537
578  2784  2824
658  2826  3051
610  2998  755
610  2998  809
610  2998  857
610  2998  885
610  2998  923
610  2998  963
610  2998  996
610  2998  1191
610  2998  1405
610  2998  1597
610  2998  1797
610  2998  1965
610  2998  2180
610  2998  2410
610  2998  2614
610  2956  2827
658  2987  3051
674  3180  835
674  3180  867
674  3180  899
674  3180  931
674  3180  964
674  3180  996
674  3180  1108
674  3180  1269
674  3180  1461
674  3180  1622
674  3180  1831
674  3180  2072
674  3180  2280
674  3180  2473
674  3180  2682
674  3180  2858
674  3164  3051
128  177  241
131  193  279
145  209  327
148  209  371
164  241  430
180  257  497
199  273  548
231  305  604
247  305  691
295  353  967
330  401  1241
411  482  1551
459  530  1863
536  594  2215
571  642  2515
632  707  2827
691  771  3051
128  215  241
131  231  292
148  260  349
164  260  378
180  279  446
196  311  513
215  327  564
244  356  620
263  375  755
314  427  1047
362  488  1349
427  539  1599
504  616  1947
539  651  2279
616  729  2614
651  761  2892
707  819  3067
128  263  257
148  295  308
148  295  349
164  301  378
180  327  446
196  343  513
215  365  564
244  397  620
263  414  755
314  472  1047
362  516  1349
427  590  1599
504  654  1947
539  703  2279
616  767  2614
651  805  2892
707  851  3067
148  323  273
164  339  311
164  339  349
164  339  378
180  371  446
196  378  513
215  403  564
244  429  620
263  461  755
314  516  1047
362  564  1349
427  637  1599
504  702  1947
539  750  2279
616  814  2614
651  862  2892
707  883  3067
164  381  289
164  381  337
164  381  369
164  377  403
180  393  446
196  430  513
215  446  564
244  474  620
263  506  755
314  566  1047
362  614  1349
427  678  1599
504  743  1947
539  791  2279
616  859  2614
651  903  2892
707  931  3067
167  448  305
180  449  356
180  449  375
180  449  411
196  449  462
196  465  513
215  496  564
244  513  620
263  544  755
314  607  1047
362  656  1349
427  721  1599
504  800  1947
539  833  2279
616  913  2614
651  944  2892
707  980  3067
199  502  337
215  518  372
215  518  407
215  518  452
215  518  490
215  518  513
215  532  564
244  550  620
263  582  755
314  630  1047
362  680  1349
427  745  1599
504  809  1947
539  857  2279
616  931  2614
651  1012  2892
707  1108  3067
215  572  337
231  588  404
231  588  430
231  588  477
231  588  510
231  588  545
231  588  580
244  588  620
263  620  755
314  673  1047
362  733  1349
427  806  1599
504  923  1947
539  1041  2279
616  1180  2614
651  1255  2892
707  1349  3067
244  650  369
263  707  424
263  707  462
263  707  509
263  707  550
263  707  592
263  707  600
263  707  636
263  707  755
314  787  1047
362  907  1349
427  1060  1599
504  1180  1947
539  1293  2279
616  1437  2614
651  1518  2892
707  1606  3067
295  972  418
314  1068  475
314  1068  526
314  1068  564
314  1068  598
314  1068  655
314  1068  662
314  1068  701
314  1068  827
314  1068  1047
362  1181  1349
427  1331  1599
504  1448  1947
539  1555  2279
616  1689  2614
651  1808  2892
707  1815  3067
346  1363  466
378  1461  539
378  1461  580
378  1461  628
378  1461  666
378  1461  720
378  1461  713
378  1461  780
378  1461  939
378  1461  1121
378  1461  1363
427  1572  1599
504  1730  1947
539  1833  2279
616  1943  2614
651  2066  2892
707  2056  3067
443  1759  578
459  1824  632
459  1824  670
459  1824  718
459  1824  747
459  1824  800
459  1824  807
459  1824  864
459  1824  1084
459  1824  1277
459  1824  1465
459  1824  1631
504  1906  1947
539  2016  2279
616  2160  2614
651  2241  2892
707  2345  3067
504  2144  626
536  2220  697
536  2220  735
536  2220  773
536  2220  811
536  2220  849
536  2220  871
536  2220  1010
536  2220  1196
536  2220  1372
536  2220  1580
536  2220  1758
536  2220  1991
539  2252  2279
616  2385  2614
651  2469  2892
707  2537  3067
568  2458  691
587  2536  761
587  2536  789
587  2536  837
587  2536  875
587  2536  912
587  2536  941
587  2536  1111
587  2536  1293
587  2536  1502
587  2536  1702
587  2536  1869
587  2536  2064
587  2536  2311
616  2577  2614
651  2676  2892
707  2730  3067
603  2742  723
648  2822  809
648  2822  847
648  2822  878
648  2822  919
648  2822  962
648  2822  1026
648  2822  1185
648  2822  1389
648  2822  1581
648  2822  1781
648  2822  1951
648  2822  2184
648  2822  2403
648  2822  2630
651  2832  2892
707  2875  3067
651  2998  771
680  3052  841
680  3052  879
680  3052  917
680  3052  956
680  3052  994
680  3052  1086
680  3052  1262
680  3052  1461
680  3052  1656
680  3052  1881
680  3052  2031
680  3052  2276
680  3052  2492
680  3052  2688
667  3030  2892
707  3051  3067
707  3180  819
739  3212  899
739  3212  931
739  3212  947
739  3212  996
739  3212  1028
739  3212  1172
739  3212  1333
739  3212  1526
739  3212  1686
739  3212  1911
739  3212  2136
739  3212  2345
739  3212  2537
739  3212  2714
739  3212  2907
739  3212  3083
157  193  257
157  193  292
167  209  327
189  225  387
199  241  430
231  273  497
247  289  548
263  305  604
285  321  699
339  369  967
387  418  1241
468  482  1551
526  546  1875
574  594  2215
638  658  2531
693  707  2840
739  771  3067
157  231  257
173  244  308
189  260  349
199  276  394
215  279  446
247  311  513
263  327  564
269  343  620
307  378  763
355  424  1047
414  488  1349
494  552  1614
542  600  1947
606  667  2295
670  742  2614
703  774  2892
755  835  3083
157  269  257
173  285  308
199  301  359
215  333  420
231  343  462
253  359  528
269  381  566
285  407  636
333  446  819
381  494  1100
436  548  1387
510  622  1694
564  676  2003
628  735  2362
693  805  2698
741  847  2963
787  899  3180
173  323  273
183  339  311
209  362  369
215  371  420
231  378  462
253  394  528
269  420  566
285  443  636
333  484  819
381  539  1100
436  589  1387
510  669  1694
564  727  2003
628  782  2362
693  846  2698
741  894  2963
787  931  3180
199  381  305
215  393  340
231  414  375
231  414  420
231  414  462
253  446  528
269  462  566
285  490  636
333  534  819
381  586  1100
436  646  1387
510  711  1694
564  771  2003
628  827  2362
693  887  2698
741  935  2963
787  980  3180
215  448  305
231  449  356
237  480  397
237  480  436
237  480  478
253  496  528
269  512  566
285  528  636
333  576  819
381  624  1100
436  688  1387
510  768  1694
564  816  2003
628  880  2362
693  944  2698
741  993  2963
787  1012  3180
247  518  353
263  534  388
269  548  430
269  548  475
269  548  510
269  548  545
269  534  566
285  566  636
333  598  819
381  662  1100
436  713  1387
510  777  1694
564  827  2003
628  895  2362
693  996  2698
741  1096  2963
787  1204  3180
263  572  353
269  588  401
285  604  446
285  604  491
285  604  538
285  604  561
285  604  582
285  604  636
333  652  819
381  701  1100
436  769  1387
510  891  1694
564  993  2003
628  1148  2362
693  1239  2698
741  1367  2963
787  1461  3180
285  658  385
301  707  424
333  787  494
333  787  532
333  787  570
333  787  624
333  787  630
333  787  668
333  779  819
381  875  1100
436  988  1387
510  1140  1694
564  1253  2003
628  1413  2362
693  1534  2698
741  1646  2963
787  1686  3180
339  988  434
355  1068  462
387  1159  558
387  1159  596
387  1159  634
387  1159  671
387  1159  680
387  1159  748
387  1159  899
387  1159  1105
436  1240  1387
510  1405  1694
564  1534  2003
628  1657  2362
693  1792  2698
741  1898  2963
787  1927  3180
403  1379  482
430  1463  549
452  1556  612
452  1556  653
452  1556  695
452  1556  736
452  1556  745
452  1556  816
452  1556  1004
452  1556  1206
452  1556  1403
510  1680  1694
564  1797  2003
628  1909  2362
693  2052  2698
741  2136  2963
787  2168  3180
500  1759  578
516  1824  622
542  1906  703
542  1906  734
542  1906  779
542  1906  832
542  1906  839
542  1906  967
542  1906  1164
542  1906  1335
542  1906  1528
542  1906  1711
564  1970  2003
628  2127  2362
693  2226  2698
741  2306  2963
787  2457  3180
558  2148  626
590  2224  700
606  2268  767
606  2268  805
606  2268  843
606  2268  881
606  2268  909
606  2268  1063
606  2268  1245
606  2268  1469
606  2268  1654
606  2268  1807
606  2268  2035
638  2369  2362
693  2457  2698
741  2557  2963
787  2618  3180
616  2467  691
638  2536  761
670  2621  825
670  2621  853
670  2621  895
670  2621  929
670  2621  964
670  2621  1164
670  2621  1373
670  2621  1554
670  2621  1750
670  2621  1935
670  2621  2164
670  2621  2394
693  2660  2692
741  2731  2963
787  2794  3180
670  2748  739
693  2822  809
719  2871  863
719  2871  901
719  2871  939
719  2871  979
719  2871  1056
719  2871  1246
719  2871  1453
719  2871  1651
719  2871  1863
719  2871  2046
719  2871  2272
719  2871  2467
719  2871  2714
741  2893  2963
787  2955  3180
725  3014  771
725  3065  828
767  3119  921
767  3119  949
767  3119  988
767  3119  1027
767  3119  1168
767  3119  1352
767  3119  1566
767  3119  1747
767  3119  1959
767  3119  2112
767  3119  2361
767  3119  2570
767  3119  2768
767  3119  2969
787  3115  3180
755  3180  835
771  3212  899
787  3260  931
787  3260  964
787  3260  996
787  3260  1044
787  3260  1220
787  3260  1413
787  3260  1606
787  3260  1734
787  3260  1975
787  3260  2232
787  3260  2425
787  3260  2618
787  3260  2826
787  3260  2987
787  3260  3180
218  225  273
218  225  324
218  225  349
227  225  387
250  257  446
259  273  497
298  305  564
323  321  620
332  321  707
387  369  967
443  434  1243
525  498  1567
573  546  1875
637  610  2231
686  658  2531
741  723  2840
787  787  3067
218  260  273
234  276  327
234  276  349
234  276  394
259  295  462
275  311  513
323  343  580
339  359  636
371  391  771
420  440  1063
468  491  1349
541  552  1614
605  616  1963
653  667  2295
709  729  2624
764  790  2895
