PS/3DLUTs/Insta-gotham.3dl
#Created by: Generate3DLut
#Generator: Copyright 2012 by Linus Hechinger
0 128 256 384 512 639 767 895 1023
0  0  0
0  0  0
0  0  0
0  0  0
0  0  0
0  0  0
450  658  883
1301  1365  1514
1863  1911  1911
0  0  0
0  0  0
0  0  0
0  0  0
0  0  0
0  0  0
450  785  883
1301  1431  1514
1863  1911  1911
0  0  0
0  0  0
0  0  0
0  0  0
0  0  0
0  0  0
450  911  883
1301  1497  1514
1863  1911  1911
0  0  0
0  0  0
0  0  0
0  0  0
0  0  0
0  0  0
450  701  883
1301  1387  1514
1863  1911  1911
0  0  0
0  0  0
0  0  0
0  0  0
0  0  0
0  0  0
450  827  883
1301  1453  1514
1863  1911  1911
0  0  0
0  0  0
0  0  0
0  0  0
0  0  0
0  0  0
450  953  883
1301  1520  1514
1863  1911  1911
450  743  819
450  743  915
450  743  1012
450  743  851
450  743  947
450  743  1044
450  743  883
1301  1409  1514
1863  1911  1911
1301  1475  1413
1301  1475  1473
1301  1475  1534
1301  1475  1433
1301  1475  1493
1301  1475  1554
1301  1475  1453
1301  1475  1514
1863  1911  1911
1863  1911  1911
1863  1911  1911
1863  1911  1911
1863  1911  1911
1863  1911  1911
1863  1911  1911
1863  1911  1911
1863  1911  1911
1863  1911  1911
0  0  0
0  0  0
0  0  0
0  0  0
0  0  0
0  0  0
588  658  883
1385  1365  1514
1863  1911  1911
0  0  0
0  0  0
0  0  0
0  0  0
0  0  0
347  588  897
1385  1431  1453
1901  1917  1943
2329  2296  2248
0  0  0
0  0  0
0  0  0
0  0  0
0  0  0
347  727  897
1385  1497  1453
1901  1971  1943
2329  2296  2248
0  0  0
0  0  0
0  0  0
0  0  0
0  0  0
347  496  897
1385  1387  1453
1901  1881  1943
2329  2296  2248
0  0  0
0  0  0
0  0  0
0  0  0
0  0  0
347  634  897
1385  1453  1453
1901  1935  1943
2329  2296  2248
0  0  0
347  773  761
347  773  863
347  773  693
347  773  795
347  773  897
1385  1520  1453
1901  1989  1943
2329  2296  2248
588  743  819
1385  1409  1473
1385  1409  1534
1385  1409  1433
1385  1409  1493
1385  1409  1554
1385  1409  1453
1901  1899  1943
2329  2296  2248
1385  1475  1413
1901  1953  1911
1901  1953  1959
1901  1953  1879
1901  1953  1927
1901  1953  1975
1901  1953  1895
1901  1953  1943
2329  2296  2248
1863  1911  1911
2329  2296  2248
2329  2296  2248
2329  2296  2248
2329  2296  2248
2329  2296  2248
2329  2296  2248
2329  2296  2248
2329  2296  2248
0  0  0
0  0  0
0  0  0
0  0  0
0  0  0
0  0  0
727  658  883
1469  1365  1514
1863  1911  1911
0  0  0
0  0  0
0  0  0
0  0  0
0  0  0
534  588  897
1469  1431  1453
1955  1917  1943
2329  2296  2248
0  0  0
0  0  0
0  0  0
0  0  0
534  727  795
1353  1381  1441
1955  1971  1895
2377  2345  2266
2730  2682  2537
0  0  0
0  0  0
0  0  0
0  0  0
534  496  795
1353  1261  1441
1955  1881  1895
2377  2264  2266
2730  2682  2537
0  0  0
0  0  0
534  634  863
534  634  693
534  634  795
1353  1333  1441
1955  1935  1895
2377  2312  2266
2730  2682  2537
0  0  0
534  773  761
1353  1405  1421
1353  1405  1321
1353  1405  1381
1353  1405  1441
1955  1989  1895
2377  2361  2266
2730  2682  2537
727  743  819
1469  1409  1473
1955  1899  1959
1955  1899  1879
1955  1899  1927
1955  1899  1975
1955  1899  1895
2377  2280  2266
2730  2682  2537
1469  1475  1413
1955  1953  1911
2377  2329  2276
2377  2329  2226
2377  2329  2256
2377  2329  2286
2377  2329  2236
2377  2329  2266
2730  2682  2537
1863  1911  1911
2329  2296  2248
2730  2682  2537
2730  2682  2537
2730  2682  2537
2730  2682  2537
2730  2682  2537
2730  2682  2537
2730  2682  2537
0  0  0
0  0  0
0  0  0
0  0  0
0  0  0
0  0  0
496  658  883
1329  1365  1514
1863  1911  1911
0  0  0
0  0  0
0  0  0
0  0  0
0  0  0
223  588  897
1329  1431  1453
1865  1917  1943
2329  2296  2248
0  0  0
0  0  0
0  0  0
0  0  0
223  727  795
1202  1381  1441
1865  1971  1895
2296  2345  2266
2730  2682  2537
0  0  0
0  0  0
0  0  0
496  701  851
1329  1387  1493
1865  1881  1975
2345  2312  2272
2744  2696  2608
3115  3083  2875
0  0  0
0  0  0
223  634  863
1329  1453  1433
1329  1453  1493
1865  1935  1975
2345  2361  2272
2744  2738  2608
3115  3083  2875
0  0  0
223  773  761
1202  1405  1421
1865  1989  1879
1865  1989  1927
1865  1989  1975
2345  2409  2272
2744  2780  2608
3115  3083  2875
496  743  819
1329  1409  1473
1865  1899  1959
2345  2329  2260
2345  2329  2296
2345  2329  2333
2345  2329  2272
2744  2710  2608
3115  3083  2875
1329  1475  1413
1865  1953  1911
2296  2329  2276
2744  2752  2551
2744  2752  2594
2744  2752  2636
2744  2752  2565
2744  2752  2608
3115  3083  2875
1863  1911  1911
2329  2296  2248
2730  2682  2537
3115  3083  2875
3115  3083  2875
3115  3083  2875
3115  3083  2875
3115  3083  2875
3115  3083  2875
0  0  0
0  0  0
0  0  0
0  0  0
0  0  0
0  0  0
634  658  883
1413  1365  1514
1863  1911  1911
0  0  0
0  0  0
0  0  0
0  0  0
0  0  0
410  588  897
1413  1431  1453
1919  1917  1943
2329  2296  2248
0  0  0
0  0  0
410  727  863
410  727  693
410  727  795
1293  1381  1441
1919  1971  1895
2345  2345  2266
2730  2682  2537
0  0  0
0  0  0
410  496  863
1413  1387  1433
1413  1387  1493
1919  1881  1975
2393  2312  2272
2786  2696  2608
3115  3083  2875
0  0  0
0  0  0
410  634  863
1413  1453  1433
1919  1935  1927
2345  2312  2286
2786  2738  2565
3107  3067  2871
3437  3388  3131
0  0  0
410  773  761
1293  1405  1421
1919  1989  1879
2345  2361  2256
2345  2361  2286
2786  2780  2565
3107  3103  2871
3437  3388  3131
634  743  819
1413  1409  1473
1919  1899  1959
2393  2329  2260
2786  2710  2594
2786  2710  2636
2786  2710  2565
3107  3043  2871
3437  3388  3131
1413  1475  1413
1919  1953  1911
2345  2329  2276
2786  2752  2551
3107  3079  2858
3107  3079  2895
3107  3079  2834
3107  3079  2871
3437  3388  3131
1863  1911  1911
2329  2296  2248
2730  2682  2537
3115  3083  2875
3437  3388  3131
3437  3388  3131
3437  3388  3131
3437  3388  3131
3437  3388  3131
0  0  0
0  0  0
0  0  0
0  0  0
0  0  0
0  0  0
773  658  883
1497  1365  1514
1863  1911  1911
0  0  0
596  588  761
596  588  863
596  588  693
596  588  795
596  588  897
1497  1431  1453
1973  1917  1943
2329  2296  2248
0  0  0
596  727  761
1383  1381  1421
1383  1381  1321
1383  1381  1381
1383  1381  1441
1973  1971  1895
2393  2345  2266
2730  2682  2537
0  0  0
596  496  761
1383  1261  1421
1973  1881  1879
1973  1881  1927
1973  1881  1975
2441  2312  2272
2828  2696  2608
3115  3083  2875
0  0  0
596  634  761
1383  1333  1421
1973  1935  1879
2393  2312  2256
2393  2312  2286
2828  2738  2565
3150  3067  2871
3437  3388  3131
0  0  0
596  773  761
1383  1405  1421
1973  1989  1879
2393  2361  2256
2780  2748  2589
3150  3103  2834
3459  3425  3123
3742  3661  3372
773  743  819
1497  1409  1473
1973  1899  1959
2441  2329  2260
2828  2710  2594
3150  3043  2895
3150  3043  2834
3459  3364  3123
3742  3661  3372
1497  1475  1413
1973  1953  1911
2393  2329  2276
2828  2752  2551
3150  3079  2858
3459  3400  3140
3459  3400  3099
3459  3400  3123
3742  3661  3372
1863  1911  1911
2329  2296  2248
2730  2682  2537
3115  3083  2875
3437  3388  3131
3742  3661  3372
3742  3661  3372
3742  3661  3372
3742  3661  3372
542  658  819
542  658  915
542  658  1012
542  658  851
542  658  947
542  658  1044
542  658  883
1357  1365  1514
1863  1911  1911
542  785  819
1357  1431  1473
1357  1431  1534
1357  1431  1433
1357  1431  1493
1357  1431  1554
1357  1431  1453
1883  1917  1943
2329  2296  2248
542  911  819
1357  1497  1473
1883  1971  1959
1883  1971  1879
1883  1971  1927
1883  1971  1975
1883  1971  1895
2312  2345  2266
2730  2682  2537
542  701  819
1357  1387  1473
1883  1881  1959
2361  2312  2260
2361  2312  2296
2361  2312  2333
2361  2312  2272
2758  2696  2608
3115  3083  2875
542  827  819
1357  1453  1473
1883  1935  1959
2361  2361  2260
2758  2738  2594
2758  2738  2636
2758  2738  2565
3079  3067  2871
3437  3388  3131
542  953  819
1357  1520  1473
1883  1989  1959
2361  2409  2260
2758  2780  2594
3079  3103  2895
3079  3103  2834
3408  3425  3123
3742  3661  3372
542  743  819
1357  1409  1473
1883  1899  1959
2361  2329  2260
2758  2710  2594
3079  3043  2895
3461  3412  3148
3762  3686  3423
4015  3950  3629
1357  1475  1413
1883  1953  1911
2312  2329  2276
2758  2752  2551
3079  3079  2858
3408  3400  3140
3762  3722  3392
3762  3722  3423
4015  3950  3629
1863  1911  1911
2329  2296  2248
2730  2682  2537
3115  3083  2875
3437  3388  3131
3742  3661  3372
4015  3950  3629
4015  3950  3629
4015  3950  3629
1441  1365  1413
1441  1365  1473
1441  1365  1534
1441  1365  1433
1441  1365  1493
1441  1365  1554
1441  1365  1453
1441  1365  1514
1863  1911  1911
1441  1431  1413
1937  1917  1911
1937  1917  1959
1937  1917  1879
1937  1917  1927
1937  1917  1975
1937  1917  1895
1937  1917  1943
2329  2296  2248
1441  1497  1413
1937  1971  1911
2361  2345  2276
2361  2345  2226
2361  2345  2256
2361  2345  2286
2361  2345  2236
2361  2345  2266
2730  2682  2537
1441  1387  1413
1937  1881  1911
2361  2264  2276
2800  2696  2551
2800  2696  2594
2800  2696  2636
2800  2696  2565
2800  2696  2608
3115  3083  2875
1441  1453  1413
1937  1935  1911
2361  2312  2276
2800  2738  2551
3121  3067  2858
3121  3067  2895
3121  3067  2834
3121  3067  2871
3437  3388  3131
1441  1520  1413
1937  1989  1911
2361  2361  2276
2800  2780  2551
3121  3103  2858
3439  3425  3140
3439  3425  3099
3439  3425  3123
3742  3661  3372
1441  1409  1413
1937  1899  1911
2361  2280  2276
2800  2710  2551
3121  3043  2858
3439  3364  3140
3792  3686  3392
3792  3686  3423
4015  3950  3629
1441  1475  1413
1937  1953  1911
2361  2329  2276
2800  2752  2551
3121  3079  2858
3439  3400  3140
3792  3722  3392
4049  3979  3637
4095  4095  3838
1863  1911  1911
2329  2296  2248
2730  2682  2537
3115  3083  2875
3437  3388  3131
3742  3661  3372
4015  3950  3629
4095  4095  3838
4095  4095  3838
1863  1911  1911
1863  1911  1911
1863  1911  1911
1863  1911  1911
1863  1911  1911
1863  1911  1911
1863  1911  1911
1863  1911  1911
1863  1911  1911
1863  1911  1911
2329  2296  2248
2329  2296  2248
2329  2296  2248
2329  2296  2248
2329  2296  2248
2329  2296  2248
2329  2296  2248
2329  2296  2248
1863  1911  1911
2329  2296  2248
2730  2682  2537
2730  2682  2537
2730  2682  2537
2730  2682  2537
2730  2682  2537
2730  2682  2537
2730  2682  2537
1863  1911  1911
2329  2296  2248
2730  2682  2537
3115  3083  2875
3115  3083  2875
3115  3083  2875
3115  3083  2875
3115  3083  2875
3115  3083  2875
1863  1911  1911
2329  2296  2248
2730  2682  2537
3115  3083  2875
3437  3388  3131
3437  3388  3131
3437  3388  3131
3437  3388  3131
3437  3388  3131
1863  1911  1911
2329  2296  2248
2730  2682  2537
3115  3083  2875
3437  3388  3131
3742  3661  3372
3742  3661  3372
3742  3661  3372
3742  3661  3372
1863  1911  1911
2329  2296  2248
2730  2682  2537
3115  3083  2875
3437  3388  3131
3742  3661  3372
4015  3950  3629
4015  3950  3629
4015  3950  3629
1863  1911  1911
2329  2296  2248
2730  2682  2537
3115  3083  2875
3437  3388  3131
3742  3661  3372
4015  3950  3629
4095  4095  3838
4095  4095  3838
1863  1911  1911
2329  2296  2248
2730  2682  2537
3115  3083  2875
3437  3388  3131
3742  3661  3372
4015  3950  3629
4095  4095  3838
4095  4095  4095
