PS/3DLUTs/Insta-lomo-fi.3dl
#Created by: Generate3DLut
#Generator: Copyright 2012 by Linus Hechinger
0 256 512 767 1023
0  0  0
0  0  0
0  0  2409
0  0  3184
0  0  3324
0  0  0
0  0  0
0  0  2409
0  0  3184
0  0  3324
0  2409  0
0  2409  0
0  2409  2409
0  2409  3184
0  2361  3324
0  3184  0
0  3184  0
0  3184  2409
0  3184  3184
0  3180  3324
0  3324  0
0  3324  0
0  3324  2361
0  3324  3180
0  3324  3324
0  0  0
0  0  0
0  0  2409
0  0  3184
0  0  3324
0  0  0
0  0  0
0  0  2409
0  0  3184
0  0  3324
0  2409  0
0  2409  0
0  2409  2409
0  2409  3184
0  2361  3324
0  3184  0
0  3184  0
0  3184  2409
0  3184  3184
0  3180  3324
0  3324  0
0  3324  0
0  3324  2361
0  3324  3180
0  3324  3324
2409  0  0
2409  0  0
2409  0  2409
2409  0  3184
2361  0  3324
2409  0  0
2409  0  0
2409  0  2409
2409  0  3184
2361  0  3324
2409  2409  0
2409  2409  0
2409  2409  2409
2409  2409  3184
2361  2361  3324
2409  3184  0
2409  3184  0
2409  3184  2409
2409  3184  3184
2361  3180  3324
2361  3324  0
2361  3324  0
2361  3324  2361
2361  3324  3180
2361  3324  3324
3184  0  0
3184  0  0
3184  0  2409
3184  0  3184
3180  0  3324
3184  0  0
3184  0  0
3184  0  2409
3184  0  3184
3180  0  3324
3184  2409  0
3184  2409  0
3184  2409  2409
3184  2409  3184
3180  2361  3324
3184  3184  0
3184  3184  0
3184  3184  2409
3184  3184  3184
3180  3180  3324
3180  3324  0
3180  3324  0
3180  3324  2361
3180  3324  3180
3180  3324  3324
3324  0  0
3324  0  0
3324  0  2361
3324  0  3180
3324  0  3324
3324  0  0
3324  0  0
3324  0  2361
3324  0  3180
3324  0  3324
3324  2361  0
3324  2361  0
3324  2361  2361
3324  2361  3180
3324  2361  3324
3324  3180  0
3324  3180  0
3324  3180  2361
3324  3180  3180
3324  3180  3324
3324  3324  0
3324  3324  0
3324  3324  2361
3324  3324  3180
3324  3324  3324
