PS/3DLUTs/Insta-lord-kelvin.3dl
#Created by: Generate3DLut
#Generator: Copyright 2012 by Linus Hechinger
0 256 512 767 1023
642  369  1253
642  369  1265
642  369  1526
642  369  2397
642  369  2569
642  1409  1253
642  1409  1265
642  1409  1526
642  1409  2397
642  1349  2569
642  2329  1253
642  2329  1265
642  2329  1526
642  2329  2397
642  2296  2569
642  3131  1253
642  3131  1265
642  3131  1526
642  3131  2397
642  3115  2569
642  3421  1253
642  3421  1253
642  3421  1510
642  3421  2377
642  3421  2569
2381  369  1253
2381  369  1265
2381  369  1526
2381  369  2397
2296  369  2569
2381  1409  1253
2381  1409  1265
2381  1409  1526
2381  1409  2397
2296  1349  2569
2381  2329  1253
2381  2329  1265
2381  2329  1526
2381  2329  2397
2296  2296  2569
2381  3131  1253
2381  3131  1265
2381  3131  1526
2381  3131  2397
2296  3115  2569
2296  3421  1253
2296  3421  1253
2296  3421  1510
2296  3421  2377
2296  3421  2569
3396  369  1253
3396  369  1265
3396  369  1526
3396  369  2397
3372  369  2569
3396  1409  1253
3396  1409  1265
3396  1409  1526
3396  1409  2397
3372  1349  2569
3396  2329  1253
3396  2329  1265
3396  2329  1526
3396  2329  2397
3372  2296  2569
3396  3131  1253
3396  3131  1265
3396  3131  1526
3396  3131  2397
3372  3115  2569
3372  3421  1253
3372  3421  1253
3372  3421  1510
3372  3421  2377
3372  3421  2569
3846  369  1253
3846  369  1265
3846  369  1526
3846  369  2397
3838  369  2569
3846  1409  1253
3846  1409  1265
3846  1409  1526
3846  1409  2397
3838  1349  2569
3846  2329  1253
3846  2329  1265
3846  2329  1526
3846  2329  2397
3838  2296  2569
3846  3131  1253
3846  3131  1265
3846  3131  1526
3846  3131  2397
3838  3115  2569
3838  3421  1253
3838  3421  1253
3838  3421  1510
3838  3421  2377
3838  3421  2569
4015  369  1253
4015  369  1253
4015  369  1510
4015  369  2377
4015  369  2569
4015  1349  1253
4015  1349  1253
4015  1349  1510
4015  1349  2377
4015  1349  2569
4015  2296  1253
4015  2296  1253
4015  2296  1510
4015  2296  2377
4015  2296  2569
4015  3115  1253
4015  3115  1253
4015  3115  1510
4015  3115  2377
4015  3115  2569
4015  3421  1253
4015  3421  1253
4015  3421  1510
4015  3421  2377
4015  3421  2569
