PS/3DLUTs/Insta-walden.3dl
#Created by: Generate3DLut
#Generator: Copyright 2012 by Linus Hechinger
0 256 512 767 1023
128  177  241
161  241  430
193  305  682
418  530  1859
658  771  3051
145  365  289
161  381  430
193  462  682
418  699  1859
658  915  3051
193  642  353
193  642  506
193  642  682
418  1076  1859
658  1510  3051
466  2144  626
466  2144  795
466  2144  1116
466  2144  1903
658  2473  3051
674  3180  835
674  3180  964
674  3180  1461
674  3180  2280
674  3164  3051
269  225  289
285  257  446
377  321  707
614  546  1875
835  787  3067
285  397  305
349  462  510
474  586  939
727  839  2184
931  1028  3276
381  666  385
474  939  630
474  939  939
727  1445  2184
931  1879  3276
662  2160  642
759  2437  891
759  2437  1397
759  2437  2212
931  2762  3276
851  3196  851
947  3372  1076
947  3372  1718
947  3372  2569
947  3372  3276
554  305  369
554  305  510
578  321  707
827  546  1875
1204  787  3067
570  478  385
674  570  602
715  614  964
1140  855  2212
1590  1044  3292
586  674  385
715  972  662
1100  1413  1317
1662  1959  2594
2072  2361  3613
883  2164  642
1188  2469  923
1694  2826  1815
1694  2826  2626
2072  3164  3613
1220  3196  851
1622  3404  1092
2072  3645  2168
2072  3645  3019
2072  3645  3597
1807  546  594
1819  546  763
1819  546  1084
1823  562  1891
2200  787  3067
1811  727  594
2108  843  875
2108  843  1381
2120  871  2216
2489  1060  3292
1823  1116  594
2108  1461  875
2497  1951  1791
2553  2015  2658
2875  2425  3661
1867  2164  642
2156  2469  923
2545  2854  1839
2931  3272  3123
3196  3533  3854
2200  3196  851
2505  3404  1092
2842  3661  2184
3196  3886  3421
3196  3886  3854
2778  739  787
2778  739  915
2778  739  1413
2778  739  2232
2810  771  3035
2794  915  803
2907  996  1012
2907  996  1670
2907  996  2521
2955  1044  3292
2794  1493  803
2907  1847  1012
3067  2296  2104
3099  2329  2987
3180  2409  3661
2794  2473  803
2907  2730  1012
3067  3099  2104
3260  3501  3372
3324  3565  3870
2826  3196  851
2987  3404  1092
3148  3661  2184
3324  3918  3453
3340  3983  3983
