PS/3DLUTs/Insta-XproII.3dl
#Created by: Generate3DLut
#Generator: Copyright 2012 by Linus Hechinger
0 128 256 384 512 639 767 895 1023
0  0  755
0  0  857
0  0  1052
0  0  1357
0  0  1855
0  0  2383
0  0  2802
0  0  3135
0  0  3324
0  102  755
0  102  857
0  102  1052
0  102  1357
0  102  1855
0  102  2383
0  102  2802
0  102  3135
0  96  3324
0  494  755
0  494  857
0  494  1052
0  494  1357
0  494  1855
0  494  2383
0  494  2802
0  494  3135
0  434  3324
0  1072  755
0  1072  857
0  1072  1052
0  1072  1357
0  1072  1855
0  1072  2383
0  1072  2802
0  1072  3135
0  1060  3324
0  1815  755
0  1815  857
0  1815  1052
0  1815  1357
0  1815  1855
0  1815  2383
0  1815  2802
0  1815  3135
0  1750  3324
0  2684  755
0  2684  857
0  2684  1052
0  2684  1357
0  2684  1855
0  2684  2383
0  2684  2802
0  2684  3135
0  2585  3324
0  3340  755
0  3340  857
0  3340  1052
0  3340  1357
0  3340  1855
0  3340  2383
0  3340  2802
0  3340  3135
0  3324  3324
0  3734  755
0  3734  857
0  3734  1052
0  3734  1357
0  3734  1855
0  3734  2383
0  3734  2802
0  3734  3135
0  3694  3324
0  3870  755
0  3870  851
0  3870  1028
0  3870  1349
0  3870  1815
0  3870  2312
0  3870  2778
0  3870  3115
0  3870  3324
0  0  755
0  0  857
0  0  1052
0  0  1357
0  0  1855
0  0  2383
0  0  2802
0  0  3135
0  0  3324
0  102  755
0  102  857
0  102  1052
0  102  1357
0  102  1855
0  102  2383
0  102  2802
0  102  3135
0  96  3324
0  494  755
0  494  857
0  494  1052
0  494  1357
0  494  1855
0  494  2383
0  494  2802
0  494  3135
0  434  3324
0  1072  755
0  1072  857
0  1072  1052
0  1072  1357
0  1072  1855
0  1072  2383
0  1072  2802
0  1072  3135
0  1060  3324
0  1815  755
0  1815  857
0  1815  1052
0  1815  1357
0  1815  1855
0  1815  2383
0  1815  2802
0  1815  3135
0  1750  3324
0  2684  755
0  2684  857
0  2684  1052
0  2684  1357
0  2684  1855
0  2684  2383
0  2684  2802
0  2684  3135
0  2585  3324
0  3340  755
0  3340  857
0  3340  1052
0  3340  1357
0  3340  1855
0  3340  2383
0  3340  2802
0  3340  3135
0  3324  3324
0  3734  755
0  3734  857
0  3734  1052
0  3734  1357
0  3734  1855
0  3734  2383
0  3734  2802
0  3734  3135
0  3694  3324
0  3870  755
0  3870  851
0  3870  1028
0  3870  1349
0  3870  1815
0  3870  2312
0  3870  2778
0  3870  3115
0  3870  3324
0  0  755
0  0  857
0  0  1052
0  0  1357
0  0  1855
0  0  2383
0  0  2802
0  0  3135
0  0  3324
0  102  755
0  102  857
0  102  1052
0  102  1357
0  102  1855
0  102  2383
0  102  2802
0  102  3135
0  96  3324
0  494  755
0  494  857
0  494  1052
0  494  1357
0  494  1855
0  494  2383
0  494  2802
0  494  3135
0  434  3324
0  1072  755
0  1072  857
0  1072  1052
0  1072  1357
0  1072  1855
0  1072  2383
0  1072  2802
0  1072  3135
0  1060  3324
0  1815  755
0  1815  857
0  1815  1052
0  1815  1357
0  1815  1855
0  1815  2383
0  1815  2802
0  1815  3135
0  1750  3324
0  2684  755
0  2684  857
0  2684  1052
0  2684  1357
0  2684  1855
0  2684  2383
0  2684  2802
0  2684  3135
0  2585  3324
0  3340  755
0  3340  857
0  3340  1052
0  3340  1357
0  3340  1855
0  3340  2383
0  3340  2802
0  3340  3135
0  3324  3324
0  3734  755
0  3734  857
0  3734  1052
0  3734  1357
0  3734  1855
0  3734  2383
0  3734  2802
0  3734  3135
0  3694  3324
0  3870  755
0  3870  851
0  3870  1028
0  3870  1349
0  3870  1815
0  3870  2312
0  3870  2778
0  3870  3115
0  3870  3324
243  0  755
243  0  857
243  0  1052
243  0  1357
243  0  1855
243  0  2383
243  0  2802
243  0  3135
193  0  3324
243  102  755
243  102  857
243  102  1052
243  102  1357
243  102  1855
243  102  2383
243  102  2802
243  102  3135
193  96  3324
243  494  755
243  494  857
243  494  1052
243  494  1357
243  494  1855
243  494  2383
243  494  2802
243  494  3135
193  434  3324
243  1072  755
243  1072  857
243  1072  1052
243  1072  1357
243  1072  1855
243  1072  2383
243  1072  2802
243  1072  3135
193  1060  3324
243  1815  755
243  1815  857
243  1815  1052
243  1815  1357
243  1815  1855
243  1815  2383
243  1815  2802
243  1815  3135
193  1750  3324
243  2684  755
243  2684  857
243  2684  1052
243  2684  1357
243  2684  1855
243  2684  2383
243  2684  2802
243  2684  3135
193  2585  3324
243  3340  755
243  3340  857
243  3340  1052
243  3340  1357
243  3340  1855
243  3340  2383
243  3340  2802
243  3340  3135
193  3324  3324
243  3734  755
243  3734  857
243  3734  1052
243  3734  1357
243  3734  1855
243  3734  2383
243  3734  2802
243  3734  3135
193  3694  3324
193  3870  755
193  3870  851
193  3870  1028
193  3870  1349
193  3870  1815
193  3870  2312
193  3870  2778
193  3870  3115
193  3870  3324
1927  0  755
1927  0  857
1927  0  1052
1927  0  1357
1927  0  1855
1927  0  2383
1927  0  2802
1927  0  3135
1847  0  3324
1927  102  755
1927  102  857
1927  102  1052
1927  102  1357
1927  102  1855
1927  102  2383
1927  102  2802
1927  102  3135
1847  96  3324
1927  494  755
1927  494  857
1927  494  1052
1927  494  1357
1927  494  1855
1927  494  2383
1927  494  2802
1927  494  3135
1847  434  3324
1927  1072  755
1927  1072  857
1927  1072  1052
1927  1072  1357
1927  1072  1855
1927  1072  2383
1927  1072  2802
1927  1072  3135
1847  1060  3324
1927  1815  755
1927  1815  857
1927  1815  1052
1927  1815  1357
1927  1815  1855
1927  1815  2383
1927  1815  2802
1927  1815  3135
1847  1750  3324
1927  2684  755
1927  2684  857
1927  2684  1052
1927  2684  1357
1927  2684  1855
1927  2684  2383
1927  2684  2802
1927  2684  3135
1847  2585  3324
1927  3340  755
1927  3340  857
1927  3340  1052
1927  3340  1357
1927  3340  1855
1927  3340  2383
1927  3340  2802
1927  3340  3135
1847  3324  3324
1927  3734  755
1927  3734  857
1927  3734  1052
1927  3734  1357
1927  3734  1855
1927  3734  2383
1927  3734  2802
1927  3734  3135
1847  3694  3324
1847  3870  755
1847  3870  851
1847  3870  1028
1847  3870  1349
1847  3870  1815
1847  3870  2312
1847  3870  2778
1847  3870  3115
1847  3870  3324
2734  0  755
2734  0  857
2734  0  1052
2734  0  1357
2734  0  1855
2734  0  2383
2734  0  2802
2734  0  3135
2650  0  3324
2734  102  755
2734  102  857
2734  102  1052
2734  102  1357
2734  102  1855
2734  102  2383
2734  102  2802
2734  102  3135
2650  96  3324
2734  494  755
2734  494  857
2734  494  1052
2734  494  1357
2734  494  1855
2734  494  2383
2734  494  2802
2734  494  3135
2650  434  3324
2734  1072  755
2734  1072  857
2734  1072  1052
2734  1072  1357
2734  1072  1855
2734  1072  2383
2734  1072  2802
2734  1072  3135
2650  1060  3324
2734  1815  755
2734  1815  857
2734  1815  1052
2734  1815  1357
2734  1815  1855
2734  1815  2383
2734  1815  2802
2734  1815  3135
2650  1750  3324
2734  2684  755
2734  2684  857
2734  2684  1052
2734  2684  1357
2734  2684  1855
2734  2684  2383
2734  2684  2802
2734  2684  3135
2650  2585  3324
2734  3340  755
2734  3340  857
2734  3340  1052
2734  3340  1357
2734  3340  1855
2734  3340  2383
2734  3340  2802
2734  3340  3135
2650  3324  3324
2734  3734  755
2734  3734  857
2734  3734  1052
2734  3734  1357
2734  3734  1855
2734  3734  2383
2734  3734  2802
2734  3734  3135
2650  3694  3324
2650  3870  755
2650  3870  851
2650  3870  1028
2650  3870  1349
2650  3870  1815
2650  3870  2312
2650  3870  2778
2650  3870  3115
2650  3870  3324
3248  0  755
3248  0  857
3248  0  1052
3248  0  1357
3248  0  1855
3248  0  2383
3248  0  2802
3248  0  3135
3228  0  3324
3248  102  755
3248  102  857
3248  102  1052
3248  102  1357
3248  102  1855
3248  102  2383
3248  102  2802
3248  102  3135
3228  96  3324
3248  494  755
3248  494  857
3248  494  1052
3248  494  1357
3248  494  1855
3248  494  2383
3248  494  2802
3248  494  3135
3228  434  3324
3248  1072  755
3248  1072  857
3248  1072  1052
3248  1072  1357
3248  1072  1855
3248  1072  2383
3248  1072  2802
3248  1072  3135
3228  1060  3324
3248  1815  755
3248  1815  857
3248  1815  1052
3248  1815  1357
3248  1815  1855
3248  1815  2383
3248  1815  2802
3248  1815  3135
3228  1750  3324
3248  2684  755
3248  2684  857
3248  2684  1052
3248  2684  1357
3248  2684  1855
3248  2684  2383
3248  2684  2802
3248  2684  3135
3228  2585  3324
3248  3340  755
3248  3340  857
3248  3340  1052
3248  3340  1357
3248  3340  1855
3248  3340  2383
3248  3340  2802
3248  3340  3135
3228  3324  3324
3248  3734  755
3248  3734  857
3248  3734  1052
3248  3734  1357
3248  3734  1855
3248  3734  2383
3248  3734  2802
3248  3734  3135
3228  3694  3324
3228  3870  755
3228  3870  851
3228  3870  1028
3228  3870  1349
3228  3870  1815
3228  3870  2312
3228  3870  2778
3228  3870  3115
3228  3870  3324
3511  0  755
3511  0  857
3511  0  1052
3511  0  1357
3511  0  1855
3511  0  2383
3511  0  2802
3511  0  3135
3501  0  3324
3511  102  755
3511  102  857
3511  102  1052
3511  102  1357
3511  102  1855
3511  102  2383
3511  102  2802
3511  102  3135
3501  96  3324
3511  494  755
3511  494  857
3511  494  1052
3511  494  1357
3511  494  1855
3511  494  2383
3511  494  2802
3511  494  3135
3501  434  3324
3511  1072  755
3511  1072  857
3511  1072  1052
3511  1072  1357
3511  1072  1855
3511  1072  2383
3511  1072  2802
3511  1072  3135
3501  1060  3324
3511  1815  755
3511  1815  857
3511  1815  1052
3511  1815  1357
3511  1815  1855
3511  1815  2383
3511  1815  2802
3511  1815  3135
3501  1750  3324
3511  2684  755
3511  2684  857
3511  2684  1052
3511  2684  1357
3511  2684  1855
3511  2684  2383
3511  2684  2802
3511  2684  3135
3501  2585  3324
3511  3340  755
3511  3340  857
3511  3340  1052
3511  3340  1357
3511  3340  1855
3511  3340  2383
3511  3340  2802
3511  3340  3135
3501  3324  3324
3511  3734  755
3511  3734  857
3511  3734  1052
3511  3734  1357
3511  3734  1855
3511  3734  2383
3511  3734  2802
3511  3734  3135
3501  3694  3324
3501  3870  755
3501  3870  851
3501  3870  1028
3501  3870  1349
3501  3870  1815
3501  3870  2312
3501  3870  2778
3501  3870  3115
3501  3870  3324
3661  0  755
3661  0  851
3661  0  1028
3661  0  1349
3661  0  1815
3661  0  2312
3661  0  2778
3661  0  3115
3661  0  3324
3661  96  755
3661  96  851
3661  96  1028
3661  96  1349
3661  96  1815
3661  96  2312
3661  96  2778
3661  96  3115
3661  96  3324
3661  434  755
3661  434  851
3661  434  1028
3661  434  1349
3661  434  1815
3661  434  2312
3661  434  2778
3661  434  3115
3661  434  3324
3661  1060  755
3661  1060  851
3661  1060  1028
3661  1060  1349
3661  1060  1815
3661  1060  2312
3661  1060  2778
3661  1060  3115
3661  1060  3324
3661  1750  755
3661  1750  851
3661  1750  1028
3661  1750  1349
3661  1750  1815
3661  1750  2312
3661  1750  2778
3661  1750  3115
3661  1750  3324
3661  2585  755
3661  2585  851
3661  2585  1028
3661  2585  1349
3661  2585  1815
3661  2585  2312
3661  2585  2778
3661  2585  3115
3661  2585  3324
3661  3324  755
3661  3324  851
3661  3324  1028
3661  3324  1349
3661  3324  1815
3661  3324  2312
3661  3324  2778
3661  3324  3115
3661  3324  3324
3661  3694  755
3661  3694  851
3661  3694  1028
3661  3694  1349
3661  3694  1815
3661  3694  2312
3661  3694  2778
3661  3694  3115
3661  3694  3324
3661  3870  755
3661  3870  851
3661  3870  1028
3661  3870  1349
3661  3870  1815
3661  3870  2312
3661  3870  2778
3661  3870  3115
3661  3870  3324
