PS/3DLUTs/Insta-nashville.3dl
#Created by: Generate3DLut
#Generator: Copyright 2012 by Linus Hechinger
0 64 128 192 256 320 384 448 512 575 639 703 767 831 895 959 1023
64  434  1606
64  434  1749
64  434  1881
64  434  2027
64  434  2128
64  434  2231
64  434  2314
64  434  2393
64  434  2481
64  434  2527
64  434  2602
64  434  2666
64  434  2706
64  434  2769
64  434  2794
64  434  2794
64  434  2794
64  673  1606
64  673  1749
64  673  1881
64  673  2027
64  673  2128
64  673  2231
64  673  2314
64  673  2393
64  673  2481
64  673  2527
64  673  2602
64  673  2666
64  673  2706
64  673  2769
64  673  2794
64  673  2794
64  658  2794
64  929  1606
64  929  1749
64  929  1881
64  929  2027
64  929  2128
64  929  2231
64  929  2314
64  929  2393
64  929  2481
64  929  2527
64  929  2602
64  929  2666
64  929  2706
64  929  2769
64  929  2794
64  929  2794
64  899  2794
64  1243  1606
64  1243  1749
64  1243  1881
64  1243  2027
64  1243  2128
64  1243  2231
64  1243  2314
64  1243  2393
64  1243  2481
64  1243  2527
64  1243  2602
64  1243  2666
64  1243  2706
64  1243  2769
64  1243  2794
64  1243  2794
64  1188  2794
64  1546  1606
64  1546  1749
64  1546  1881
64  1546  2027
64  1546  2128
64  1546  2231
64  1546  2314
64  1546  2393
64  1546  2481
64  1546  2527
64  1546  2602
64  1546  2666
64  1546  2706
64  1546  2769
64  1546  2794
64  1546  2794
64  1461  2794
64  1860  1606
64  1860  1749
64  1860  1881
64  1860  2027
64  1860  2128
64  1860  2231
64  1860  2314
64  1860  2393
64  1860  2481
64  1860  2527
64  1860  2602
64  1860  2666
64  1860  2706
64  1860  2769
64  1860  2794
64  1860  2794
64  1815  2794
64  2192  1606
64  2192  1749
64  2192  1881
64  2192  2027
64  2192  2128
64  2192  2231
64  2192  2314
64  2192  2393
64  2192  2481
64  2192  2527
64  2192  2602
64  2192  2666
64  2192  2706
64  2192  2769
64  2192  2794
64  2192  2794
64  2184  2794
64  2445  1606
64  2445  1749
64  2445  1881
64  2445  2027
64  2445  2128
64  2445  2231
64  2445  2314
64  2445  2393
64  2445  2481
64  2445  2527
64  2445  2602
64  2445  2666
64  2445  2706
64  2445  2769
64  2445  2794
64  2445  2794
64  2425  2794
64  2658  1606
64  2658  1749
64  2658  1881
64  2658  2027
64  2658  2128
64  2658  2231
64  2658  2314
64  2658  2393
64  2658  2481
64  2658  2527
64  2658  2602
64  2658  2666
64  2658  2706
64  2658  2769
64  2658  2794
64  2658  2794
64  2634  2794
64  2843  1606
64  2843  1749
64  2843  1881
64  2843  2027
64  2843  2128
64  2843  2231
64  2843  2314
64  2843  2393
64  2843  2481
64  2843  2527
64  2843  2602
64  2843  2666
64  2843  2706
64  2843  2769
64  2843  2794
64  2843  2794
64  2810  2794
64  2983  1606
64  2983  1749
64  2983  1881
64  2983  2027
64  2983  2128
64  2983  2231
64  2983  2314
64  2983  2393
64  2983  2481
64  2983  2527
64  2983  2602
64  2983  2666
64  2983  2706
64  2983  2769
64  2983  2794
64  2983  2794
64  2955  2794
64  3133  1606
64  3133  1749
64  3133  1881
64  3133  2027
64  3133  2128
64  3133  2231
64  3133  2314
64  3133  2393
64  3133  2481
64  3133  2527
64  3133  2602
64  3133  2666
64  3133  2706
64  3133  2769
64  3133  2794
64  3133  2794
64  3131  2794
64  3252  1606
64  3252  1749
64  3252  1881
64  3252  2027
64  3252  2128
64  3252  2231
64  3252  2314
64  3252  2393
64  3252  2481
64  3252  2527
64  3252  2602
64  3252  2666
64  3252  2706
64  3252  2769
64  3252  2794
64  3252  2794
64  3244  2794
64  3354  1606
64  3354  1749
64  3354  1881
64  3354  2027
64  3354  2128
64  3354  2231
64  3354  2314
64  3354  2393
64  3354  2481
64  3354  2527
64  3354  2602
64  3354  2666
64  3354  2706
64  3354  2769
64  3354  2794
64  3354  2794
64  3340  2794
64  3453  1606
64  3453  1749
64  3453  1881
64  3453  2027
64  3453  2128
64  3453  2231
64  3453  2314
64  3453  2393
64  3453  2481
64  3453  2527
64  3453  2602
64  3453  2666
64  3453  2706
64  3453  2769
64  3453  2794
64  3453  2794
64  3453  2794
64  3501  1606
64  3501  1749
64  3501  1881
64  3501  2027
64  3501  2128
64  3501  2231
64  3501  2314
64  3501  2393
64  3501  2481
64  3501  2527
64  3501  2602
64  3501  2666
64  3501  2706
64  3501  2769
64  3501  2794
64  3501  2794
64  3501  2794
64  3501  1606
64  3501  1734
64  3501  1863
64  3501  1991
64  3501  2104
64  3501  2216
64  3501  2312
64  3501  2393
64  3501  2473
64  3501  2505
64  3501  2602
64  3501  2666
64  3501  2698
64  3501  2762
64  3501  2794
64  3501  2794
64  3501  2794
339  434  1606
339  434  1749
339  434  1881
339  434  2027
339  434  2128
339  434  2231
339  434  2314
339  434  2393
339  434  2481
339  434  2527
339  434  2602
339  434  2666
339  434  2706
339  434  2769
339  434  2794
339  434  2794
321  434  2794
339  673  1606
339  673  1749
339  673  1881
339  673  2027
339  673  2128
339  673  2231
339  673  2314
339  673  2393
339  673  2481
339  673  2527
339  673  2602
339  673  2666
339  673  2706
339  673  2769
339  673  2794
339  673  2794
321  658  2794
339  929  1606
339  929  1749
339  929  1881
339  929  2027
339  929  2128
339  929  2231
339  929  2314
339  929  2393
339  929  2481
339  929  2527
339  929  2602
339  929  2666
339  929  2706
339  929  2769
339  929  2794
339  929  2794
321  899  2794
339  1243  1606
339  1243  1749
339  1243  1881
339  1243  2027
339  1243  2128
339  1243  2231
339  1243  2314
339  1243  2393
339  1243  2481
339  1243  2527
339  1243  2602
339  1243  2666
339  1243  2706
339  1243  2769
339  1243  2794
339  1243  2794
321  1188  2794
339  1546  1606
339  1546  1749
339  1546  1881
339  1546  2027
339  1546  2128
339  1546  2231
339  1546  2314
339  1546  2393
339  1546  2481
339  1546  2527
339  1546  2602
339  1546  2666
339  1546  2706
339  1546  2769
339  1546  2794
339  1546  2794
321  1461  2794
339  1860  1606
339  1860  1749
339  1860  1881
339  1860  2027
339  1860  2128
339  1860  2231
339  1860  2314
339  1860  2393
339  1860  2481
339  1860  2527
339  1860  2602
339  1860  2666
339  1860  2706
339  1860  2769
339  1860  2794
339  1860  2794
321  1815  2794
339  2192  1606
339  2192  1749
339  2192  1881
339  2192  2027
339  2192  2128
339  2192  2231
339  2192  2314
339  2192  2393
339  2192  2481
339  2192  2527
339  2192  2602
339  2192  2666
339  2192  2706
339  2192  2769
339  2192  2794
339  2192  2794
321  2184  2794
339  2445  1606
339  2445  1749
339  2445  1881
339  2445  2027
339  2445  2128
339  2445  2231
339  2445  2314
339  2445  2393
339  2445  2481
339  2445  2527
339  2445  2602
339  2445  2666
339  2445  2706
339  2445  2769
339  2445  2794
339  2445  2794
321  2425  2794
339  2658  1606
339  2658  1749
339  2658  1881
339  2658  2027
339  2658  2128
339  2658  2231
339  2658  2314
339  2658  2393
339  2658  2481
339  2658  2527
339  2658  2602
339  2658  2666
339  2658  2706
339  2658  2769
339  2658  2794
339  2658  2794
321  2634  2794
339  2843  1606
339  2843  1749
339  2843  1881
339  2843  2027
339  2843  2128
339  2843  2231
339  2843  2314
339  2843  2393
339  2843  2481
339  2843  2527
339  2843  2602
339  2843  2666
339  2843  2706
339  2843  2769
339  2843  2794
339  2843  2794
321  2810  2794
339  2983  1606
339  2983  1749
339  2983  1881
339  2983  2027
339  2983  2128
339  2983  2231
339  2983  2314
339  2983  2393
339  2983  2481
339  2983  2527
339  2983  2602
339  2983  2666
339  2983  2706
339  2983  2769
339  2983  2794
339  2983  2794
321  2955  2794
339  3133  1606
339  3133  1749
339  3133  1881
339  3133  2027
339  3133  2128
339  3133  2231
339  3133  2314
339  3133  2393
339  3133  2481
339  3133  2527
339  3133  2602
339  3133  2666
339  3133  2706
339  3133  2769
339  3133  2794
339  3133  2794
321  3131  2794
339  3252  1606
339  3252  1749
339  3252  1881
339  3252  2027
339  3252  2128
339  3252  2231
339  3252  2314
339  3252  2393
339  3252  2481
339  3252  2527
339  3252  2602
339  3252  2666
339  3252  2706
339  3252  2769
339  3252  2794
339  3252  2794
321  3244  2794
339  3354  1606
339  3354  1749
339  3354  1881
339  3354  2027
339  3354  2128
339  3354  2231
339  3354  2314
339  3354  2393
339  3354  2481
339  3354  2527
339  3354  2602
339  3354  2666
339  3354  2706
339  3354  2769
339  3354  2794
339  3354  2794
321  3340  2794
339  3453  1606
339  3453  1749
339  3453  1881
339  3453  2027
339  3453  2128
339  3453  2231
339  3453  2314
339  3453  2393
339  3453  2481
339  3453  2527
339  3453  2602
339  3453  2666
339  3453  2706
339  3453  2769
339  3453  2794
339  3453  2794
321  3453  2794
339  3501  1606
339  3501  1749
339  3501  1881
339  3501  2027
339  3501  2128
339  3501  2231
339  3501  2314
339  3501  2393
339  3501  2481
339  3501  2527
339  3501  2602
339  3501  2666
339  3501  2706
339  3501  2769
339  3501  2794
339  3501  2794
321  3501  2794
321  3501  1606
321  3501  1734
321  3501  1863
321  3501  1991
321  3501  2104
321  3501  2216
321  3501  2312
321  3501  2393
321  3501  2473
321  3501  2505
321  3501  2602
321  3501  2666
321  3501  2698
321  3501  2762
321  3501  2794
321  3501  2794
321  3501  2794
614  434  1606
614  434  1749
614  434  1881
614  434  2027
614  434  2128
614  434  2231
614  434  2314
614  434  2393
614  434  2481
614  434  2527
614  434  2602
614  434  2666
614  434  2706
614  434  2769
614  434  2794
614  434  2794
578  434  2794
614  673  1606
614  673  1749
614  673  1881
614  673  2027
614  673  2128
614  673  2231
614  673  2314
614  673  2393
614  673  2481
614  673  2527
614  673  2602
614  673  2666
614  673  2706
614  673  2769
614  673  2794
614  673  2794
578  658  2794
614  929  1606
614  929  1749
614  929  1881
614  929  2027
614  929  2128
614  929  2231
614  929  2314
614  929  2393
614  929  2481
614  929  2527
614  929  2602
614  929  2666
614  929  2706
614  929  2769
614  929  2794
614  929  2794
578  899  2794
614  1243  1606
614  1243  1749
614  1243  1881
614  1243  2027
614  1243  2128
614  1243  2231
614  1243  2314
614  1243  2393
614  1243  2481
614  1243  2527
614  1243  2602
614  1243  2666
614  1243  2706
614  1243  2769
614  1243  2794
614  1243  2794
578  1188  2794
614  1546  1606
614  1546  1749
614  1546  1881
614  1546  2027
614  1546  2128
614  1546  2231
614  1546  2314
614  1546  2393
614  1546  2481
614  1546  2527
614  1546  2602
614  1546  2666
614  1546  2706
614  1546  2769
614  1546  2794
614  1546  2794
578  1461  2794
614  1860  1606
614  1860  1749
614  1860  1881
614  1860  2027
614  1860  2128
614  1860  2231
614  1860  2314
614  1860  2393
614  1860  2481
614  1860  2527
614  1860  2602
614  1860  2666
614  1860  2706
614  1860  2769
614  1860  2794
614  1860  2794
578  1815  2794
614  2192  1606
614  2192  1749
614  2192  1881
614  2192  2027
614  2192  2128
614  2192  2231
614  2192  2314
614  2192  2393
614  2192  2481
614  2192  2527
614  2192  2602
614  2192  2666
614  2192  2706
614  2192  2769
614  2192  2794
614  2192  2794
578  2184  2794
614  2445  1606
614  2445  1749
614  2445  1881
614  2445  2027
614  2445  2128
614  2445  2231
614  2445  2314
614  2445  2393
614  2445  2481
614  2445  2527
614  2445  2602
614  2445  2666
614  2445  2706
614  2445  2769
614  2445  2794
614  2445  2794
578  2425  2794
614  2658  1606
614  2658  1749
614  2658  1881
614  2658  2027
614  2658  2128
614  2658  2231
614  2658  2314
614  2658  2393
614  2658  2481
614  2658  2527
614  2658  2602
614  2658  2666
614  2658  2706
614  2658  2769
614  2658  2794
614  2658  2794
578  2634  2794
614  2843  1606
614  2843  1749
614  2843  1881
614  2843  2027
614  2843  2128
614  2843  2231
614  2843  2314
614  2843  2393
614  2843  2481
614  2843  2527
614  2843  2602
614  2843  2666
614  2843  2706
614  2843  2769
614  2843  2794
614  2843  2794
578  2810  2794
614  2983  1606
614  2983  1749
614  2983  1881
614  2983  2027
614  2983  2128
614  2983  2231
614  2983  2314
614  2983  2393
614  2983  2481
614  2983  2527
614  2983  2602
614  2983  2666
614  2983  2706
614  2983  2769
614  2983  2794
614  2983  2794
578  2955  2794
614  3133  1606
614  3133  1749
614  3133  1881
614  3133  2027
614  3133  2128
614  3133  2231
614  3133  2314
614  3133  2393
614  3133  2481
614  3133  2527
614  3133  2602
614  3133  2666
614  3133  2706
614  3133  2769
614  3133  2794
614  3133  2794
578  3131  2794
614  3252  1606
614  3252  1749
614  3252  1881
614  3252  2027
614  3252  2128
614  3252  2231
614  3252  2314
614  3252  2393
614  3252  2481
614  3252  2527
614  3252  2602
614  3252  2666
614  3252  2706
614  3252  2769
614  3252  2794
614  3252  2794
578  3244  2794
614  3354  1606
614  3354  1749
614  3354  1881
614  3354  2027
614  3354  2128
614  3354  2231
614  3354  2314
614  3354  2393
614  3354  2481
614  3354  2527
614  3354  2602
614  3354  2666
614  3354  2706
614  3354  2769
614  3354  2794
614  3354  2794
578  3340  2794
614  3453  1606
614  3453  1749
614  3453  1881
614  3453  2027
614  3453  2128
614  3453  2231
614  3453  2314
614  3453  2393
614  3453  2481
614  3453  2527
614  3453  2602
614  3453  2666
614  3453  2706
614  3453  2769
614  3453  2794
614  3453  2794
578  3453  2794
614  3501  1606
614  3501  1749
614  3501  1881
614  3501  2027
614  3501  2128
614  3501  2231
614  3501  2314
614  3501  2393
614  3501  2481
614  3501  2527
614  3501  2602
614  3501  2666
614  3501  2706
614  3501  2769
614  3501  2794
614  3501  2794
578  3501  2794
578  3501  1606
578  3501  1734
578  3501  1863
578  3501  1991
578  3501  2104
578  3501  2216
578  3501  2312
578  3501  2393
578  3501  2473
578  3501  2505
578  3501  2602
578  3501  2666
578  3501  2698
578  3501  2762
578  3501  2794
578  3501  2794
578  3501  2794
903  434  1606
903  434  1749
903  434  1881
903  434  2027
903  434  2128
903  434  2231
903  434  2314
903  434  2393
903  434  2481
903  434  2527
903  434  2602
903  434  2666
903  434  2706
903  434  2769
903  434  2794
903  434  2794
867  434  2794
903  673  1606
903  673  1749
903  673  1881
903  673  2027
903  673  2128
903  673  2231
903  673  2314
903  673  2393
903  673  2481
903  673  2527
903  673  2602
903  673  2666
903  673  2706
903  673  2769
903  673  2794
903  673  2794
