PS/3DLUTs/Insta-lomo-fi.3dl
#Created by: Generate3DLut
#Generator: Copyright 2012 by Linus Hechinger
0 64 128 192 256 320 384 448 512 575 639 703 767 831 895 959 1023
0  0  0
0  0  0
0  0  0
0  0  0
0  0  0
0  0  277
0  0  1092
0  0  1891
0  0  2409
0  0  2721
0  0  2947
0  0  3085
0  0  3184
0  0  3242
0  0  3292
0  0  3308
0  0  3324
0  0  0
0  0  0
0  0  0
0  0  0
0  0  0
0  0  277
0  0  1092
0  0  1891
0  0  2409
0  0  2721
0  0  2947
0  0  3085
0  0  3184
0  0  3242
0  0  3292
0  0  3308
0  0  3324
0  0  0
0  0  0
0  0  0
0  0  0
0  0  0
0  0  277
0  0  1092
0  0  1891
0  0  2409
0  0  2721
0  0  2947
0  0  3085
0  0  3184
0  0  3242
0  0  3292
0  0  3308
0  0  3324
0  0  0
0  0  0
0  0  0
0  0  0
0  0  0
0  0  277
0  0  1092
0  0  1891
0  0  2409
0  0  2721
0  0  2947
0  0  3085
0  0  3184
0  0  3242
0  0  3292
0  0  3308
0  0  3324
0  0  0
0  0  0
0  0  0
0  0  0
0  0  0
0  0  277
0  0  1092
0  0  1891
0  0  2409
0  0  2721
0  0  2947
0  0  3085
0  0  3184
0  0  3242
0  0  3292
0  0  3308
0  0  3324
0  277  0
0  277  0
0  277  0
0  277  0
0  277  0
0  277  277
0  277  1092
0  277  1891
0  277  2409
0  277  2721
0  277  2947
0  277  3085
0  277  3184
0  277  3242
0  277  3292
0  277  3308
0  96  3324
0  1092  0
0  1092  0
0  1092  0
0  1092  0
0  1092  0
0  1092  277
0  1092  1092
0  1092  1891
0  1092  2409
0  1092  2721
0  1092  2947
0  1092  3085
0  1092  3184
0  1092  3242
0  1092  3292
0  1092  3308
0  1060  3324
0  1891  0
0  1891  0
0  1891  0
0  1891  0
0  1891  0
0  1891  277
0  1891  1092
0  1891  1891
0  1891  2409
0  1891  2721
0  1891  2947
0  1891  3085
0  1891  3184
0  1891  3242
0  1891  3292
0  1891  3308
0  1831  3324
0  2409  0
0  2409  0
0  2409  0
0  2409  0
0  2409  0
0  2409  277
0  2409  1092
0  2409  1891
0  2409  2409
0  2409  2721
0  2409  2947
0  2409  3085
0  2409  3184
0  2409  3242
0  2409  3292
0  2409  3308
0  2361  3324
0  2721  0
0  2721  0
0  2721  0
0  2721  0
0  2721  0
0  2721  277
0  2721  1092
0  2721  1891
0  2721  2409
0  2721  2721
0  2721  2947
0  2721  3085
0  2721  3184
0  2721  3242
0  2721  3292
0  2721  3308
0  2666  3324
0  2947  0
0  2947  0
0  2947  0
0  2947  0
0  2947  0
0  2947  277
0  2947  1092
0  2947  1891
0  2947  2409
0  2947  2721
0  2947  2947
0  2947  3085
0  2947  3184
0  2947  3242
0  2947  3292
0  2947  3308
0  2891  3324
0  3085  0
0  3085  0
0  3085  0
0  3085  0
0  3085  0
0  3085  277
0  3085  1092
0  3085  1891
0  3085  2409
0  3085  2721
0  3085  2947
0  3085  3085
0  3085  3184
0  3085  3242
0  3085  3292
0  3085  3308
0  3083  3324
0  3184  0
0  3184  0
0  3184  0
0  3184  0
0  3184  0
0  3184  277
0  3184  1092
0  3184  1891
0  3184  2409
0  3184  2721
0  3184  2947
0  3184  3085
0  3184  3184
0  3184  3242
0  3184  3292
0  3184  3308
0  3180  3324
0  3242  0
0  3242  0
0  3242  0
0  3242  0
0  3242  0
0  3242  277
0  3242  1092
0  3242  1891
0  3242  2409
0  3242  2721
0  3242  2947
0  3242  3085
0  3242  3184
0  3242  3242
0  3242  3292
0  3242  3308
0  3228  3324
0  3292  0
0  3292  0
0  3292  0
0  3292  0
0  3292  0
0  3292  277
0  3292  1092
0  3292  1891
0  3292  2409
0  3292  2721
0  3292  2947
0  3292  3085
0  3292  3184
0  3292  3242
0  3292  3292
0  3292  3308
0  3292  3324
0  3308  0
0  3308  0
0  3308  0
0  3308  0
0  3308  0
0  3308  277
0  3308  1092
0  3308  1891
0  3308  2409
0  3308  2721
0  3308  2947
0  3308  3085
0  3308  3184
0  3308  3242
0  3308  3292
0  3308  3308
0  3308  3324
0  3324  0
0  3324  0
0  3324  0
0  3324  0
0  3324  0
0  3324  96
0  3324  1060
0  3324  1831
0  3324  2361
0  3324  2666
0  3324  2891
0  3324  3083
0  3324  3180
0  3324  3228
0  3324  3292
0  3324  3308
0  3324  3324
0  0  0
0  0  0
0  0  0
0  0  0
0  0  0
0  0  277
0  0  1092
0  0  1891
0  0  2409
0  0  2721
0  0  2947
0  0  3085
0  0  3184
0  0  3242
0  0  3292
0  0  3308
0  0  3324
0  0  0
0  0  0
0  0  0
0  0  0
0  0  0
0  0  277
0  0  1092
0  0  1891
0  0  2409
0  0  2721
0  0  2947
0  0  3085
0  0  3184
0  0  3242
0  0  3292
0  0  3308
0  0  3324
0  0  0
0  0  0
0  0  0
0  0  0
0  0  0
0  0  277
0  0  1092
0  0  1891
0  0  2409
0  0  2721
0  0  2947
0  0  3085
0  0  3184
0  0  3242
0  0  3292
0  0  3308
0  0  3324
0  0  0
0  0  0
0  0  0
0  0  0
0  0  0
0  0  277
0  0  1092
0  0  1891
0  0  2409
0  0  2721
0  0  2947
0  0  3085
0  0  3184
0  0  3242
0  0  3292
0  0  3308
0  0  3324
0  0  0
0  0  0
0  0  0
0  0  0
0  0  0
0  0  277
0  0  1092
0  0  1891
0  0  2409
0  0  2721
0  0  2947
0  0  3085
0  0  3184
0  0  3242
0  0  3292
0  0  3308
0  0  3324
0  277  0
0  277  0
0  277  0
0  277  0
0  277  0
0  277  277
0  277  1092
0  277  1891
0  277  2409
0  277  2721
0  277  2947
0  277  3085
0  277  3184
0  277  3242
0  277  3292
0  277  3308
0  96  3324
0  1092  0
0  1092  0
0  1092  0
0  1092  0
0  1092  0
0  1092  277
0  1092  1092
0  1092  1891
0  1092  2409
0  1092  2721
0  1092  2947
0  1092  3085
0  1092  3184
0  1092  3242
0  1092  3292
0  1092  3308
0  1060  3324
0  1891  0
0  1891  0
0  1891  0
0  1891  0
0  1891  0
0  1891  277
0  1891  1092
0  1891  1891
0  1891  2409
0  1891  2721
0  1891  2947
0  1891  3085
0  1891  3184
0  1891  3242
0  1891  3292
0  1891  3308
0  1831  3324
0  2409  0
0  2409  0
0  2409  0
0  2409  0
0  2409  0
0  2409  277
0  2409  1092
0  2409  1891
0  2409  2409
0  2409  2721
0  2409  2947
0  2409  3085
0  2409  3184
0  2409  3242
0  2409  3292
0  2409  3308
0  2361  3324
0  2721  0
0  2721  0
0  2721  0
0  2721  0
0  2721  0
0  2721  277
0  2721  1092
0  2721  1891
0  2721  2409
0  2721  2721
0  2721  2947
0  2721  3085
0  2721  3184
0  2721  3242
0  2721  3292
0  2721  3308
0  2666  3324
0  2947  0
0  2947  0
0  2947  0
0  2947  0
0  2947  0
0  2947  277
0  2947  1092
0  2947  1891
0  2947  2409
0  2947  2721
0  2947  2947
0  2947  3085
0  2947  3184
0  2947  3242
0  2947  3292
0  2947  3308
0  2891  3324
0  3085  0
0  3085  0
0  3085  0
0  3085  0
0  3085  0
0  3085  277
0  3085  1092
0  3085  1891
0  3085  2409
0  3085  2721
0  3085  2947
0  3085  3085
0  3085  3184
0  3085  3242
0  3085  3292
0  3085  3308
0  3083  3324
0  3184  0
0  3184  0
0  3184  0
0  3184  0
0  3184  0
0  3184  277
0  3184  1092
0  3184  1891
0  3184  2409
0  3184  2721
0  3184  2947
0  3184  3085
0  3184  3184
0  3184  3242
0  3184  3292
0  3184  3308
0  3180  3324
0  3242  0
0  3242  0
0  3242  0
0  3242  0
0  3242  0
0  3242  277
0  3242  1092
0  3242  1891
0  3242  2409
0  3242  2721
0  3242  2947
0  3242  3085
0  3242  3184
0  3242  3242
0  3242  3292
0  3242  3308
0  3228  3324
0  3292  0
0  3292  0
0  3292  0
0  3292  0
0  3292  0
0  3292  277
0  3292  1092
0  3292  1891
0  3292  2409
0  3292  2721
0  3292  2947
0  3292  3085
0  3292  3184
0  3292  3242
0  3292  3292
0  3292  3308
0  3292  3324
0  3308  0
0  3308  0
0  3308  0
0  3308  0
0  3308  0
0  3308  277
0  3308  1092
0  3308  1891
0  3308  2409
0  3308  2721
0  3308  2947
0  3308  3085
0  3308  3184
0  3308  3242
0  3308  3292
0  3308  3308
0  3308  3324
0  3324  0
0  3324  0
0  3324  0
0  3324  0
0  3324  0
0  3324  96
0  3324  1060
0  3324  1831
0  3324  2361
0  3324  2666
0  3324  2891
0  3324  3083
0  3324  3180
0  3324  3228
0  3324  3292
0  3324  3308
0  3324  3324
0  0  0
0  0  0
0  0  0
0  0  0
0  0  0
0  0  277
0  0  1092
0  0  1891
0  0  2409
0  0  2721
0  0  2947
0  0  3085
0  0  3184
0  0  3242
0  0  3292
0  0  3308
0  0  3324
0  0  0
0  0  0
0  0  0
0  0  0
0  0  0
0  0  277
0  0  1092
0  0  1891
0  0  2409
0  0  2721
0  0  2947
0  0  3085
0  0  3184
0  0  3242
0  0  3292
0  0  3308
0  0  3324
0  0  0
0  0  0
0  0  0
0  0  0
0  0  0
0  0  277
0  0  1092
0  0  1891
0  0  2409
0  0  2721
0  0  2947
0  0  3085
0  0  3184
0  0  3242
0  0  3292
0  0  3308
0  0  3324
0  0  0
0  0  0
0  0  0
0  0  0
0  0  0
0  0  277
0  0  1092
0  0  1891
0  0  2409
0  0  2721
0  0  2947
0  0  3085
0  0  3184
0  0  3242
0  0  3292
0  0  3308
0  0  3324
0  0  0
0  0  0
0  0  0
0  0  0
0  0  0
0  0  277
0  0  1092
0  0  1891
0  0  2409
0  0  2721
0  0  2947
0  0  3085
0  0  3184
0  0  3242
0  0  3292
0  0  3308
0  0  3324
0  277  0
0  277  0
0  277  0
0  277  0
0  277  0
0  277  277
0  277  1092
0  277  1891
0  277  2409
0  277  2721
0  277  2947
0  277  3085
0  277  3184
0  277  3242
0  277  3292
0  277  3308
0  96  3324
0  1092  0
0  1092  0
0  1092  0
0  1092  0
0  1092  0
0  1092  277
0  1092  1092
0  1092  1891
0  1092  2409
0  1092  2721
0  1092  2947
0  1092  3085
0  1092  3184
0  1092  3242
0  1092  3292
0  1092  3308
0  1060  3324
0  1891  0
0  1891  0
0  1891  0
0  1891  0
0  1891  0
0  1891  277
0  1891  1092
0  1891  1891
0  1891  2409
0  1891  2721
0  1891  2947
0  1891  3085
0  1891  3184
0  1891  3242
0  1891  3292
0  1891  3308
0  1831  3324
0  2409  0
0  2409  0
0  2409  0
0  2409  0
0  2409  0
0  2409  277
0  2409  1092
0  2409  1891
0  2409  2409
0  2409  2721
0  2409  2947
0  2409  3085
0  2409  3184
0  2409  3242
0  2409  3292
0  2409  3308
0  2361  3324
0  2721  0
0  2721  0
0  2721  0
0  2721  0
0  2721  0
0  2721  277
0  2721  1092
0  2721  1891
0  2721  2409
0  2721  2721
0  2721  2947
0  2721  3085
0  2721  3184
0  2721  3242
0  2721  3292
0  2721  3308
0  2666  3324
0  2947  0
0  2947  0
0  2947  0
0  2947  0
0  2947  0
0  2947  277
0  2947  1092
0  2947  1891
0  2947  2409
0  2947  2721
0  2947  2947
0  2947  3085
0  2947  3184
0  2947  3242
0  2947  3292
0  2947  3308
0  2891  3324
0  3085  0
0  3085  0
0  3085  0
0  3085  0
0  3085  0
0  3085  277
0  3085  1092
0  3085  1891
0  3085  2409
0  3085  2721
0  3085  2947
0  3085  3085
0  3085  3184
0  3085  3242
0  3085  3292
0  3085  3308
0  3083  3324
0  3184  0
0  3184  0
0  3184  0
0  3184  0
0  3184  0
0  3184  277
0  3184  1092
0  3184  1891
0  3184  2409
0  3184  2721
0  3184  2947
0  3184  3085
0  3184  3184
0  3184  3242
0  3184  3292
0  3184  3308
0  3180  3324
0  3242  0
0  3242  0
0  3242  0
0  3242  0
0  3242  0
0  3242  277
0  3242  1092
0  3242  1891
0  3242  2409
0  3242  2721
0  3242  2947
0  3242  3085
0  3242  3184
0  3242  3242
0  3242  3292
0  3242  3308
0  3228  3324
0  3292  0
0  3292  0
0  3292  0
0  3292  0
0  3292  0
0  3292  277
0  3292  1092
0  3292  1891
0  3292  2409
0  3292  2721
0  3292  2947
0  3292  3085
0  3292  3184
0  3292  3242
0  3292  3292
0  3292  3308
0  3292  3324
0  3308  0
0  3308  0
0  3308  0
0  3308  0
0  3308  0
0  3308  277
0  3308  1092
0  3308  1891
0  3308  2409
0  3308  2721
0  3308  2947
0  3308  3085
0  3308  3184
0  3308  3242
0  3308  3292
0  3308  3308
0  3308  3324
0  3324  0
0  3324  0
0  3324  0
0  3324  0
0  3324  0
0  3324  96
0  3324  1060
0  3324  1831
0  3324  2361
0  3324  2666
0  3324  2891
0  3324  3083
0  3324  3180
0  3324  3228
0  3324  3292
0  3324  3308
0  3324  3324
0  0  0
0  0  0
0  0  0
0  0  0
0  0  0
0  0  277
0  0  1092
0  0  1891
0  0  2409
0  0  2721
0  0  2947
0  0  3085
0  0  3184
0  0  3242
0  0  3292
0  0  3308
0  0  3324
0  0  0
0  0  0
0  0  0
0  0  0
0  0  0
0  0  277
0  0  1092
0  0  1891
0  0  2409
0  0  2721
0  0  2947
0  0  3085
0  0  3184
0  0  3242
0  0  3292
0  0  3308
