PS/3DLUTs/Insta-sutro.3dl
#Created by: Generate3DLut
#Generator: Copyright 2012 by Linus Hechinger
0 64 128 192 256 320 384 448 512 575 639 703 767 831 895 959 1023
707  48  177
723  80  196
723  96  231
739  128  284
739  161  373
771  193  510
819  241  654
851  273  993
883  305  1301
899  337  1586
915  369  1833
947  385  1947
947  401  2092
964  418  2189
980  418  2252
980  450  2309
980  450  2329
723  131  193
723  134  196
723  138  241
739  167  284
739  199  373
771  231  510
819  282  654
851  314  993
883  359  1301
899  391  1586
915  414  1833
947  456  1947
947  472  2092
964  488  2189
980  501  2252
980  504  2309
980  514  2329
723  205  193
723  205  209
723  205  241
739  221  284
739  253  373
771  285  510
819  345  654
851  397  993
883  430  1301
899  468  1586
915  494  1833
947  520  1947
947  536  2092
964  542  2189
980  552  2252
980  558  2309
980  562  2329
723  284  193
723  284  228
739  284  247
739  284  284
739  316  373
771  357  510
819  422  654
851  463  993
883  509  1301
899  523  1586
915  548  1833
947  580  1947
947  596  2092
964  605  2189
980  612  2252
980  628  2309
980  610  2329
739  377  209
739  377  244
739  377  269
739  377  307
739  389  373
771  434  510
819  502  654
851  538  993
883  570  1301
899  602  1586
915  630  1833
947  650  1947
947  678  2092
964  731  2189
980  739  2252
980  751  2309
980  707  2329
771  526  241
771  526  263
771  526  295
771  526  339
771  526  405
771  526  510
819  575  654
851  623  993
883  640  1301
899  703  1586
915  811  1833
947  846  1947
947  907  2092
964  940  2189
980  942  2252
980  973  2309
980  915  2329
819  656  289
819  656  308
819  656  333
819  656  387
819  656  474
819  656  543
819  658  654
851  767  993
883  849  1301
899  941  1586
915  996  1833
947  1074  1947
947  1122  2092
964  1182  2189
980  1182  2252
980  1233  2309
980  1220  2329
851  1005  305
851  1005  327
851  1005  365
851  1005  438
851  1005  518
851  1005  606
851  1005  721
851  1005  993
883  1068  1301
899  1186  1586
915  1261  1833
947  1368  1947
947  1405  2092
964  1453  2189
980  1491  2252
980  1518  2309
980  1493  2329
867  1333  321
867  1333  359
867  1333  410
867  1333  477
867  1333  550
867  1333  639
867  1333  805
867  1333  1063
883  1341  1301
899  1421  1586
915  1542  1833
947  1606  1947
947  1654  2092
964  1678  2189
980  1726  2252
980  1734  2309
980  1702  2329
899  1661  353
899  1661  391
899  1661  436
899  1661  509
899  1661  582
899  1661  687
899  1661  885
899  1661  1143
899  1661  1397
899  1618  1586
915  1704  1833
947  1757  1947
947  1833  2092
964  1881  2189
980  1892  2252
980  1918  2309
980  1863  2329
915  1895  369
915  1895  411
915  1895  478
915  1895  532
915  1895  614
915  1895  764
915  1895  966
915  1895  1217
915  1895  1485
915  1895  1651
915  1865  1833
947  1949  1947
947  1997  2092
964  2029  2189
980  2064  2252
980  2078  2309
980  2023  2329
947  2077  385
947  2077  453
947  2077  494
947  2077  548
947  2077  634
947  2077  827
947  2077  1072
947  2077  1347
947  2077  1534
947  2077  1719
947  2077  1871
947  2044  1947
947  2093  2092
964  2154  2189
980  2171  2252
980  2217  2309
980  2184  2329
947  2204  401
947  2204  456
947  2204  510
947  2204  573
947  2204  674
947  2204  860
947  2204  1104
947  2204  1378
947  2204  1622
947  2204  1807
947  2204  1917
947  2204  1966
947  2192  2068
964  2240  2189
980  2248  2252
980  2276  2309
980  2296  2329
964  2341  418
964  2341  472
964  2341  526
964  2341  589
964  2341  695
964  2341  940
964  2341  1156
964  2341  1453
964  2341  1654
964  2341  1827
964  2341  1953
964  2341  2044
964  2341  2132
964  2327  2189
980  2341  2252
980  2357  2309
980  2329  2329
980  2413  450
980  2413  485
980  2413  536
980  2413  589
980  2413  695
980  2413  941
980  2413  1156
980  2413  1475
980  2413  1662
980  2413  1838
980  2413  1953
980  2413  2044
980  2413  2132
980  2413  2205
980  2407  2246
980  2439  2303
980  2409  2329
980  2486  450
980  2486  498
980  2486  536
980  2486  605
980  2486  727
980  2486  942
980  2486  1190
980  2486  1491
980  2486  1686
980  2486  1859
980  2486  1999
980  2486  2090
980  2486  2168
980  2486  2223
980  2486  2284
980  2470  2309
980  2473  2329
1012  2505  450
1012  2505  498
1012  2505  546
1012  2505  594
1012  2505  691
1012  2505  915
1012  2505  1188
1012  2505  1493
1012  2505  1702
1012  2505  1847
1012  2505  1959
1012  2505  2120
1012  2505  2168
1012  2505  2232
1012  2505  2264
1012  2505  2312
1012  2489  2345
713  64  177
726  80  196
742  96  231
758  128  284
780  161  373
812  193  510
857  241  654
889  273  993
921  305  1309
937  337  1597
953  369  1833
986  385  1948
1015  401  2092
1018  418  2196
1031  418  2252
1031  450  2309
1028  466  2345
729  134  193
742  138  212
758  167  247
777  199  307
809  228  389
838  247  527
860  314  703
905  346  1052
934  391  1397
953  411  1662
976  430  1871
1015  475  2029
1031  504  2172
1037  504  2251
1050  533  2323
1050  533  2371
1044  530  2393
742  205  193
758  211  215
758  221  247
777  247  307
809  275  389
838  307  527
860  371  703
905  410  1052
934  468  1397
953  484  1662
976  510  1871
1015  542  2029
1031  558  2172
1037  564  2251
1050  584  2323
1050  584  2371
1044  578  2393
758  284  209
764  300  231
764  300  269
777  300  307
809  332  389
838  371  527
860  438  703
905  486  1052
934  525  1397
953  548  1662
976  573  1871
1015  605  2029
1031  621  2172
1037  637  2251
1050  644  2323
1050  651  2371
1044  642  2393
780  389  225
796  410  260
796  410  285
796  410  323
809  410  389
838  466  527
860  522  703
905  566  1052
934  602  1397
953  630  1662
976  650  1871
1015  727  2029
1031  751  2172
1037  763  2251
1050  803  2323
1050  819  2371
1044  771  2393
812  527  257
838  543  279
838  543  311
838  543  355
838  543  434
838  543  527
860  607  703
905  639  1052
934  703  1397
953  779  1662
976  860  1871
1015  939  2029
1031  973  2172
1037  1003  2251
1050  1022  2323
1050  1023  2371
1044  980  2393
857  658  289
860  707  324
860  707  365
860  707  422
860  707  490
860  707  575
860  707  703
905  793  1052
934  885  1397
953  996  1662
976  1044  1871
1015  1170  2029
1031  1233  2172
1037  1239  2251
1050  1267  2323
1050  1287  2371
1044  1317  2393
889  1015  305
905  1046  346
905  1046  397
905  1046  463
905  1046  534
905  1046  638
905  1046  775
905  1046  1052
934  1143  1397
953  1239  1662
976  1324  1871
1015  1425  2029
1031  1496  2172
1037  1528  2251
1050  1583  2323
1050  1583  2371
1044  1574  2393
921  1357  337
934  1413  375
934  1413  436
934  1413  502
934  1413  578
934  1413  686
934  1413  871
934  1413  1122
934  1421  1397
953  1534  1662
976  1598  1871
1015  1694  2029
1031  1734  2172
1037  1750  2251
1050  1791  2323
1050  1807  2371
1044  1766  2393
950  1666  353
953  1704  411
953  1704  468
953  1704  532
953  1704  610
953  1704  764
953  1704  966
953  1704  1222
953  1704  1485
953  1693  1662
976  1757  1871
1015  1871  2029
1031  1918  2172
1037  1962  2251
1050  1977  2323
1050  1982  2371
1044  1943  2393
973  1931  385
976  1989  427
976  1989  494
976  1989  548
976  1989  646
976  1989  841
976  1989  1042
976  1989  1291
976  1989  1542
976  1989  1721
976  1947  1871
1015  2054  2029
1031  2078  2172
1037  2136  2251
1050  2156  2323
1050  2158  2371
1044  2120  2393
989  2093  401
1015  2156  459
1015  2156  516
1015  2156  582
1015  2156  678
1015  2156  906
1015  2156  1126
1015  2156  1394
1015  2156  1638
1015  2156  1812
1015  2156  1931
1015  2124  2027
1031  2172  2172
1037  2191  2251
1050  2236  2323
1050  2267  2371
1044  2264  2393
1015  2228  418
1031  2284  485
1031  2284  536
1031  2284  589
1031  2284  719
1031  2284  972
1031  2284  1176
1031  2284  1480
1031  2284  1678
1031  2284  1849
1031  2284  2011
1031  2284  2046
1031  2280  2160
1037  2284  2251
1050  2333  2323
1050  2353  2371
1044  2345  2393
1031  2357  450
1037  2412  501
1037  2412  542
1037  2412  614
1037  2412  751
1037  2412  1003
1037  2412  1194
1037  2412  1508
1037  2412  1710
1037  2412  1891
1037  2412  2027
1037  2412  2123
1037  2412  2184
1037  2380  2260
1050  2421  2323
1050  2428  2371
1044  2409  2393
1031  2439  450
1050  2493  504
1050  2493  558
1050  2493  637
1050  2493  791
1050  2493  1051
1050  2493  1267
1050  2493  1567
1050  2493  1774
1050  2493  1913
1050  2493  2072
1050  2493  2154
1050  2493  2196
1050  2493  2267
1050  2477  2333
1050  2493  2381
1044  2489  2377
1034  2489  466
1050  2544  504
1050  2544  558
1050  2544  637
1050  2544  799
1050  2544  1053
1050  2544  1281
1050  2544  1567
1050  2544  1766
1050  2544  1907
1050  2544  2066
1050  2544  2169
1050  2544  2232
1050  2544  2285
1050  2544  2333
1050  2528  2371
1044  2505  2377
1044  2537  466
1060  2569  514
1060  2569  562
1060  2569  626
1060  2569  739
1060  2569  980
1060  2569  1317
1060  2569  1574
1060  2569  1734
1060  2569  1911
1060  2569  2023
1060  2569  2168
1060  2569  2232
1060  2569  2296
1060  2569  2345
1060  2569  2377
1060  2553  2393
773  96  193
783  96  199
783  96  231
805  128  284
831  161  373
857  193  510
895  241  654
937  273  993
960  305  1309
998  337  1597
1034  369  1833
1046  385  1948
1056  401  2092
1072  418  2196
1082  418  2252
1082  450  2309
1076  466  2345
783  138  193
789  167  215
809  167  247
831  186  307
857  228  389
869  247  527
927  311  703
960  346  1052
998  391  1405
1018  414  1683
1046  459  1903
1062  488  2044
1082  504  2172
1088  504  2260
1098  520  2333
1098  533  2371
1108  530  2393
783  205  193
815  231  228
831  247  269
841  259  323
863  301  434
895  333  543
943  397  755
982  436  1122
1018  484  1493
1046  520  1752
1062  542  1949
1088  564  2123
1098  574  2220
1114  590  2317
1120  606  2397
1120  606  2448
1108  610  2457
815  291  209
831  300  244
841  332  279
841  332  323
863  371  434
895  403  543
943  477  755
982  516  1122
1018  557  1493
1046  580  1752
1062  605  1949
1088  637  2123
1098  644  2220
1114  669  2317
1120  706  2397
1120  713  2448
1108  691  2457
841  393  241
857  410  263
863  450  301
863  450  348
863  450  434
895  486  543
943  554  755
982  598  1122
1018  630  1493
1046  650  1752
1062  743  1949
1088  799  2123
1098  827  2220
1114  843  2317
1120  891  2397
1120  891  2448
1108  851  2457
863  528  257
879  559  292
895  575  333
895  575  378
895  575  462
895  575  543
943  638  755
982  687  1122
1018  781  1493
1046  861  1752
1062  940  1949
1088  1006  2123
1098  1023  2220
1114  1100  2317
1120  1132  2397
1120  1132  2448
1108  1028  2457
911  672  289
927  709  327
943  783  381
943  783  454
943  783  522
943  783  607
943  783  755
982  883  1122
1018  1000  1493
1046  1076  1752
1062  1156  1949
1088  1239  2123
1098  1273  2220
1114  1335  2317
1120  1367  2397
1120  1367  2448
1108  1365  2457
937  1015  321
960  1062  359
972  1132  426
972  1132  493
972  1132  566
972  1132  686
972  1132  853
982  1132  1122
1018  1239  1493
1046  1362  1752
1062  1458  1949
1088  1539  2123
1098  1583  2220
1114  1609  2317
1120  1663  2397
1120  1668  2448
1108  1686  2457
960  1381  337
998  1445  391
1018  1526  468
1018  1526  532
1018  1526  610
1018  1526  749
1018  1526  951
1018  1526  1206
1018  1542  1493
1046  1622  1752
1062  1686  1949
1088  1774  2123
1098  1799  2220
1114  1847  2317
1120  1879  2397
1120  1895  2448
1108  1863  2457
998  1666  353
1028  1741  411
1046  1802  494
1046  1802  557
1046  1802  646
1046  1802  841
1046  1802  1044
1046  1802  1313
1046  1802  1550
1046  1807  1752
1062  1871  1949
1088  1967  2123
1098  1993  2220
1114  2036  2317
1120  2063  2397
1120  2107  2448
1108  2023  2457
1034  1931  385
1046  1991  453
1062  2058  526
1062  2058  582
1062  2058  691
1062  2058  921
1062  2058  1128
1062  2058  1420
1062  2058  1638
1062  2058  1812
1062  2058  1949
1088  2136  2123
1098  2158  2220
1114  2208  2317
1120  2252  2397
1120  2252  2448
1108  2168  2457
1046  2093  401
1072  2172  472
1088  2222  548
1088  2222  621
1088  2222  763
1088  2222  1003
1088  2222  1210
1088  2222  1496
1088  2222  1710
1088  2222  1892
1088  2222  2025
1088  2222  2094
1098  2267  2220
1114  2271  2317
1120  2316  2397
1120  2334  2448
1108  2345  2457
1056  2228  418
1088  2308  488
1098  2385  558
1098  2385  637
1098  2385  803
1098  2385  1052
1098  2385  1287
1098  2385  1578
1098  2385  1783
1098  2385  1923
1098  2385  2080
1098  2385  2171
1098  2361  2228
1114  2389  2317
1120  2409  2397
1120  2413  2448
1108  2425  2457
1082  2357  450
1088  2428  504
1114  2478  580
1114  2478  662
1114  2478  835
1114  2478  1083
1114  2478  1335
1114  2478  1598
1114  2478  1799
1114  2478  1988
1114  2478  2138
1114  2478  2172
1114  2478  2248
1114  2453  2317
1120  2487  2387
1120  2501  2422
1108  2489  2457
1088  2439  450
1098  2499  504
1120  2583  590
1120  2583  669
1120  2583  847
1120  2583  1103
1120  2583  1365
1120  2583  1652
1120  2583  1847
1120  2583  2009
1120  2583  2158
1120  2583  2217
1120  2583  2280
1120  2583  2350
1120  2557  2403
1120  2583  2451
1108  2553  2457
1088  2489  466
1114  2563  517
1120  2667  590
1120  2667  686
1120  2667  847
1120  2667  1102
1120  2667  1381
1120  2667  1646
1120  2667  1847
1120  2667  2009
1120  2667  2158
1120  2667  2236
1120  2667  2284
1120  2667  2364
1120  2667  2413
1120  2648  2448
1108  2602  2457
1092  2537  466
1108  2569  514
1124  2682  610
1124  2682  658
1124  2682  835
1124  2682  1060
1124  2682  1413
1124  2682  1638
1124  2682  1847
1124  2682  1959
1124  2682  2120
1124  2682  2232
1124  2682  2312
1124  2682  2345
1124  2682  2393
1124  2682  2425
1108  2666  2457
844  112  193
844  112  215
844  128  247
844  128  284
869  161  373
910  193  510
959  241  654
1000  273  993
1030  305  1309
1055  337  1597
1078  369  1833
1094  385  1948
1101  401  2092
1126  418  2196
1126  418  2252
1126  450  2309
1124  466  2345
844  167  193
860  183  228
860  183  263
869  186  307
901  228  389
926  247  527
966  311  703
1007  346  1052
1055  391  1405
1078  414  1683
1094  459  1903
1117  488  2044
1126  504  2172
1135  504  2260
1142  520  2333
1149  533  2371
