PS/3DLUTs/Insta-earlybird.3dl
#Created by: Generate3DLut
#Generator: Copyright 2012 by Linus Hechinger
0 128 256 384 512 639 767 895 1023
0  0  0
0  0  0
0  0  0
0  0  211
0  0  931
0  0  1558
112  0  2112
225  0  2559
450  0  2923
0  0  0
0  0  0
0  0  0
0  0  241
0  0  980
0  0  1606
161  48  2160
273  195  2608
482  353  2955
0  0  0
0  0  0
0  0  0
0  48  259
0  197  980
0  381  1606
177  598  2160
289  759  2636
514  867  2987
0  466  0
0  486  0
0  502  0
0  502  259
0  697  980
0  887  1606
177  1154  2160
289  1289  2636
514  1493  2987
0  1285  0
0  1325  0
0  1325  0
0  1325  422
0  1325  980
0  1477  1606
177  1726  2160
289  1855  2636
514  1975  2987
0  1987  0
0  2023  0
0  2023  145
0  2023  594
0  2023  1108
0  2023  1606
177  2236  2160
289  2391  2636
514  2473  2987
112  2626  0
161  2670  0
177  2670  333
177  2670  817
177  2670  1325
177  2670  1789
177  2654  2160
289  2794  2636
514  2939  2987
225  3121  0
273  3176  36
289  3204  462
289  3204  935
289  3204  1437
289  3204  1929
289  3204  2276
289  3194  2636
514  3276  2987
450  3533  0
482  3581  112
514  3613  578
514  3613  1140
514  3613  1558
514  3613  1975
514  3613  2409
514  3613  2698
514  3565  2987
0  0  0
0  0  0
0  0  0
48  0  211
235  0  931
422  0  1558
590  0  2112
739  0  2559
867  0  2923
0  0  0
0  0  0
36  0  0
219  0  369
422  0  1100
584  24  1720
791  195  2272
933  359  2700
1092  466  3003
0  0  0
36  0  0
48  12  0
285  197  422
472  414  1148
648  562  1783
833  775  2329
1012  951  2748
1156  1044  3099
48  466  0
219  646  0
285  697  0
295  711  436
472  903  1148
638  1098  1783
833  1345  2329
1012  1481  2748
1156  1686  3099
235  1285  0
422  1469  0
472  1510  169
472  1510  598
472  1510  1148
638  1686  1783
833  1895  2329
1012  2056  2748
1156  2184  3099
422  1987  0
584  2180  0
648  2232  309
638  2232  775
638  2232  1309
638  2232  1783
833  2415  2329
1012  2585  2748
1156  2650  3099
590  2626  0
791  2790  36
833  2862  490
833  2862  992
833  2862  1485
833  2862  1947
833  2862  2329
1012  2959  2748
1156  3067  3099
739  3121  0
933  3272  132
1012  3326  662
1012  3326  1126
1012  3326  1622
1012  3326  2074
1012  3326  2425
1012  3304  2748
1156  3404  3099
867  3533  0
1092  3629  225
1156  3710  739
1156  3710  1285
1156  3710  1734
1156  3710  2136
1156  3710  2521
1156  3710  2810
1156  3710  3099
369  0  0
369  0  0
369  0  0
534  0  211
715  0  931
903  0  1558
1128  0  2112
1265  0  2559
1381  0  2923
369  0  0
550  0  0
550  0  0
739  0  369
939  0  1100
1116  24  1720
1329  195  2272
1497  359  2700
1558  466  3003
369  0  0
550  12  0
759  169  0
903  321  536
1128  534  1261
1313  727  1897
1502  899  2389
1666  1112  2838
1750  1172  3115
534  466  0
739  646  0
903  825  84
951  887  594
1176  1108  1317
1353  1291  1945
1538  1481  2437
1726  1728  2873
1831  1847  3164
715  1285  0
939  1469  0
1128  1646  277
1176  1702  799
1176  1702  1317
1353  1879  1945
1538  2072  2437
1726  2240  2873
1831  2345  3164
903  1987  0
1116  2180  0
1313  2361  446
1353  2409  937
1353  2409  1461
1353  2409  1945
1538  2587  2437
1726  2720  2873
1831  2762  3164
1128  2626  0
1329  2790  36
1502  2939  610
1538  2971  1126
1538  2971  1630
1538  2971  2078
1538  2971  2437
1726  3091  2873
1831  3212  3164
1265  3121  0
1497  3272  132
1666  3427  779
1726  3493  1327
1726  3493  1791
1726  3493  2220
1726  3493  2541
1726  3493  2873
1831  3533  3164
1381  3533  0
1558  3629  225
1750  3758  851
1831  3806  1445
1831  3806  1863
1831  3806  2248
1831  3806  2650
1831  3806  2923
1831  3806  3164
1094  0  0
1094  0  0
1094  0  0
1094  0  241
1220  0  931
1387  0  1558
1616  0  2112
1754  0  2559
1943  0  2923
1094  0  0
1285  0  0
1285  0  0
1285  0  422
1403  0  1100
1594  24  1720
1817  195  2272
1961  359  2700
2120  466  3003
1094  36  0
1285  197  0
1419  369  132
1419  369  594
1616  534  1261
1817  727  1897
1975  899  2389
2152  1112  2838
2296  1172  3115
1094  486  0
1285  697  0
1419  887  132
1686  1156  817
1817  1271  1437
2023  1467  2074
2246  1746  2561
2371  1861  2963
2489  2023  3180
1220  1285  0
1403  1469  0
1616  1646  277
1817  1855  931
1863  1903  1493
2039  2080  2106
2268  2304  2606
2419  2425  2979
2537  2553  3180
1387  1987  0
1594  2180  0
1817  2361  446
2023  2585  1112
2039  2616  1646
2039  2616  2106
2268  2810  2606
2419  2911  2979
2537  2955  3180
1616  2626  0
1817  2790  36
1975  2939  610
2246  3131  1345
2268  3180  1847
2268  3180  2296
2268  3180  2606
2419  3248  2979
2537  3356  3180
1754  3121  0
1961  3272  132
2152  3427  779
2371  3583  1457
2419  3595  1951
2419  3595  2369
2419  3595  2682
2419  3595  2979
2537  3629  3180
1943  3533  0
2120  3629  225
2296  3758  851
2489  3822  1606
2537  3822  2072
2537  3822  2425
2537  3822  2778
2537  3822  3003
2537  3822  3180
1799  0  0
1799  0  0
1799  0  0
1799  0  401
1799  0  956
1911  0  1558
2120  0  2112
2264  0  2559
2409  0  2923
1799  0  0
1975  0  0
1975  0  145
1975  0  592
1975  0  1124
2096  24  1720
2329  195  2272
2473  359  2700
2553  466  3003
1799  169  0
1975  381  0
2152  546  309
2152  546  769
2152  546  1293
2296  727  1897
2489  899  2389
2626  1112  2838
2730  1172  3115
1799  662  0
1975  883  0
2152  1092  309
2369  1289  935
2369  1289  1469
2497  1467  2074
2714  1746  2561
2834  1861  2963
2923  2023  3180
1799  1293  0
1975  1493  0
2152  1678  309
2369  1879  935
2561  2104  1670
2698  2240  2220
2866  2417  2682
3019  2594  3073
3099  2698  3180
1911  1987  0
2096  2180  0
2296  2361  446
2497  2585  1112
2698  2720  1791
2714  2750  2236
2883  2941  2690
3051  3095  3079
3115  3164  3180
2120  2626  0
2329  2790  36
2489  2939  610
2714  3131  1345
2866  3248  1935
2883  3268  2411
2883  3268  2690
3051  3384  3079
3115  3517  3180
2264  3121  0
2473  3272  132
2626  3427  779
2834  3583  1457
3019  3700  2088
3051  3716  2523
3051  3716  2802
3051  3716  3079
3115  3790  3180
2409  3533  0
2553  3629  225
2730  3758  851
2923  3822  1606
3099  3822  2184
3115  3822  2585
3115  3822  2891
3115  3822  3131
3115  3822  3180
2429  0  0
2429  0  0
2429  0  100
2429  0  578
2429  0  1092
2429  0  1560
2573  0  2112
2746  0  2559
2810  0  2923
2429  0  0
2634  36  0
2634  36  309
2634  36  755
2634  36  1269
2634  36  1738
2770  195  2272
2881  359  2700
2939  466  3003
2429  349  0
2634  546  0
2812  759  462
2812  759  935
2812  759  1437
2812  759  1929
2911  899  2389
3087  1112  2838
3099  1172  3115
2429  869  0
2634  1064  0
2812  1289  462
2989  1485  1128
2989  1485  1646
2989  1485  2106
3109  1746  2561
3216  1861  2963
3276  2023  3180
2429  1437  0
2634  1654  0
2812  1847  462
2989  2080  1128
3121  2256  1791
3121  2256  2236
3262  2417  2682
3378  2594  3073
3404  2698  3180
2429  1989  0
2634  2214  0
2812  2391  462
2989  2616  1128
3121  2750  1791
3292  2927  2397
3396  3053  2802
3505  3200  3162
3533  3228  3180
2573  2626  0
2770  2790  36
2911  2939  610
3109  3131  1345
3262  3248  1935
3396  3384  2509
3412  3429  2830
3523  3553  3174
3581  3629  3180
2746  3121  0
2881  3272  132
3087  3427  779
3216  3583  1457
3378  3700  2088
3505  3810  2636
3523  3816  2939
3523  3816  3174
3581  3822  3180
2810  3533  0
2939  3629  225
3099  3758  851
3276  3822  1606
3404  3822  2184
3533  3822  2666
3581  3822  3003
3581  3822  3180
3581  3822  3180
3019  0  0
3019  0  0
3019  0  309
3019  0  769
3019  0  1309
3019  0  1726
3019  0  2100
3079  0  2559
3164  0  2923
3019  42  0
3115  215  36
3115  215  458
3115  215  943
3115  215  1437
3115  215  1903
3115  215  2272
3200  359  2700
3356  466  3003
3019  550  0
3115  751  36
3248  935  646
3248  935  1112
3248  935  1614
3248  935  2072
3248  935  2393
3368  1112  2838
3453  1172  3115
3019  1092  0
3115  1295  36
3248  1467  646
3441  1748  1347
3441  1748  1799
3441  1748  2236
3441  1748  2565
3521  1861  2963
3645  2023  3180
3019  1686  0
3115  1855  36
3248  2048  646
3441  2272  1347
3561  2441  1959
3561  2441  2397
3561  2441  2690
3661  2594  3073
3758  2698  3180
3019  2190  0
3115  2367  36
3248  2579  646
3441  2750  1347
3561  2925  1959
3710  3095  2523
3710  3095  2830
3798  3200  3162
3918  3228  3180
2967  2626  0
3115  2790  36
3248  2943  646
3441  3140  1347
3561  3268  1959
3710  3429  2523
3834  3577  2955
3946  3649  3180
4031  3790  3180
3079  3121  0
3200  3272  132
3368  3427  779
3521  3583  1457
3661  3700  2088
3798  3810  2636
3946  3822  3027
3946  3822  3180
4031  3822  3180
3164  3533  0
3356  3629  225
3453  3758  851
3645  3822  1606
3758  3822  2184
3918  3822  2666
4031  3822  3131
4031  3822  3180
4031  3822  3180
3417  0  0
3417  0  18
3417  0  426
3417  0  901
3417  0  1413
3417  0  1877
3417  0  2228
3417  0  2549
3453  0  2923
3417  173  0
3551  359  132
3551  359  610
3551  359  1060
3551  359  1574
3551  359  2056
3551  359  2377
3551  359  2680
3629  466  3003
3417  711  0
3551  899  132
3698  1124  791
3698  1124  1283
3698  1124  1758
3698  1124  2186
3698  1124  2513
3698  1124  2838
3710  1172  3115
3417  1239  0
3551  1417  132
3698  1672  791
3830  1863  1459
3830  1863  1935
3830  1863  2347
3830  1863  2682
3830  1863  2963
3854  2023  3180
3417  1807  0
3551  1999  132
3698  2200  791
3830  2417  1459
3975  2610  2112
3975  2610  2507
3975  2610  2802
3975  2610  3073
3999  2698  3180
3417  2345  0
3551  2535  132
3698  2686  791
3830  2875  1459
3975  3051  2112
4031  3220  2656
4031  3220  2939
4031  3220  3162
4031  3228  3180
3417  2742  0
3551  2907  132
3698  3079  791
3830  3248  1459
3975  3384  2112
4031  3553  2656
4031  3649  3027
4031  3649  3180
4031  3790  3180
3396  3121  0
3509  3262  132
3698  3427  791
3830  3583  1459
3975  3700  2112
4031  3810  2656
4031  3822  3027
4031  3822  3180
4031  3822  3180
3453  3533  0
3629  3629  225
3710  3758  851
3854  3822  1606
3999  3822  2184
4031  3822  2666
4031  3822  3131
4031  3822  3180
4031  3822  3180
3758  0  0
3758  0  112
3758  0  514
3758  0  1092
3758  0  1493
3758  0  1943
3758  0  2345
3758  0  2650
3758  0  2891
3758  337  0
3854  466  225
3854  466  691
3854  466  1204
3854  466  1686
3854  466  2072
3854  466  2441
3854  466  2730
3854  466  3003
3758  803  0
3854  996  225
3999  1204  867
3999  1204  1397
3999  1204  1847
3999  1204  2200
3999  1204  2634
3999  1204  2891
3999  1204  3115
3758  1445  0
3854  1574  225
3999  1799  867
4031  2023  1606
4031  2023  2007
4031  2023  2409
4031  2023  2762
4031  2023  3003
4031  2023  3180
3758  1911  0
3854  2136  225
3999  2296  867
4031  2489  1606
4031  2698  2184
4031  2698  2521
4031  2698  2891
4031  2698  3115
4031  2698  3180
3758  2409  0
3854  2585  225
3999  2714  867
4031  2939  1606
4031  3067  2184
4031  3228  2666
4031  3228  3003
4031  3228  3180
4031  3228  3180
3758  2875  0
3854  3003  225
3999  3180  867
4031  3340  1606
4031  3501  2184
4031  3613  2666
4031  3790  3131
4031  3790  3180
4031  3790  3180
3758  3212  0
3854  3308  225
3999  3501  867
4031  3613  1606
4031  3758  2184
4031  3822  2666
4031  3822  3131
4031  3822  3180
4031  3822  3180
3758  3533  0
3822  3613  225
3983  3758  867
4031  3822  1606
4031  3822  2184
4031  3822  2666
4031  3822  3131
4031  3822  3180
4031  3822  3180
