PS/3DLUTs/Insta-earlybird.3dl
#Created by: Generate3DLut
#Generator: Copyright 2012 by Linus Hechinger
0 256 512 767 1023
0  0  0
0  0  0
0  0  931
112  0  2112
450  0  2923
0  0  0
0  0  0
0  197  980
177  598  2160
514  867  2987
0  1285  0
0  1325  0
0  1325  980
177  1726  2160
514  1975  2987
112  2626  0
177  2670  333
177  2670  1325
177  2654  2160
514  2939  2987
450  3533  0
514  3613  578
514  3613  1558
514  3613  2409
514  3565  2987
369  0  0
369  0  0
715  0  931
1128  0  2112
1381  0  2923
369  0  0
759  169  0
1128  534  1261
1502  899  2389
1750  1172  3115
715  1285  0
1128  1646  277
1176  1702  1317
1538  2072  2437
1831  2345  3164
1128  2626  0
1502  2939  610
1538  2971  1630
1538  2971  2437
1831  3212  3164
1381  3533  0
1750  3758  851
1831  3806  1863
1831  3806  2650
1831  3806  3164
1799  0  0
1799  0  0
1799  0  956
2120  0  2112
2409  0  2923
1799  169  0
2152  546  309
2152  546  1293
2489  899  2389
2730  1172  3115
1799  1293  0
2152  1678  309
2561  2104  1670
2866  2417  2682
3099  2698  3180
2120  2626  0
2489  2939  610
2866  3248  1935
2883  3268  2690
3115  3517  3180
2409  3533  0
2730  3758  851
3099  3822  2184
3115  3822  2891
3115  3822  3180
3019  0  0
3019  0  309
3019  0  1309
3019  0  2100
3164  0  2923
3019  550  0
3248  935  646
3248  935  1614
3248  935  2393
3453  1172  3115
3019  1686  0
3248  2048  646
3561  2441  1959
3561  2441  2690
3758  2698  3180
2967  2626  0
3248  2943  646
3561  3268  1959
3834  3577  2955
4031  3790  3180
3164  3533  0
3453  3758  851
3758  3822  2184
4031  3822  3131
4031  3822  3180
3758  0  0
3758  0  514
3758  0  1493
3758  0  2345
3758  0  2891
3758  803  0
3999  1204  867
3999  1204  1847
3999  1204  2634
3999  1204  3115
3758  1911  0
3999  2296  867
4031  2698  2184
4031  2698  2891
4031  2698  3180
3758  2875  0
3999  3180  867
4031  3501  2184
4031  3790  3131
4031  3790  3180
3758  3533  0
3983  3758  867
4031  3822  2184
4031  3822  3131
4031  3822  3180
