PS/3DLUTs/Insta-lomo-fi.3dl
#Created by: Generate3DLut
#Generator: Copyright 2012 by Linus Hechinger
0 128 256 384 512 639 767 895 1023
0  0  0
0  0  0
0  0  0
0  0  1092
0  0  2409
0  0  2947
0  0  3184
0  0  3292
0  0  3324
0  0  0
0  0  0
0  0  0
0  0  1092
0  0  2409
0  0  2947
0  0  3184
0  0  3292
0  0  3324
0  0  0
0  0  0
0  0  0
0  0  1092
0  0  2409
0  0  2947
0  0  3184
0  0  3292
0  0  3324
0  1092  0
0  1092  0
0  1092  0
0  1092  1092
0  1092  2409
0  1092  2947
0  1092  3184
0  1092  3292
0  1060  3324
0  2409  0
0  2409  0
0  2409  0
0  2409  1092
0  2409  2409
0  2409  2947
0  2409  3184
0  2409  3292
0  2361  3324
0  2947  0
0  2947  0
0  2947  0
0  2947  1092
0  2947  2409
0  2947  2947
0  2947  3184
0  2947  3292
0  2891  3324
0  3184  0
0  3184  0
0  3184  0
0  3184  1092
0  3184  2409
0  3184  2947
0  3184  3184
0  3184  3292
0  3180  3324
0  3292  0
0  3292  0
0  3292  0
0  3292  1092
0  3292  2409
0  3292  2947
0  3292  3184
0  3292  3292
0  3292  3324
0  3324  0
0  3324  0
0  3324  0
0  3324  1060
0  3324  2361
0  3324  2891
0  3324  3180
0  3324  3292
0  3324  3324
0  0  0
0  0  0
0  0  0
0  0  1092
0  0  2409
0  0  2947
0  0  3184
0  0  3292
0  0  3324
0  0  0
0  0  0
0  0  0
0  0  1092
0  0  2409
0  0  2947
0  0  3184
0  0  3292
0  0  3324
0  0  0
0  0  0
0  0  0
0  0  1092
0  0  2409
0  0  2947
0  0  3184
0  0  3292
0  0  3324
0  1092  0
0  1092  0
0  1092  0
0  1092  1092
0  1092  2409
0  1092  2947
0  1092  3184
0  1092  3292
0  1060  3324
0  2409  0
0  2409  0
0  2409  0
0  2409  1092
0  2409  2409
0  2409  2947
0  2409  3184
0  2409  3292
0  2361  3324
0  2947  0
0  2947  0
0  2947  0
0  2947  1092
0  2947  2409
0  2947  2947
0  2947  3184
0  2947  3292
0  2891  3324
0  3184  0
0  3184  0
0  3184  0
0  3184  1092
0  3184  2409
0  3184  2947
0  3184  3184
0  3184  3292
0  3180  3324
0  3292  0
0  3292  0
0  3292  0
0  3292  1092
0  3292  2409
0  3292  2947
0  3292  3184
0  3292  3292
0  3292  3324
0  3324  0
0  3324  0
0  3324  0
0  3324  1060
0  3324  2361
0  3324  2891
0  3324  3180
0  3324  3292
0  3324  3324
0  0  0
0  0  0
0  0  0
0  0  1092
0  0  2409
0  0  2947
0  0  3184
0  0  3292
0  0  3324
0  0  0
0  0  0
0  0  0
0  0  1092
0  0  2409
0  0  2947
0  0  3184
0  0  3292
0  0  3324
0  0  0
0  0  0
0  0  0
0  0  1092
0  0  2409
0  0  2947
0  0  3184
0  0  3292
0  0  3324
0  1092  0
0  1092  0
0  1092  0
0  1092  1092
0  1092  2409
0  1092  2947
0  1092  3184
0  1092  3292
0  1060  3324
0  2409  0
0  2409  0
0  2409  0
0  2409  1092
0  2409  2409
0  2409  2947
0  2409  3184
0  2409  3292
0  2361  3324
0  2947  0
0  2947  0
0  2947  0
0  2947  1092
0  2947  2409
0  2947  2947
0  2947  3184
0  2947  3292
0  2891  3324
0  3184  0
0  3184  0
0  3184  0
0  3184  1092
0  3184  2409
0  3184  2947
0  3184  3184
0  3184  3292
0  3180  3324
0  3292  0
0  3292  0
0  3292  0
0  3292  1092
0  3292  2409
0  3292  2947
0  3292  3184
0  3292  3292
0  3292  3324
0  3324  0
0  3324  0
0  3324  0
0  3324  1060
0  3324  2361
0  3324  2891
0  3324  3180
0  3324  3292
0  3324  3324
1092  0  0
1092  0  0
1092  0  0
1092  0  1092
1092  0  2409
1092  0  2947
1092  0  3184
1092  0  3292
1060  0  3324
1092  0  0
1092  0  0
1092  0  0
1092  0  1092
1092  0  2409
1092  0  2947
1092  0  3184
1092  0  3292
1060  0  3324
1092  0  0
1092  0  0
1092  0  0
1092  0  1092
1092  0  2409
1092  0  2947
1092  0  3184
1092  0  3292
1060  0  3324
1092  1092  0
1092  1092  0
1092  1092  0
1092  1092  1092
1092  1092  2409
1092  1092  2947
1092  1092  3184
1092  1092  3292
1060  1060  3324
1092  2409  0
1092  2409  0
1092  2409  0
1092  2409  1092
1092  2409  2409
1092  2409  2947
1092  2409  3184
1092  2409  3292
1060  2361  3324
1092  2947  0
1092  2947  0
1092  2947  0
1092  2947  1092
1092  2947  2409
1092  2947  2947
1092  2947  3184
1092  2947  3292
1060  2891  3324
1092  3184  0
1092  3184  0
1092  3184  0
1092  3184  1092
1092  3184  2409
1092  3184  2947
1092  3184  3184
1092  3184  3292
1060  3180  3324
1092  3292  0
1092  3292  0
1092  3292  0
1092  3292  1092
1092  3292  2409
1092  3292  2947
1092  3292  3184
1092  3292  3292
1060  3292  3324
1060  3324  0
1060  3324  0
1060  3324  0
1060  3324  1060
1060  3324  2361
1060  3324  2891
1060  3324  3180
1060  3324  3292
1060  3324  3324
2409  0  0
2409  0  0
2409  0  0
2409  0  1092
2409  0  2409
2409  0  2947
2409  0  3184
2409  0  3292
2361  0  3324
2409  0  0
2409  0  0
2409  0  0
2409  0  1092
2409  0  2409
2409  0  2947
2409  0  3184
2409  0  3292
2361  0  3324
2409  0  0
2409  0  0
2409  0  0
2409  0  1092
2409  0  2409
2409  0  2947
2409  0  3184
2409  0  3292
2361  0  3324
2409  1092  0
2409  1092  0
2409  1092  0
2409  1092  1092
2409  1092  2409
2409  1092  2947
2409  1092  3184
2409  1092  3292
2361  1060  3324
2409  2409  0
2409  2409  0
2409  2409  0
2409  2409  1092
2409  2409  2409
2409  2409  2947
2409  2409  3184
2409  2409  3292
2361  2361  3324
2409  2947  0
2409  2947  0
2409  2947  0
2409  2947  1092
2409  2947  2409
2409  2947  2947
2409  2947  3184
2409  2947  3292
2361  2891  3324
2409  3184  0
2409  3184  0
2409  3184  0
2409  3184  1092
2409  3184  2409
2409  3184  2947
2409  3184  3184
2409  3184  3292
2361  3180  3324
2409  3292  0
2409  3292  0
2409  3292  0
2409  3292  1092
2409  3292  2409
2409  3292  2947
2409  3292  3184
2409  3292  3292
2361  3292  3324
2361  3324  0
2361  3324  0
2361  3324  0
2361  3324  1060
2361  3324  2361
2361  3324  2891
2361  3324  3180
2361  3324  3292
2361  3324  3324
2947  0  0
2947  0  0
2947  0  0
2947  0  1092
2947  0  2409
2947  0  2947
2947  0  3184
2947  0  3292
2891  0  3324
2947  0  0
2947  0  0
2947  0  0
2947  0  1092
2947  0  2409
2947  0  2947
2947  0  3184
2947  0  3292
2891  0  3324
2947  0  0
2947  0  0
2947  0  0
2947  0  1092
2947  0  2409
2947  0  2947
2947  0  3184
2947  0  3292
2891  0  3324
2947  1092  0
2947  1092  0
2947  1092  0
2947  1092  1092
2947  1092  2409
2947  1092  2947
2947  1092  3184
2947  1092  3292
2891  1060  3324
2947  2409  0
2947  2409  0
2947  2409  0
2947  2409  1092
2947  2409  2409
2947  2409  2947
2947  2409  3184
2947  2409  3292
2891  2361  3324
2947  2947  0
2947  2947  0
2947  2947  0
2947  2947  1092
2947  2947  2409
2947  2947  2947
2947  2947  3184
2947  2947  3292
2891  2891  3324
2947  3184  0
2947  3184  0
2947  3184  0
2947  3184  1092
2947  3184  2409
2947  3184  2947
2947  3184  3184
2947  3184  3292
2891  3180  3324
2947  3292  0
2947  3292  0
2947  3292  0
2947  3292  1092
2947  3292  2409
2947  3292  2947
2947  3292  3184
2947  3292  3292
2891  3292  3324
2891  3324  0
2891  3324  0
2891  3324  0
2891  3324  1060
2891  3324  2361
2891  3324  2891
2891  3324  3180
2891  3324  3292
2891  3324  3324
3184  0  0
3184  0  0
3184  0  0
3184  0  1092
3184  0  2409
3184  0  2947
3184  0  3184
3184  0  3292
3180  0  3324
3184  0  0
3184  0  0
3184  0  0
3184  0  1092
3184  0  2409
3184  0  2947
3184  0  3184
3184  0  3292
3180  0  3324
3184  0  0
3184  0  0
3184  0  0
3184  0  1092
3184  0  2409
3184  0  2947
3184  0  3184
3184  0  3292
3180  0  3324
3184  1092  0
3184  1092  0
3184  1092  0
3184  1092  1092
3184  1092  2409
3184  1092  2947
3184  1092  3184
3184  1092  3292
3180  1060  3324
3184  2409  0
3184  2409  0
3184  2409  0
3184  2409  1092
3184  2409  2409
3184  2409  2947
3184  2409  3184
3184  2409  3292
3180  2361  3324
3184  2947  0
3184  2947  0
3184  2947  0
3184  2947  1092
3184  2947  2409
3184  2947  2947
3184  2947  3184
3184  2947  3292
3180  2891  3324
3184  3184  0
3184  3184  0
3184  3184  0
3184  3184  1092
3184  3184  2409
3184  3184  2947
3184  3184  3184
3184  3184  3292
3180  3180  3324
3184  3292  0
3184  3292  0
3184  3292  0
3184  3292  1092
3184  3292  2409
3184  3292  2947
3184  3292  3184
3184  3292  3292
3180  3292  3324
3180  3324  0
3180  3324  0
3180  3324  0
3180  3324  1060
3180  3324  2361
3180  3324  2891
3180  3324  3180
3180  3324  3292
3180  3324  3324
3292  0  0
3292  0  0
3292  0  0
3292  0  1092
3292  0  2409
3292  0  2947
3292  0  3184
3292  0  3292
3292  0  3324
3292  0  0
3292  0  0
3292  0  0
3292  0  1092
3292  0  2409
3292  0  2947
3292  0  3184
3292  0  3292
3292  0  3324
3292  0  0
3292  0  0
3292  0  0
3292  0  1092
3292  0  2409
3292  0  2947
3292  0  3184
3292  0  3292
3292  0  3324
3292  1092  0
3292  1092  0
3292  1092  0
3292  1092  1092
3292  1092  2409
3292  1092  2947
3292  1092  3184
3292  1092  3292
3292  1060  3324
3292  2409  0
3292  2409  0
3292  2409  0
3292  2409  1092
3292  2409  2409
3292  2409  2947
3292  2409  3184
3292  2409  3292
3292  2361  3324
3292  2947  0
3292  2947  0
3292  2947  0
3292  2947  1092
3292  2947  2409
3292  2947  2947
3292  2947  3184
3292  2947  3292
3292  2891  3324
3292  3184  0
3292  3184  0
3292  3184  0
3292  3184  1092
3292  3184  2409
3292  3184  2947
3292  3184  3184
3292  3184  3292
3292  3180  3324
3292  3292  0
3292  3292  0
3292  3292  0
3292  3292  1092
3292  3292  2409
3292  3292  2947
3292  3292  3184
3292  3292  3292
3292  3292  3324
3292  3324  0
3292  3324  0
3292  3324  0
3292  3324  1060
3292  3324  2361
3292  3324  2891
3292  3324  3180
3292  3324  3292
3292  3324  3324
3324  0  0
3324  0  0
3324  0  0
3324  0  1060
3324  0  2361
3324  0  2891
3324  0  3180
3324  0  3292
3324  0  3324
3324  0  0
3324  0  0
3324  0  0
3324  0  1060
3324  0  2361
3324  0  2891
3324  0  3180
3324  0  3292
3324  0  3324
3324  0  0
3324  0  0
3324  0  0
3324  0  1060
3324  0  2361
3324  0  2891
3324  0  3180
3324  0  3292
3324  0  3324
3324  1060  0
3324  1060  0
3324  1060  0
3324  1060  1060
3324  1060  2361
3324  1060  2891
3324  1060  3180
3324  1060  3292
3324  1060  3324
3324  2361  0
3324  2361  0
3324  2361  0
3324  2361  1060
3324  2361  2361
3324  2361  2891
3324  2361  3180
3324  2361  3292
3324  2361  3324
3324  2891  0
3324  2891  0
3324  2891  0
3324  2891  1060
3324  2891  2361
3324  2891  2891
3324  2891  3180
3324  2891  3292
3324  2891  3324
3324  3180  0
3324  3180  0
3324  3180  0
3324  3180  1060
3324  3180  2361
3324  3180  2891
3324  3180  3180
3324  3180  3292
3324  3180  3324
3324  3292  0
3324  3292  0
3324  3292  0
3324  3292  1060
3324  3292  2361
3324  3292  2891
3324  3292  3180
3324  3292  3292
3324  3292  3324
3324  3324  0
3324  3324  0
3324  3324  0
3324  3324  1060
3324  3324  2361
3324  3324  2891
3324  3324  3180
3324  3324  3292
3324  3324  3324
