PS/3DLUTs/Insta-brannan.3dl
#Created by: Generate3DLut
#Generator: Copyright 2012 by Linus Hechinger
0 256 512 767 1023
418  161  369
482  241  779
610  337  1381
723  450  2365
915  658  3372
482  678  418
482  678  779
610  835  1381
723  1040  2365
915  1253  3372
610  1389  482
610  1389  935
610  1389  1381
723  1702  2365
915  2039  3372
723  2549  594
723  2549  1104
723  2549  1654
723  2521  2365
915  2810  3372
915  3629  755
915  3629  1269
915  3629  1943
915  3629  2585
915  3597  3372
935  241  418
935  241  779
1092  337  1381
1309  450  2365
1477  658  3372
935  678  418
1080  831  931
1281  1024  1614
1534  1305  2589
1750  1542  3581
1092  1389  482
1281  1678  1076
1281  1678  1614
1534  2039  2589
1750  2377  3581
1309  2549  594
1534  2782  1321
1534  2782  1951
1534  2782  2589
1750  3051  3581
1477  3629  755
1750  3918  1510
1750  3918  2168
1750  3918  2842
1750  3918  3581
1622  337  482
1622  337  935
1622  337  1381
1943  450  2365
2200  658  3372
1622  835  482
1911  1024  1076
1911  1024  1614
2216  1305  2589
2505  1542  3581
1622  1389  482
1911  1678  1076
2224  2056  1959
2553  2417  2858
2794  2682  3886
1943  2549  594
2216  2782  1321
2553  3075  2232
2553  3075  2858
2794  3340  3886
2200  3629  755
2505  3918  1510
2794  3983  2505
2794  3983  3035
2794  3983  3886
2662  450  594
2662  450  1104
2662  450  1654
2662  450  2353
2907  658  3372
2662  1040  594
2907  1305  1321
2907  1305  1951
2907  1305  2589
3164  1542  3581
2662  1702  594
2907  2039  1321
3184  2417  2232
3184  2417  2858
3453  2682  3886
2658  2549  594
2907  2782  1321
3184  3075  2232
3497  3384  3075
3694  3565  3886
2907  3629  755
3164  3918  1510
3453  3983  2505
3694  3983  3292
3694  3983  3886
3774  658  755
3774  658  1269
3774  658  1943
3774  658  2585
3774  658  3324
3774  1253  755
4095  1542  1510
4095  1542  2168
4095  1542  2842
4095  1542  3565
3774  2039  755
4095  2377  1510
4095  2682  2505
4095  2682  3035
4095  2682  3886
3774  2810  755
4095  3051  1510
4095  3340  2505
4095  3565  3292
4095  3565  3886
3758  3629  755
4095  3918  1510
4095  3983  2505
4095  3983  3292
4095  3983  3886
