PS/3DLUTs/Insta-inkwell.3dl
#Created by: Generate3DLut
#Generator: Copyright 2012 by Linus Hechinger
0 256 512 767 1023
0  0  0
305  305  377
964  964  1020
1750  1750  1779
2473  2473  2473
305  377  305
305  377  377
964  1048  1020
1750  1835  1779
2473  2473  2473
964  1020  964
964  1020  1048
964  1020  1020
1750  1807  1779
2473  2473  2473
1750  1779  1750
1750  1779  1835
1750  1779  1807
1750  1779  1779
2473  2473  2473
2473  2473  2473
2473  2473  2473
2473  2473  2473
2473  2473  2473
2473  2473  2473
377  305  305
377  305  377
1048  964  1020
1835  1750  1779
2473  2473  2473
377  377  305
1000  1000  1000
1766  1766  1734
2513  2513  2465
2939  2939  2939
1048  1020  964
1766  1734  1766
1766  1734  1734
2513  2489  2465
2939  2939  2939
1835  1779  1750
2513  2465  2513
2513  2465  2489
2513  2465  2465
2939  2939  2939
2473  2473  2473
2939  2939  2939
2939  2939  2939
2939  2939  2939
2939  2939  2939
1020  964  964
1020  964  1048
1020  964  1020
1807  1750  1779
2473  2473  2473
1020  1048  964
1734  1766  1766
1734  1766  1734
2489  2513  2465
2939  2939  2939
1020  1020  964
1734  1734  1766
2489  2489  2489
2971  2971  2955
3244  3244  3244
1807  1779  1750
2489  2465  2513
2971  2955  2971
2971  2955  2955
3244  3244  3244
2473  2473  2473
2939  2939  2939
3244  3244  3244
3244  3244  3244
3244  3244  3244
1779  1750  1750
1779  1750  1835
1779  1750  1807
1779  1750  1779
2473  2473  2473
1779  1835  1750
2465  2513  2513
2465  2513  2489
2465  2513  2465
2939  2939  2939
1779  1807  1750
2465  2489  2513
2955  2971  2971
2955  2971  2955
3244  3244  3244
1779  1779  1750
2465  2465  2513
2955  2955  2971
3252  3252  3252
3404  3404  3404
2473  2473  2473
2939  2939  2939
3244  3244  3244
3404  3404  3404
3404  3404  3404
2473  2473  2473
2473  2473  2473
2473  2473  2473
2473  2473  2473
2473  2473  2473
2473  2473  2473
2939  2939  2939
2939  2939  2939
2939  2939  2939
2939  2939  2939
2473  2473  2473
2939  2939  2939
3244  3244  3244
3244  3244  3244
3244  3244  3244
2473  2473  2473
2939  2939  2939
3244  3244  3244
3404  3404  3404
3404  3404  3404
2473  2473  2473
2939  2939  2939
3244  3244  3244
3404  3404  3404
3517  3517  3517
