PS/3DLUTs/Insta-lord-kelvin.3dl
#Created by: Generate3DLut
#Generator: Copyright 2012 by Linus Hechinger
0 64 128 192 256 320 384 448 512 575 639 703 767 831 895 959 1023
642  369  1253
642  369  1253
642  369  1253
642  369  1253
642  369  1265
642  369  1284
642  369  1321
642  369  1407
642  369  1526
642  369  1698
642  369  1903
642  369  2141
642  369  2397
642  369  2569
642  369  2569
642  369  2569
642  369  2569
642  625  1253
642  625  1253
642  625  1253
642  625  1253
642  625  1265
642  625  1284
642  625  1321
642  625  1407
642  625  1526
642  625  1698
642  625  1903
642  625  2141
642  625  2397
642  625  2569
642  625  2569
642  625  2569
642  610  2569
642  903  1253
642  903  1253
642  903  1253
642  903  1253
642  903  1265
642  903  1284
642  903  1321
642  903  1407
642  903  1526
642  903  1698
642  903  1903
642  903  2141
642  903  2397
642  903  2569
642  903  2569
642  903  2569
642  867  2569
642  1169  1253
642  1169  1253
642  1169  1253
642  1169  1253
642  1169  1265
642  1169  1284
642  1169  1321
642  1169  1407
642  1169  1526
642  1169  1698
642  1169  1903
642  1169  2141
642  1169  2397
642  1169  2569
642  1169  2569
642  1169  2569
642  1124  2569
642  1409  1253
642  1409  1253
642  1409  1253
642  1409  1253
642  1409  1265
642  1409  1284
642  1409  1321
642  1409  1407
642  1409  1526
642  1409  1698
642  1409  1903
642  1409  2141
642  1409  2397
642  1409  2569
642  1409  2569
642  1409  2569
642  1349  2569
642  1665  1253
642  1665  1253
642  1665  1253
642  1665  1253
642  1665  1265
642  1665  1284
642  1665  1321
642  1665  1407
642  1665  1526
642  1665  1698
642  1665  1903
642  1665  2141
642  1665  2397
642  1665  2569
642  1665  2569
642  1665  2569
642  1590  2569
642  1891  1253
642  1891  1253
642  1891  1253
642  1891  1253
642  1891  1265
642  1891  1284
642  1891  1321
642  1891  1407
642  1891  1526
642  1891  1698
642  1891  1903
642  1891  2141
642  1891  2397
642  1891  2569
642  1891  2569
642  1891  2569
642  1879  2569
642  2113  1253
642  2113  1253
642  2113  1253
642  2113  1253
642  2113  1265
642  2113  1284
642  2113  1321
642  2113  1407
642  2113  1526
642  2113  1698
642  2113  1903
642  2113  2141
642  2113  2397
642  2113  2569
642  2113  2569
642  2113  2569
642  2088  2569
642  2329  1253
642  2329  1253
642  2329  1253
642  2329  1253
642  2329  1265
642  2329  1284
642  2329  1321
642  2329  1407
642  2329  1526
642  2329  1698
642  2329  1903
642  2329  2141
642  2329  2397
642  2329  2569
642  2329  2569
642  2329  2569
642  2296  2569
642  2544  1253
642  2544  1253
642  2544  1253
642  2544  1253
642  2544  1265
642  2544  1284
642  2544  1321
642  2544  1407
642  2544  1526
642  2544  1698
642  2544  1903
642  2544  2141
642  2544  2397
642  2544  2569
642  2544  2569
642  2544  2569
642  2489  2569
642  2754  1253
642  2754  1253
642  2754  1253
642  2754  1253
642  2754  1265
642  2754  1284
642  2754  1321
642  2754  1407
642  2754  1526
642  2754  1698
642  2754  1903
642  2754  2141
642  2754  2397
642  2754  2569
642  2754  2569
642  2754  2569
642  2698  2569
642  2928  1253
642  2928  1253
642  2928  1253
642  2928  1253
642  2928  1265
642  2928  1284
642  2928  1321
642  2928  1407
642  2928  1526
642  2928  1698
642  2928  1903
642  2928  2141
642  2928  2397
642  2928  2569
642  2928  2569
642  2928  2569
642  2923  2569
642  3131  1253
642  3131  1253
642  3131  1253
642  3131  1253
642  3131  1265
642  3131  1284
642  3131  1321
642  3131  1407
642  3131  1526
642  3131  1698
642  3131  1903
642  3131  2141
642  3131  2397
642  3131  2569
642  3131  2569
642  3131  2569
642  3115  2569
642  3336  1253
642  3336  1253
642  3336  1253
642  3336  1253
642  3336  1265
642  3336  1284
642  3336  1321
642  3336  1407
642  3336  1526
642  3336  1698
642  3336  1903
642  3336  2141
642  3336  2397
642  3336  2569
642  3336  2569
642  3336  2569
642  3308  2569
642  3421  1253
642  3421  1253
642  3421  1253
642  3421  1253
642  3421  1265
642  3421  1284
642  3421  1321
642  3421  1407
642  3421  1526
642  3421  1698
642  3421  1903
642  3421  2141
642  3421  2397
642  3421  2569
642  3421  2569
642  3421  2569
642  3421  2569
642  3421  1253
642  3421  1253
642  3421  1253
642  3421  1253
642  3421  1265
642  3421  1284
642  3421  1321
642  3421  1407
642  3421  1526
642  3421  1698
642  3421  1903
642  3421  2141
642  3421  2397
642  3421  2569
642  3421  2569
642  3421  2569
642  3421  2569
642  3421  1253
642  3421  1253
642  3421  1253
642  3421  1253
642  3421  1253
642  3421  1269
642  3421  1317
642  3421  1397
642  3421  1510
642  3421  1654
642  3421  1847
642  3421  2136
642  3421  2377
642  3421  2569
642  3421  2569
642  3421  2569
642  3421  2569
1116  369  1253
1116  369  1253
1116  369  1253
1116  369  1253
1116  369  1265
1116  369  1284
1116  369  1321
1116  369  1407
1116  369  1526
1116  369  1698
1116  369  1903
1116  369  2141
1116  369  2397
1116  369  2569
1116  369  2569
1116  369  2569
1092  369  2569
1116  625  1253
1116  625  1253
1116  625  1253
1116  625  1253
1116  625  1265
1116  625  1284
1116  625  1321
1116  625  1407
1116  625  1526
1116  625  1698
1116  625  1903
1116  625  2141
1116  625  2397
1116  625  2569
1116  625  2569
1116  625  2569
1092  610  2569
1116  903  1253
1116  903  1253
1116  903  1253
1116  903  1253
1116  903  1265
1116  903  1284
1116  903  1321
1116  903  1407
1116  903  1526
1116  903  1698
1116  903  1903
1116  903  2141
1116  903  2397
1116  903  2569
1116  903  2569
1116  903  2569
1092  867  2569
1116  1169  1253
1116  1169  1253
1116  1169  1253
1116  1169  1253
1116  1169  1265
1116  1169  1284
1116  1169  1321
1116  1169  1407
1116  1169  1526
1116  1169  1698
1116  1169  1903
1116  1169  2141
1116  1169  2397
1116  1169  2569
1116  1169  2569
1116  1169  2569
1092  1124  2569
1116  1409  1253
1116  1409  1253
1116  1409  1253
1116  1409  1253
1116  1409  1265
1116  1409  1284
1116  1409  1321
1116  1409  1407
1116  1409  1526
1116  1409  1698
1116  1409  1903
1116  1409  2141
1116  1409  2397
1116  1409  2569
1116  1409  2569
1116  1409  2569
1092  1349  2569
1116  1665  1253
1116  1665  1253
1116  1665  1253
1116  1665  1253
1116  1665  1265
1116  1665  1284
1116  1665  1321
1116  1665  1407
1116  1665  1526
1116  1665  1698
1116  1665  1903
1116  1665  2141
1116  1665  2397
1116  1665  2569
1116  1665  2569
1116  1665  2569
1092  1590  2569
1116  1891  1253
1116  1891  1253
1116  1891  1253
1116  1891  1253
1116  1891  1265
1116  1891  1284
1116  1891  1321
1116  1891  1407
1116  1891  1526
1116  1891  1698
1116  1891  1903
1116  1891  2141
1116  1891  2397
1116  1891  2569
1116  1891  2569
1116  1891  2569
1092  1879  2569
1116  2113  1253
1116  2113  1253
1116  2113  1253
1116  2113  1253
1116  2113  1265
1116  2113  1284
1116  2113  1321
1116  2113  1407
1116  2113  1526
1116  2113  1698
1116  2113  1903
1116  2113  2141
1116  2113  2397
1116  2113  2569
1116  2113  2569
1116  2113  2569
1092  2088  2569
1116  2329  1253
1116  2329  1253
1116  2329  1253
1116  2329  1253
1116  2329  1265
1116  2329  1284
1116  2329  1321
1116  2329  1407
1116  2329  1526
1116  2329  1698
1116  2329  1903
1116  2329  2141
1116  2329  2397
1116  2329  2569
1116  2329  2569
1116  2329  2569
1092  2296  2569
1116  2544  1253
1116  2544  1253
1116  2544  1253
1116  2544  1253
1116  2544  1265
1116  2544  1284
1116  2544  1321
1116  2544  1407
1116  2544  1526
1116  2544  1698
1116  2544  1903
1116  2544  2141
1116  2544  2397
1116  2544  2569
1116  2544  2569
1116  2544  2569
1092  2489  2569
1116  2754  1253
1116  2754  1253
1116  2754  1253
1116  2754  1253
1116  2754  1265
1116  2754  1284
1116  2754  1321
1116  2754  1407
1116  2754  1526
1116  2754  1698
1116  2754  1903
1116  2754  2141
1116  2754  2397
1116  2754  2569
1116  2754  2569
1116  2754  2569
1092  2698  2569
1116  2928  1253
1116  2928  1253
1116  2928  1253
1116  2928  1253
1116  2928  1265
1116  2928  1284
1116  2928  1321
1116  2928  1407
1116  2928  1526
1116  2928  1698
1116  2928  1903
1116  2928  2141
1116  2928  2397
1116  2928  2569
1116  2928  2569
1116  2928  2569
1092  2923  2569
1116  3131  1253
1116  3131  1253
1116  3131  1253
1116  3131  1253
1116  3131  1265
1116  3131  1284
1116  3131  1321
1116  3131  1407
1116  3131  1526
1116  3131  1698
1116  3131  1903
1116  3131  2141
1116  3131  2397
1116  3131  2569
1116  3131  2569
1116  3131  2569
1092  3115  2569
1116  3336  1253
1116  3336  1253
1116  3336  1253
1116  3336  1253
1116  3336  1265
1116  3336  1284
1116  3336  1321
1116  3336  1407
1116  3336  1526
1116  3336  1698
1116  3336  1903
1116  3336  2141
1116  3336  2397
1116  3336  2569
1116  3336  2569
1116  3336  2569
1092  3308  2569
1116  3421  1253
1116  3421  1253
1116  3421  1253
1116  3421  1253
1116  3421  1265
1116  3421  1284
1116  3421  1321
1116  3421  1407
1116  3421  1526
1116  3421  1698
1116  3421  1903
1116  3421  2141
1116  3421  2397
1116  3421  2569
1116  3421  2569
1116  3421  2569
1092  3421  2569
1116  3421  1253
1116  3421  1253
1116  3421  1253
1116  3421  1253
1116  3421  1265
1116  3421  1284
1116  3421  1321
1116  3421  1407
1116  3421  1526
1116  3421  1698
1116  3421  1903
1116  3421  2141
1116  3421  2397
1116  3421  2569
1116  3421  2569
1116  3421  2569
1092  3421  2569
1092  3421  1253
1092  3421  1253
1092  3421  1253
1092  3421  1253
1092  3421  1253
1092  3421  1269
1092  3421  1317
1092  3421  1397
1092  3421  1510
1092  3421  1654
1092  3421  1847
1092  3421  2136
1092  3421  2377
1092  3421  2569
1092  3421  2569
1092  3421  2569
1092  3421  2569
1564  369  1253
1564  369  1253
1564  369  1253
1564  369  1253
1564  369  1265
1564  369  1284
1564  369  1321
1564  369  1407
1564  369  1526
1564  369  1698
1564  369  1903
1564  369  2141
1564  369  2397
1564  369  2569
1564  369  2569
1564  369  2569
1510  369  2569
1564  625  1253
1564  625  1253
1564  625  1253
1564  625  1253
1564  625  1265
1564  625  1284
1564  625  1321
1564  625  1407
1564  625  1526
1564  625  1698
1564  625  1903
1564  625  2141
1564  625  2397
1564  625  2569
1564  625  2569
1564  625  2569
1510  610  2569
1564  903  1253
1564  903  1253
1564  903  1253
1564  903  1253
1564  903  1265
1564  903  1284
1564  903  1321
1564  903  1407
1564  903  1526
1564  903  1698
1564  903  1903
1564  903  2141
1564  903  2397
1564  903  2569
1564  903  2569
1564  903  2569
1510  867  2569
1564  1169  1253
1564  1169  1253
1564  1169  1253
1564  1169  1253
1564  1169  1265
1564  1169  1284
1564  1169  1321
1564  1169  1407
1564  1169  1526
1564  1169  1698
1564  1169  1903
1564  1169  2141
1564  1169  2397
1564  1169  2569
1564  1169  2569
1564  1169  2569
1510  1124  2569
1564  1409  1253
1564  1409  1253
1564  1409  1253
1564  1409  1253
1564  1409  1265
1564  1409  1284
1564  1409  1321
1564  1409  1407
1564  1409  1526
1564  1409  1698
1564  1409  1903
1564  1409  2141
1564  1409  2397
1564  1409  2569
1564  1409  2569
1564  1409  2569
1510  1349  2569
1564  1665  1253
1564  1665  1253
1564  1665  1253
1564  1665  1253
1564  1665  1265
1564  1665  1284
1564  1665  1321
1564  1665  1407
1564  1665  1526
1564  1665  1698
1564  1665  1903
1564  1665  2141
1564  1665  2397
1564  1665  2569
1564  1665  2569
1564  1665  2569
1510  1590  2569
1564  1891  1253
1564  1891  1253
1564  1891  1253
1564  1891  1253
1564  1891  1265
1564  1891  1284
1564  1891  1321
1564  1891  1407
1564  1891  1526
1564  1891  1698
1564  1891  1903
1564  1891  2141
1564  1891  2397
1564  1891  2569
1564  1891  2569
1564  1891  2569
1510  1879  2569
1564  2113  1253
1564  2113  1253
1564  2113  1253
1564  2113  1253
1564  2113  1265
1564  2113  1284
1564  2113  1321
1564  2113  1407
1564  2113  1526
1564  2113  1698
1564  2113  1903
1564  2113  2141
1564  2113  2397
1564  2113  2569
1564  2113  2569
1564  2113  2569
1510  2088  2569
1564  2329  1253
1564  2329  1253
1564  2329  1253
1564  2329  1253
1564  2329  1265
1564  2329  1284
1564  2329  1321
1564  2329  1407
1564  2329  1526
1564  2329  1698
1564  2329  1903
1564  2329  2141
1564  2329  2397
1564  2329  2569
1564  2329  2569
1564  2329  2569
1510  2296  2569
1564  2544  1253
1564  2544  1253
1564  2544  1253
1564  2544  1253
1564  2544  1265
1564  2544  1284
1564  2544  1321
1564  2544  1407
1564  2544  1526
1564  2544  1698
1564  2544  1903
1564  2544  2141
1564  2544  2397
1564  2544  2569
1564  2544  2569
1564  2544  2569
1510  2489  2569
1564  2754  1253
1564  2754  1253
1564  2754  1253
1564  2754  1253
1564  2754  1265
1564  2754  1284
1564  2754  1321
1564  2754  1407
1564  2754  1526
1564  2754  1698
1564  2754  1903
1564  2754  2141
1564  2754  2397
1564  2754  2569
1564  2754  2569
1564  2754  2569
1510  2698  2569
1564  2928  1253
1564  2928  1253
1564  2928  1253
1564  2928  1253
1564  2928  1265
1564  2928  1284
1564  2928  1321
1564  2928  1407
1564  2928  1526
1564  2928  1698
1564  2928  1903
1564  2928  2141
1564  2928  2397
1564  2928  2569
1564  2928  2569
1564  2928  2569
1510  2923  2569
1564  3131  1253
1564  3131  1253
1564  3131  1253
1564  3131  1253
1564  3131  1265
1564  3131  1284
1564  3131  1321
1564  3131  1407
1564  3131  1526
1564  3131  1698
1564  3131  1903
1564  3131  2141
1564  3131  2397
1564  3131  2569
1564  3131  2569
1564  3131  2569
1510  3115  2569
1564  3336  1253
1564  3336  1253
1564  3336  1253
1564  3336  1253
1564  3336  1265
1564  3336  1284
1564  3336  1321
1564  3336  1407
1564  3336  1526
1564  3336  1698
1564  3336  1903
1564  3336  2141
1564  3336  2397
1564  3336  2569
1564  3336  2569
1564  3336  2569
1510  3308  2569
1564  3421  1253
1564  3421  1253
1564  3421  1253
1564  3421  1253
1564  3421  1265
1564  3421  1284
1564  3421  1321
1564  3421  1407
1564  3421  1526
1564  3421  1698
1564  3421  1903
1564  3421  2141
1564  3421  2397
1564  3421  2569
1564  3421  2569
1564  3421  2569
1510  3421  2569
1564  3421  1253
1564  3421  1253
1564  3421  1253
1564  3421  1253
1564  3421  1265
1564  3421  1284
1564  3421  1321
1564  3421  1407
1564  3421  1526
1564  3421  1698
1564  3421  1903
1564  3421  2141
1564  3421  2397
1564  3421  2569
1564  3421  2569
1564  3421  2569
1510  3421  2569
1510  3421  1253
1510  3421  1253
1510  3421  1253
1510  3421  1253
1510  3421  1253
1510  3421  1269
1510  3421  1317
1510  3421  1397
1510  3421  1510
1510  3421  1654
1510  3421  1847
1510  3421  2136
1510  3421  2377
1510  3421  2569
1510  3421  2569
1510  3421  2569
1510  3421  2569
1990  369  1253
1990  369  1253
1990  369  1253
1990  369  1253
1990  369  1265
1990  369  1284
1990  369  1321
1990  369  1407
1990  369  1526
1990  369  1698
1990  369  1903
1990  369  2141
1990  369  2397
1990  369  2569
1990  369  2569
1990  369  2569
1927  369  2569
1990  625  1253
1990  625  1253
1990  625  1253
1990  625  1253
1990  625  1265
1990  625  1284
1990  625  1321
1990  625  1407
1990  625  1526
1990  625  1698
1990  625  1903
1990  625  2141
1990  625  2397
1990  625  2569
1990  625  2569
1990  625  2569
