PS/3DLUTs/Insta-inkwell.3dl
#Created by: Generate3DLut
#Generator: Copyright 2012 by Linus Hechinger
0 128 256 384 512 639 767 895 1023
0  0  0
64  64  94
305  305  377
642  642  656
964  964  1020
1317  1317  1415
1750  1750  1779
2104  2104  2184
2473  2473  2473
64  94  64
64  94  94
305  341  377
642  685  656
964  1006  1020
1317  1359  1415
1750  1793  1779
2104  2152  2184
2473  2473  2473
305  377  305
305  377  341
305  377  377
642  727  656
964  1048  1020
1317  1401  1415
1750  1835  1779
2104  2200  2184
2473  2473  2473
642  656  642
642  656  685
642  656  727
642  656  656
964  978  1020
1317  1331  1415
1750  1764  1779
2104  2120  2184
2473  2473  2473
964  1020  964
964  1020  1006
964  1020  1048
964  1020  978
964  1020  1020
1317  1373  1415
1750  1807  1779
2104  2168  2184
2473  2473  2473
1317  1415  1317
1317  1415  1359
1317  1415  1401
1317  1415  1331
1317  1415  1373
1317  1415  1415
1750  1849  1779
2104  2216  2184
2473  2473  2473
1750  1779  1750
1750  1779  1793
1750  1779  1835
1750  1779  1764
1750  1779  1807
1750  1779  1849
1750  1779  1779
2104  2136  2184
2473  2473  2473
2104  2184  2104
2104  2184  2152
2104  2184  2200
2104  2184  2120
2104  2184  2168
2104  2184  2216
2104  2184  2136
2104  2184  2184
2473  2473  2473
2473  2473  2473
2473  2473  2473
2473  2473  2473
2473  2473  2473
2473  2473  2473
2473  2473  2473
2473  2473  2473
2473  2473  2473
2473  2473  2473
94  64  64
94  64  94
341  305  377
685  642  656
1006  964  1020
1359  1317  1415
1793  1750  1779
2152  2104  2184
2473  2473  2473
94  94  64
341  341  341
636  636  678
1006  1006  978
1359  1359  1373
1718  1718  1783
2152  2152  2136
2477  2477  2501
2730  2730  2730
341  377  305
636  678  636
636  678  678
1006  1048  978
1359  1401  1373
1718  1766  1783
2152  2200  2136
2477  2513  2501
2730  2730  2730
685  656  642
1006  978  1006
1006  978  1048
1006  978  978
1359  1331  1373
1718  1686  1783
2152  2120  2136
2477  2453  2501
2730  2730  2730
1006  1020  964
1359  1373  1359
1359  1373  1401
1359  1373  1331
1359  1373  1373
1718  1734  1783
2152  2168  2136
2477  2489  2501
2730  2730  2730
1359  1415  1317
1718  1783  1718
1718  1783  1766
1718  1783  1686
1718  1783  1734
1718  1783  1783
2152  2216  2136
2477  2525  2501
2730  2730  2730
1793  1779  1750
2152  2136  2152
2152  2136  2200
2152  2136  2120
2152  2136  2168
2152  2136  2216
2152  2136  2136
2477  2465  2501
2730  2730  2730
2152  2184  2104
2477  2501  2477
2477  2501  2513
2477  2501  2453
2477  2501  2489
2477  2501  2525
2477  2501  2465
2477  2501  2501
2730  2730  2730
2473  2473  2473
2730  2730  2730
2730  2730  2730
2730  2730  2730
2730  2730  2730
2730  2730  2730
2730  2730  2730
2730  2730  2730
2730  2730  2730
377  305  305
377  305  341
377  305  377
727  642  656
1048  964  1020
1401  1317  1415
1835  1750  1779
2200  2104  2184
2473  2473  2473
377  341  305
678  636  636
678  636  678
1048  1006  978
1401  1359  1373
1766  1718  1783
2200  2152  2136
2513  2477  2501
2730  2730  2730
377  377  305
678  678  636
1000  1000  1000
1401  1401  1331
1766  1766  1734
2128  2128  2140
2513  2513  2465
2758  2758  2748
2939  2939  2939
727  656  642
1048  978  1006
1401  1331  1401
1401  1331  1331
1766  1686  1734
2128  2068  2140
2513  2453  2465
2758  2708  2748
2939  2939  2939
1048  1020  964
1401  1373  1359
1766  1734  1766
1766  1734  1686
1766  1734  1734
2128  2104  2140
2513  2489  2465
2758  2738  2748
2939  2939  2939
1401  1415  1317
1766  1783  1718
2128  2140  2128
2128  2140  2068
2128  2140  2104
2128  2140  2140
2513  2525  2465
2758  2768  2748
2939  2939  2939
1835  1779  1750
2200  2136  2152
2513  2465  2513
2513  2465  2453
2513  2465  2489
2513  2465  2525
2513  2465  2465
2758  2718  2748
2939  2939  2939
2200  2184  2104
2513  2501  2477
2758  2748  2758
2758  2748  2708
2758  2748  2738
2758  2748  2768
2758  2748  2718
2758  2748  2748
2939  2939  2939
2473  2473  2473
2730  2730  2730
2939  2939  2939
2939  2939  2939
2939  2939  2939
2939  2939  2939
2939  2939  2939
2939  2939  2939
2939  2939  2939
656  642  642
656  642  685
656  642  727
656  642  656
978  964  1020
1331  1317  1415
1764  1750  1779
2120  2104  2184
2473  2473  2473
656  685  642
978  1006  1006
978  1006  1048
978  1006  978
1331  1359  1373
1686  1718  1783
2120  2152  2136
2453  2477  2501
2730  2730  2730
656  727  642
978  1048  1006
1331  1401  1401
1331  1401  1331
1686  1766  1734
2068  2128  2140
2453  2513  2465
2708  2758  2748
2939  2939  2939
656  656  642
978  978  1006
1331  1331  1401
1764  1764  1764
2120  2120  2168
2453  2453  2525
2738  2738  2746
2947  2947  2979
3131  3131  3131
978  1020  964
1331  1373  1359
1686  1734  1766
2120  2168  2120
2120  2168  2168
2453  2489  2525
2738  2762  2746
2947  2971  2979
3131  3131  3131
1331  1415  1317
1686  1783  1718
2068  2140  2128
2453  2525  2453
2453  2525  2489
2453  2525  2525
2738  2786  2746
2947  2995  2979
3131  3131  3131
1764  1779  1750
2120  2136  2152
2453  2465  2513
2738  2746  2738
2738  2746  2762
2738  2746  2786
2738  2746  2746
2947  2955  2979
3131  3131  3131
2120  2184  2104
2453  2501  2477
2708  2748  2758
2947  2979  2947
2947  2979  2971
2947  2979  2995
2947  2979  2955
2947  2979  2979
3131  3131  3131
2473  2473  2473
2730  2730  2730
2939  2939  2939
3131  3131  3131
3131  3131  3131
3131  3131  3131
3131  3131  3131
3131  3131  3131
3131  3131  3131
1020  964  964
1020  964  1006
1020  964  1048
1020  964  978
1020  964  1020
1373  1317  1415
1807  1750  1779
2168  2104  2184
2473  2473  2473
1020  1006  964
1373  1359  1359
1373  1359  1401
1373  1359  1331
1373  1359  1373
1734  1718  1783
2168  2152  2136
2489  2477  2501
2730  2730  2730
1020  1048  964
1373  1401  1359
1734  1766  1766
1734  1766  1686
1734  1766  1734
2104  2128  2140
2489  2513  2465
2738  2758  2748
2939  2939  2939
1020  978  964
1373  1331  1359
1734  1686  1766
2168  2120  2120
2168  2120  2168
2489  2453  2525
2762  2738  2746
2971  2947  2979
3131  3131  3131
1020  1020  964
1373  1373  1359
1734  1734  1766
2168  2168  2120
2489  2489  2489
2738  2738  2768
2971  2971  2955
3123  3123  3129
3244  3244  3244
1373  1415  1317
1734  1783  1718
2104  2140  2128
2489  2525  2453
2738  2768  2738
2738  2768  2768
2971  2995  2955
3123  3142  3129
3244  3244  3244
1807  1779  1750
2168  2136  2152
2489  2465  2513
2762  2746  2738
2971  2955  2971
2971  2955  2995
2971  2955  2955
3123  3111  3129
3244  3244  3244
2168  2184  2104
2489  2501  2477
2738  2748  2758
2971  2979  2947
3123  3129  3123
3123  3129  3142
3123  3129  3111
3123  3129  3129
3244  3244  3244
2473  2473  2473
2730  2730  2730
2939  2939  2939
3131  3131  3131
3244  3244  3244
3244  3244  3244
3244  3244  3244
3244  3244  3244
3244  3244  3244
1415  1317  1317
1415  1317  1359
1415  1317  1401
1415  1317  1331
1415  1317  1373
1415  1317  1415
1849  1750  1779
2216  2104  2184
2473  2473  2473
1415  1359  1317
1783  1718  1718
1783  1718  1766
1783  1718  1686
1783  1718  1734
1783  1718  1783
2216  2152  2136
2525  2477  2501
2730  2730  2730
1415  1401  1317
1783  1766  1718
2140  2128  2128
2140  2128  2068
2140  2128  2104
2140  2128  2140
2525  2513  2465
2768  2758  2748
2939  2939  2939
1415  1331  1317
1783  1686  1718
2140  2068  2128
2525  2453  2453
2525  2453  2489
2525  2453  2525
2786  2738  2746
2995  2947  2979
3131  3131  3131
1415  1373  1317
1783  1734  1718
2140  2104  2128
2525  2489  2453
2768  2738  2738
2768  2738  2768
2995  2971  2955
3142  3123  3129
3244  3244  3244
1415  1415  1317
1783  1783  1718
2140  2140  2128
2525  2525  2453
2768  2768  2738
2965  2965  2965
3142  3142  3111
3256  3256  3248
3340  3340  3340
1849  1779  1750
2216  2136  2152
2525  2465  2513
2786  2746  2738
2995  2955  2971
3142  3111  3142
3142  3111  3111
3256  3236  3248
3340  3340  3340
2216  2184  2104
2525  2501  2477
2768  2748  2758
2995  2979  2947
3142  3129  3123
3256  3248  3256
3256  3248  3236
3256  3248  3248
3340  3340  3340
2473  2473  2473
2730  2730  2730
2939  2939  2939
3131  3131  3131
3244  3244  3244
3340  3340  3340
3340  3340  3340
3340  3340  3340
3340  3340  3340
1779  1750  1750
1779  1750  1793
1779  1750  1835
1779  1750  1764
1779  1750  1807
1779  1750  1849
1779  1750  1779
2136  2104  2184
2473  2473  2473
1779  1793  1750
2136  2152  2152
2136  2152  2200
2136  2152  2120
2136  2152  2168
2136  2152  2216
2136  2152  2136
2465  2477  2501
2730  2730  2730
1779  1835  1750
2136  2200  2152
2465  2513  2513
2465  2513  2453
2465  2513  2489
2465  2513  2525
2465  2513  2465
2718  2758  2748
2939  2939  2939
1779  1764  1750
2136  2120  2152
2465  2453  2513
2746  2738  2738
2746  2738  2762
2746  2738  2786
2746  2738  2746
2955  2947  2979
3131  3131  3131
1779  1807  1750
2136  2168  2152
2465  2489  2513
2746  2762  2738
2955  2971  2971
2955  2971  2995
2955  2971  2955
3111  3123  3129
3244  3244  3244
1779  1849  1750
2136  2216  2152
2465  2525  2513
2746  2786  2738
2955  2995  2971
3111  3142  3142
3111  3142  3111
3236  3256  3248
3340  3340  3340
1779  1779  1750
2136  2136  2152
2465  2465  2513
2746  2746  2738
2955  2955  2971
3111  3111  3142
3252  3252  3252
3344  3344  3350
3404  3404  3404
2136  2184  2104
2465  2501  2477
2718  2748  2758
2955  2979  2947
3111  3129  3123
3236  3248  3256
3344  3350  3344
3344  3350  3350
3404  3404  3404
2473  2473  2473
2730  2730  2730
2939  2939  2939
3131  3131  3131
3244  3244  3244
3340  3340  3340
3404  3404  3404
3404  3404  3404
3404  3404  3404
2184  2104  2104
2184  2104  2152
2184  2104  2200
2184  2104  2120
2184  2104  2168
2184  2104  2216
2184  2104  2136
2184  2104  2184
2473  2473  2473
2184  2152  2104
2501  2477  2477
2501  2477  2513
2501  2477  2453
2501  2477  2489
2501  2477  2525
2501  2477  2465
2501  2477  2501
2730  2730  2730
2184  2200  2104
2501  2513  2477
2748  2758  2758
2748  2758  2708
2748  2758  2738
2748  2758  2768
2748  2758  2718
2748  2758  2748
2939  2939  2939
2184  2120  2104
2501  2453  2477
2748  2708  2758
2979  2947  2947
2979  2947  2971
2979  2947  2995
2979  2947  2955
2979  2947  2979
3131  3131  3131
2184  2168  2104
2501  2489  2477
2748  2738  2758
2979  2971  2947
3129  3123  3123
3129  3123  3142
3129  3123  3111
3129  3123  3129
3244  3244  3244
2184  2216  2104
2501  2525  2477
2748  2768  2758
2979  2995  2947
3129  3142  3123
3248  3256  3256
3248  3256  3236
3248  3256  3248
3340  3340  3340
2184  2136  2104
2501  2465  2477
2748  2718  2758
2979  2955  2947
3129  3111  3123
3248  3236  3256
3350  3344  3344
3350  3344  3350
3404  3404  3404
2184  2184  2104
2501  2501  2477
2748  2748  2758
2979  2979  2947
3129  3129  3123
3248  3248  3256
3350  3350  3344
3415  3415  3415
3469  3469  3469
2473  2473  2473
2730  2730  2730
2939  2939  2939
3131  3131  3131
3244  3244  3244
3340  3340  3340
3404  3404  3404
3469  3469  3469
3469  3469  3469
2473  2473  2473
2473  2473  2473
2473  2473  2473
2473  2473  2473
2473  2473  2473
2473  2473  2473
2473  2473  2473
2473  2473  2473
2473  2473  2473
2473  2473  2473
2730  2730  2730
2730  2730  2730
2730  2730  2730
2730  2730  2730
2730  2730  2730
2730  2730  2730
2730  2730  2730
2730  2730  2730
2473  2473  2473
2730  2730  2730
2939  2939  2939
2939  2939  2939
2939  2939  2939
2939  2939  2939
2939  2939  2939
2939  2939  2939
2939  2939  2939
2473  2473  2473
2730  2730  2730
2939  2939  2939
3131  3131  3131
3131  3131  3131
3131  3131  3131
3131  3131  3131
3131  3131  3131
3131  3131  3131
2473  2473  2473
2730  2730  2730
2939  2939  2939
3131  3131  3131
3244  3244  3244
3244  3244  3244
3244  3244  3244
3244  3244  3244
3244  3244  3244
2473  2473  2473
2730  2730  2730
2939  2939  2939
3131  3131  3131
3244  3244  3244
3340  3340  3340
3340  3340  3340
3340  3340  3340
3340  3340  3340
2473  2473  2473
2730  2730  2730
2939  2939  2939
3131  3131  3131
3244  3244  3244
3340  3340  3340
3404  3404  3404
3404  3404  3404
3404  3404  3404
2473  2473  2473
2730  2730  2730
2939  2939  2939
3131  3131  3131
3244  3244  3244
3340  3340  3340
3404  3404  3404
3469  3469  3469
3469  3469  3469
2473  2473  2473
2730  2730  2730
2939  2939  2939
3131  3131  3131
3244  3244  3244
3340  3340  3340
3404  3404  3404
3469  3469  3469
3517  3517  3517
