PS/3DLUTs/Insta-gotham.3dl
#Created by: Generate3DLut
#Generator: Copyright 2012 by Linus Hechinger
0 256 512 767 1023
0  0  0
0  0  0
0  0  0
450  658  883
1863  1911  1911
0  0  0
0  0  0
0  0  0
450  911  883
1863  1911  1911
0  0  0
0  0  0
0  0  0
450  827  883
1863  1911  1911
450  743  819
450  743  1012
450  743  947
450  743  883
1863  1911  1911
1863  1911  1911
1863  1911  1911
1863  1911  1911
1863  1911  1911
1863  1911  1911
0  0  0
0  0  0
0  0  0
727  658  883
1863  1911  1911
0  0  0
0  0  0
534  727  795
1955  1971  1895
2730  2682  2537
0  0  0
534  634  863
534  634  795
1955  1935  1895
2730  2682  2537
727  743  819
1955  1899  1959
1955  1899  1927
1955  1899  1895
2730  2682  2537
1863  1911  1911
2730  2682  2537
2730  2682  2537
2730  2682  2537
2730  2682  2537
0  0  0
0  0  0
0  0  0
634  658  883
1863  1911  1911
0  0  0
410  727  863
410  727  795
1919  1971  1895
2730  2682  2537
0  0  0
410  634  863
1919  1935  1927
2786  2738  2565
3437  3388  3131
634  743  819
1919  1899  1959
2786  2710  2594
2786  2710  2565
3437  3388  3131
1863  1911  1911
2730  2682  2537
3437  3388  3131
3437  3388  3131
3437  3388  3131
542  658  819
542  658  1012
542  658  947
542  658  883
1863  1911  1911
542  911  819
1883  1971  1959
1883  1971  1927
1883  1971  1895
2730  2682  2537
542  827  819
1883  1935  1959
2758  2738  2594
2758  2738  2565
3437  3388  3131
542  743  819
1883  1899  1959
2758  2710  2594
3461  3412  3148
4015  3950  3629
1863  1911  1911
2730  2682  2537
3437  3388  3131
4015  3950  3629
4015  3950  3629
1863  1911  1911
1863  1911  1911
1863  1911  1911
1863  1911  1911
1863  1911  1911
1863  1911  1911
2730  2682  2537
2730  2682  2537
2730  2682  2537
2730  2682  2537
1863  1911  1911
2730  2682  2537
3437  3388  3131
3437  3388  3131
3437  3388  3131
1863  1911  1911
2730  2682  2537
3437  3388  3131
4015  3950  3629
4015  3950  3629
1863  1911  1911
2730  2682  2537
3437  3388  3131
4015  3950  3629
4095  4095  4095
