PS/3DLUTs/linemuell.3dl
#Created by: Generate3DLut
#Generator: Copyright 2012 by Linus Hechinger
0 256 512 767 1023
642  434  674
642  434  1349
642  434  2015
642  450  3031
626  434  3485
642  1538  674
642  1522  1349
642  1526  2015
642  1538  3019
642  1445  3485
642  2345  674
642  2345  1353
642  2345  2015
642  2345  3019
626  2296  3485
642  3328  674
642  3328  1349
642  3328  2015
642  3328  3019
642  3308  3485
626  3822  674
626  3822  1301
642  3822  1975
626  3822  3003
642  3822  3485
1955  434  674
1955  434  1349
1955  434  2015
1955  434  3019
1863  434  3485
1955  1538  674
1955  1526  1349
1955  1526  2015
1955  1526  3019
1863  1445  3485
1955  2345  674
1955  2345  1349
1955  2345  2015
1955  2345  3019
1863  2296  3485
1955  3328  674
1955  3328  1349
1955  3328  2015
1955  3328  3019
1863  3308  3485
1863  3822  674
1863  3822  1301
1863  3822  1975
1863  3822  3003
1863  3822  3485
2754  434  674
2754  434  1349
2762  434  2015
2754  434  3019
2714  434  3485
2754  1538  674
2754  1526  1349
2754  1526  2015
2754  1526  3019
2714  1445  3485
2754  2345  674
2754  2345  1353
2754  2345  2015
2754  2345  3019
2714  2296  3485
2754  3328  674
2762  3328  1353
2754  3328  2015
2762  3328  3019
2714  3308  3485
2714  3822  674
2714  3822  1301
2714  3822  1959
2714  3822  3003
2714  3822  3485
3565  434  674
3565  434  1353
3565  434  2015
3565  434  3019
3533  434  3485
3565  1522  674
3565  1534  1349
3565  1526  2015
3565  1526  3019
3549  1445  3485
3565  2345  674
3565  2345  1349
3565  2345  2015
3565  2345  3019
3533  2296  3485
3565  3328  674
3565  3328  1353
3565  3328  2015
3565  3328  3019
3533  3308  3485
3533  3822  674
3533  3822  1301
3549  3822  1975
3533  3822  3003
3549  3822  3485
4063  434  674
4063  434  1301
4063  434  1975
4063  434  3003
4063  434  3485
4063  1445  674
4063  1445  1301
4063  1445  1975
4063  1445  3003
4063  1445  3485
4063  2296  674
4063  2296  1301
4063  2296  1975
4063  2296  3003
4063  2296  3485
4063  3308  674
4063  3308  1301
4063  3308  1975
4063  3308  3003
4063  3308  3485
4063  3838  674
4063  3822  1301
4063  3822  1975
4063  3822  3003
4063  3822  3485
