PS/3DLUTs/linemuell.3dl
#Created by: Generate3DLut
#Generator: Copyright 2012 by Linus Hechinger
0 64 128 192 256 320 384 448 512 575 639 703 767 831 895 959 1023
642  434  674
642  434  844
642  434  1020
642  434  1183
642  434  1349
642  434  1506
642  434  1676
642  434  1846
642  434  2015
642  434  2196
642  434  2445
642  434  2736
642  450  3031
642  434  3201
642  434  3318
642  434  3415
626  434  3485
642  738  674
642  738  844
642  738  1014
642  738  1183
642  738  1349
642  738  1507
642  738  1676
642  738  1846
642  738  2015
642  738  2196
642  738  2431
642  738  2736
642  738  3019
642  738  3201
642  738  3318
642  735  3415
642  707  3485
642  1016  674
642  1016  844
642  1016  1014
642  1016  1183
642  1016  1349
642  1016  1507
642  1016  1676
642  1016  1835
642  1016  2015
642  1016  2196
642  1016  2445
642  1016  2736
642  1016  3019
642  1016  3201
642  1016  3318
642  1000  3415
626  964  3485
642  1282  674
642  1282  844
642  1282  1014
642  1282  1183
642  1282  1353
642  1282  1506
642  1282  1676
642  1282  1830
642  1282  2015
642  1282  2196
642  1282  2429
642  1282  2736
642  1282  3019
642  1282  3201
642  1282  3318
642  1266  3415
642  1204  3485
642  1538  674
642  1526  844
642  1522  1014
642  1538  1183
642  1522  1349
642  1526  1506
642  1522  1676
642  1526  1835
642  1526  2015
642  1526  2196
642  1526  2431
642  1526  2736
642  1538  3019
642  1526  3201
642  1526  3318
642  1522  3415
642  1445  3485
642  1761  674
642  1761  844
642  1746  1014
642  1746  1183
642  1746  1349
642  1761  1507
642  1746  1676
642  1761  1835
642  1746  2015
642  1746  2196
642  1761  2445
642  1746  2736
642  1746  3031
642  1761  3201
642  1746  3318
642  1745  3415
642  1686  3485
642  1967  674
642  1967  844
642  1967  1020
642  1967  1183
642  1967  1353
642  1967  1506
642  1967  1676
642  1967  1846
642  1967  2015
642  1967  2196
642  1967  2431
642  1967  2736
642  1967  3019
642  1967  3201
642  1967  3318
642  1965  3415
626  1943  3485
642  2156  674
642  2156  844
642  2156  1014
642  2156  1183
642  2156  1349
642  2156  1507
642  2156  1676
642  2156  1846
642  2156  2015
642  2156  2196
642  2156  2445
642  2156  2736
642  2156  3019
642  2156  3201
642  2156  3318
642  2151  3415
642  2120  3485
642  2345  674
642  2345  844
642  2345  1020
642  2345  1183
642  2345  1353
642  2345  1506
642  2345  1676
642  2345  1835
642  2345  2015
642  2345  2196
642  2345  2429
642  2345  2736
642  2345  3019
642  2345  3201
642  2345  3318
642  2337  3415
626  2296  3485
642  2538  674
642  2538  844
642  2538  1014
642  2538  1183
642  2538  1353
642  2533  1521
642  2538  1676
642  2538  1835
642  2538  2015
642  2538  2196
642  2538  2431
642  2538  2736
642  2533  3019
642  2538  3201
642  2533  3318
642  2522  3415
626  2473  3485
642  2766  674
642  2766  844
642  2766  1014
642  2766  1183
642  2752  1349
642  2766  1506
642  2766  1676
642  2766  1835
642  2766  2015
642  2766  2196
642  2766  2431
642  2766  2736
642  2766  3019
642  2766  3201
642  2766  3318
642  2766  3415
642  2666  3485
642  3040  674
642  3041  844
642  3040  1014
642  3040  1183
642  3040  1353
642  3040  1506
642  3040  1676
642  3040  1835
642  3040  2015
642  3040  2196
642  3041  2445
642  3040  2736
642  3040  3019
642  3040  3201
642  3040  3318
642  3040  3415
626  3019  3485
642  3328  674
642  3328  844
642  3328  1020
642  3328  1183
642  3328  1349
642  3328  1506
642  3328  1676
642  3328  1846
642  3328  2015
642  3328  2196
642  3328  2445
642  3328  2736
642  3328  3019
642  3328  3201
642  3328  3318
642  3328  3415
642  3308  3485
642  3538  674
642  3538  847
642  3538  1014
642  3538  1183
642  3538  1349
642  3538  1507
642  3538  1676
642  3538  1835
642  3538  2015
642  3538  2196
642  3538  2431
642  3538  2736
642  3538  3019
642  3538  3201
642  3538  3318
642  3538  3415
626  3517  3485
642  3665  674
642  3665  844
642  3665  1014
642  3665  1183
642  3665  1349
642  3665  1521
642  3665  1676
642  3665  1835
642  3665  2015
642  3665  2196
642  3665  2431
642  3665  2736
642  3665  3019
642  3665  3201
642  3665  3318
642  3665  3415
642  3645  3485
642  3752  674
642  3752  844
642  3752  1014
642  3752  1176
642  3752  1349
642  3752  1506
642  3755  1676
642  3752  1830
642  3752  1999
642  3752  2185
642  3752  2429
642  3752  2735
642  3752  3019
642  3752  3201
642  3752  3318
642  3752  3415
626  3726  3485
626  3822  674
642  3822  835
642  3822  996
626  3822  1140
626  3822  1301
642  3822  1445
626  3822  1670
642  3822  1815
642  3822  1975
626  3822  2136
642  3822  2329
626  3822  2730
626  3822  3003
626  3822  3180
626  3822  3308
626  3822  3388
642  3822  3485
1014  434  674
1014  450  844
1014  434  1014
1014  434  1183
1014  434  1349
1014  450  1522
1014  434  1676
1014  434  1835
1014  434  2015
1014  434  2196
1014  434  2443
1014  434  2736
1014  434  3019
1014  434  3201
1014  434  3318
1014  434  3415
980  434  3485
1014  738  674
1014  738  844
1014  738  1014
1014  738  1183
1014  738  1349
1014  738  1506
1014  738  1676
1014  738  1846
1014  738  2015
1014  738  2196
1014  738  2431
1014  738  2736
1014  738  3031
1014  738  3201
1014  738  3318
1001  735  3415
980  707  3485
1014  1016  674
1014  1016  844
1014  1016  1020
1014  1016  1183
1014  1016  1349
1014  1016  1521
1014  1016  1676
1014  1016  1846
1014  1016  2015
1014  1016  2196
1014  1016  2429
1014  1016  2736
1014  1016  3019
1014  1016  3201
1014  1016  3318
1014  1010  3415
980  964  3485
1014  1282  674
1014  1282  844
1014  1282  1014
1014  1282  1183
1014  1282  1349
1014  1282  1507
1014  1282  1676
1014  1282  1846
1014  1282  2015
1014  1282  2196
1014  1282  2431
1014  1282  2736
1014  1282  3019
1014  1282  3201
1014  1282  3318
1001  1266  3415
980  1204  3485
1014  1538  674
1014  1526  844
1014  1522  1020
1014  1522  1183
1014  1526  1353
1014  1522  1506
1014  1526  1676
1014  1522  1830
1014  1526  2015
1014  1526  2196
1014  1526  2431
1014  1526  2736
1014  1526  3019
1014  1526  3201
1014  1526  3318
1001  1522  3415
980  1445  3485
1014  1761  674
1014  1746  844
1014  1761  1020
1014  1761  1183
1014  1746  1349
1014  1746  1507
1014  1746  1676
1014  1761  1835
1014  1746  2015
1014  1761  2196
1014  1746  2429
1014  1761  2736
1014  1746  3019
1014  1761  3201
1014  1746  3318
1001  1746  3415
980  1670  3485
1014  1967  674
1014  1967  844
1014  1967  1020
1014  1967  1183
1014  1967  1349
1014  1967  1522
1014  1967  1676
1014  1967  1830
1014  1967  2015
1014  1967  2196
1014  1967  2443
1014  1967  2736
1014  1967  3019
1014  1967  3192
1014  1967  3318
1011  1965  3415
980  1959  3485
1014  2156  674
1014  2156  844
1014  2156  1020
1014  2156  1183
1014  2156  1353
1014  2156  1507
1014  2156  1676
1014  2156  1835
1014  2156  2015
1014  2156  2196
1014  2156  2431
1014  2156  2736
1014  2156  3019
1014  2156  3201
1014  2156  3318
1001  2151  3415
980  2120  3485
1014  2345  674
1014  2345  844
1014  2345  1014
1014  2345  1183
1014  2345  1349
1014  2345  1507
1014  2345  1676
1014  2345  1846
1014  2345  2015
1014  2345  2196
1014  2345  2445
1014  2345  2736
1014  2345  3019
1014  2345  3201
1014  2345  3318
1001  2337  3415
980  2296  3485
1014  2533  674
1014  2538  844
1014  2538  1014
1014  2533  1183
1014  2538  1353
1014  2533  1506
1014  2538  1676
1014  2538  1846
1014  2538  2015
1014  2538  2196
1014  2538  2445
1014  2533  2736
1014  2538  3019
1014  2538  3201
1014  2533  3318
1001  2522  3415
980  2473  3485
1014  2766  674
1014  2766  844
1014  2766  1014
1014  2766  1183
1014  2766  1349
1014  2766  1507
1014  2766  1676
1014  2766  1835
1014  2766  2015
1014  2766  2196
1014  2766  2445
1014  2766  2736
1014  2766  3019
1014  2766  3201
1014  2766  3318
1001  2766  3415
980  2666  3485
1014  3041  674
1014  3041  844
1014  3040  1014
1014  3040  1183
1014  3041  1353
1014  3040  1506
1014  3041  1676
1014  3040  1841
1014  3040  2015
1014  3040  2196
1014  3040  2431
1014  3040  2736
1014  3040  3019
1014  3040  3201
1014  3041  3318
1001  3040  3415
980  3035  3485
1014  3328  674
1014  3328  844
1014  3328  1014
1014  3328  1183
1014  3328  1353
1014  3328  1506
1014  3328  1676
1014  3328  1835
1014  3328  2015
1014  3328  2196
1014  3328  2431
1014  3328  2736
1014  3328  3019
1014  3328  3201
1014  3328  3318
1001  3328  3415
980  3308  3485
1014  3538  674
1014  3538  844
1014  3538  1020
1014  3538  1183
1014  3538  1353
1014  3538  1506
1014  3538  1676
1014  3538  1830
1014  3538  2015
1014  3538  2196
1014  3538  2431
1014  3538  2736
1014  3538  3019
1014  3538  3201
1014  3538  3318
1001  3538  3415
980  3517  3485
1014  3665  674
1014  3665  844
1014  3665  1014
1014  3665  1183
1014  3665  1349
1014  3665  1521
1014  3665  1676
1014  3665  1835
1014  3665  2015
1014  3665  2196
1014  3665  2445
1014  3665  2736
1014  3665  3019
1014  3665  3201
1014  3665  3318
1001  3665  3415
980  3645  3485
1001  3752  674
1014  3752  844
1001  3752  1014
1014  3752  1183
1001  3752  1349
1001  3752  1506
998  3752  1676
1014  3752  1830
1001  3752  1999
1001  3752  2185
1001  3752  2429
1001  3752  2736
1014  3752  3019
1001  3752  3201
998  3752  3318
1001  3752  3415
980  3726  3485
980  3822  674
980  3822  835
980  3822  996
980  3822  1156
980  3822  1301
980  3822  1445
980  3838  1670
980  3838  1815
980  3838  1975
980  3822  2136
980  3822  2329
980  3822  2730
980  3822  3003
980  3822  3180
980  3822  3308
980  3822  3388
980  3822  3485
1359  434  674
1365  434  847
1359  434  1020
1359  434  1183
1359  434  1349
1359  434  1506
1359  434  1676
1359  434  1835
1359  434  2015
1359  434  2196
1359  434  2431
1359  434  2736
1359  434  3019
1359  434  3201
1359  434  3318
1353  434  3415
1285  434  3485
1359  738  674
1359  738  844
1359  738  1014
1365  738  1183
1359  738  1349
1359  738  1507
1359  738  1676
1359  738  1846
1359  738  2015
1359  738  2196
1359  738  2445
1359  738  2736
1359  738  3019
1359  738  3201
1359  738  3318
1343  735  3415
1301  707  3485
1359  1016  674
1359  1016  844
1359  1016  1014
1359  1016  1183
1359  1016  1353
1359  1016  1506
1359  1016  1676
1359  1016  1835
1359  1016  2015
1359  1016  2196
1359  1016  2445
1359  1016  2736
1359  1016  3031
1359  1016  3201
1359  1016  3318
1353  1010  3415
1301  964  3485
1359  1282  674
1359  1282  844
1365  1282  1020
1359  1282  1183
1359  1282  1353
1359  1282  1506
1359  1282  1676
1359  1282  1835
1359  1282  2015
1359  1282  2196
1359  1282  2431
1359  1282  2736
1359  1282  3019
1359  1282  3201
1359  1282  3318
1343  1266  3415
1285  1204  3485
1359  1526  674
1359  1522  844
1359  1522  1014
1359  1526  1183
1359  1526  1353
1359  1526  1507
1359  1538  1676
1359  1538  1835
1359  1526  2015
1359  1526  2196
1359  1526  2431
1359  1522  2736
1359  1526  3019
1359  1526  3201
1359  1526  3318
1343  1522  3415
1301  1445  3485
1359  1746  674
1365  1761  844
1359  1761  1020
1359  1746  1183
1359  1761  1353
1359  1761  1507
1359  1746  1676
1359  1761  1846
1359  1746  2015
1359  1761  2196
1359  1746  2431
1359  1746  2736
1359  1761  3019
1359  1746  3192
1359  1746  3318
1343  1746  3415
1285  1670  3485
1359  1967  674
1359  1967  844
1359  1967  1020
1359  1967  1183
1359  1967  1353
1359  1967  1506
1365  1967  1676
1359  1967  1846
1359  1967  2015
1359  1967  2196
1359  1967  2431
1359  1967  2736
1359  1967  3019
1359  1967  3201
1359  1967  3312
1343  1965  3415
1285  1943  3485
1359  2156  674
1359  2156  844
1359  2156  1014
1359  2156  1183
1359  2156  1349
1359  2156  1507
1359  2156  1676
1359  2156  1846
1359  2156  2015
1359  2156  2196
1359  2156  2445
1359  2156  2736
1359  2156  3019
1359  2156  3201
1359  2156  3318
1343  2151  3415
1301  2120  3485
1359  2345  674
1359  2345  844
1359  2345  1020
1359  2345  1183
1359  2345  1349
1359  2345  1506
1359  2345  1676
1359  2345  1830
1359  2345  2015
1365  2345  2196
1359  2345  2429
1359  2345  2736
1359  2345  3019
1365  2345  3201
1359  2345  3318
1349  2345  3415
1301  2296  3485
1359  2538  674
1359  2538  844
1359  2538  1014
1359  2538  1183
1359  2538  1353
1359  2533  1506
1359  2538  1676
1359  2538  1835
1359  2538  2015
1359  2538  2196
1359  2538  2445
1359  2533  2736
1359  2533  3019
1359  2538  3201
1359  2538  3318
1343  2522  3415
1301  2473  3485
1359  2766  674
1359  2766  844
1359  2766  1014
1359  2766  1183
1359  2766  1349
1359  2766  1506
1359  2766  1676
1359  2766  1830
1359  2766  2015
1359  2766  2196
1359  2766  2431
1365  2766  2736
1359  2766  3019
1359  2766  3201
1359  2766  3318
1359  2766  3415
1301  2666  3485
1359  3040  674
1359  3040  844
1359  3041  1020
1359  3040  1183
1359  3040  1349
1359  3040  1507
1359  3040  1676
1359  3040  1841
1359  3040  2015
1359  3040  2196
1359  3040  2445
1359  3040  2736
1359  3041  3019
1359  3041  3201
1359  3040  3318
1343  3040  3415
1285  3019  3485
1359  3328  674
1359  3328  844
1359  3328  1014
1359  3328  1183
1359  3328  1349
1359  3328  1506
1359  3328  1676
1359  3328  1846
1359  3328  2015
1359  3328  2196
1359  3328  2431
1359  3328  2736
1359  3328  3019
1359  3328  3201
1359  3328  3318
1343  3328  3415
1285  3308  3485
1359  3538  674
1359  3538  844
1365  3538  1020
1359  3538  1183
1359  3538  1349
1359  3538  1507
1359  3538  1676
1365  3538  1835
1359  3538  2015
1359  3538  2196
1359  3538  2443
1359  3538  2736
1359  3538  3019
1359  3538  3201
1359  3538  3318
1343  3538  3415
1285  3517  3485
1359  3665  674
1359  3665  844
1359  3665  1020
1359  3665  1183
1359  3665  1353
1359  3665  1507
1359  3665  1676
1359  3665  1835
1359  3665  2015
1359  3665  2196
1359  3665  2431
1365  3665  2736
1359  3665  3019
1359  3665  3201
1359  3665  3318
1343  3665  3415
1285  3645  3485
1343  3752  674
1343  3752  844
1343  3752  1014
1343  3752  1183
1343  3752  1349
1343  3752  1506
1343  3752  1676
1343  3752  1830
1343  3752  1999
1343  3752  2185
1343  3752  2429
1343  3752  2736
1343  3752  3019
1343  3752  3201
1343  3752  3318
1343  3752  3415
1301  3726  3485
1301  3822  674
1301  3822  835
1285  3822  996
1301  3822  1140
1301  3822  1301
1301  3822  1461
1301  3822  1670
1301  3822  1815
1301  3822  1975
1301  3822  2136
1285  3822  2329
1285  3822  2730
1285  3822  3003
1301  3822  3180
1301  3822  3308
1301  3822  3388
1301  3822  3485
1676  434  674
1676  450  844
1676  434  1020
1676  434  1183
1676  434  1353
1676  434  1507
1676  434  1676
1676  434  1835
1676  434  2015
1676  434  2196
1676  434  2431
1676  434  2736
1676  434  3019
1676  434  3201
1676  434  3318
1667  434  3415
1590  434  3485
1676  738  674
1676  738  844
1676  738  1014
1676  738  1183
1676  738  1353
1667  738  1506
1676  738  1676
1676  738  1835
1676  738  2015
1676  738  2196
1667  738  2431
1667  738  2736
1676  738  3031
1676  738  3201
1676  738  3318
1667  735  3415
