PS/3DLUTs/linemuell.3dl
#Created by: Generate3DLut
#Generator: Copyright 2012 by Linus Hechinger
0 128 256 384 512 639 767 895 1023
642  434  674
642  434  1020
642  434  1349
642  434  1676
642  434  2015
642  434  2445
642  450  3031
642  434  3318
626  434  3485
642  1016  674
642  1016  1014
642  1016  1349
642  1016  1676
642  1016  2015
642  1016  2445
642  1016  3019
642  1016  3318
626  964  3485
642  1538  674
642  1522  1014
642  1522  1349
642  1522  1676
642  1526  2015
642  1526  2431
642  1538  3019
642  1526  3318
642  1445  3485
642  1967  674
642  1967  1020
642  1967  1353
642  1967  1676
642  1967  2015
642  1967  2431
642  1967  3019
642  1967  3318
626  1943  3485
642  2345  674
642  2345  1020
642  2345  1353
642  2345  1676
642  2345  2015
642  2345  2429
642  2345  3019
642  2345  3318
626  2296  3485
642  2766  674
642  2766  1014
642  2752  1349
642  2766  1676
642  2766  2015
642  2766  2431
642  2766  3019
642  2766  3318
642  2666  3485
642  3328  674
642  3328  1020
642  3328  1349
642  3328  1676
642  3328  2015
642  3328  2445
642  3328  3019
642  3328  3318
642  3308  3485
642  3665  674
642  3665  1014
642  3665  1349
642  3665  1676
642  3665  2015
642  3665  2431
642  3665  3019
642  3665  3318
642  3645  3485
626  3822  674
642  3822  996
626  3822  1301
626  3822  1670
642  3822  1975
642  3822  2329
626  3822  3003
626  3822  3308
642  3822  3485
1359  434  674
1359  434  1020
1359  434  1349
1359  434  1676
1359  434  2015
1359  434  2431
1359  434  3019
1359  434  3318
1285  434  3485
1359  1016  674
1359  1016  1014
1359  1016  1353
1359  1016  1676
1359  1016  2015
1359  1016  2445
1359  1016  3031
1359  1016  3318
1301  964  3485
1359  1526  674
1359  1522  1014
1359  1526  1353
1359  1538  1676
1359  1526  2015
1359  1526  2431
1359  1526  3019
1359  1526  3318
1301  1445  3485
1359  1967  674
1359  1967  1020
1359  1967  1353
1365  1967  1676
1359  1967  2015
1359  1967  2431
1359  1967  3019
1359  1967  3312
1285  1943  3485
1359  2345  674
1359  2345  1020
1359  2345  1349
1359  2345  1676
1359  2345  2015
1359  2345  2429
1359  2345  3019
1359  2345  3318
1301  2296  3485
1359  2766  674
1359  2766  1014
1359  2766  1349
1359  2766  1676
1359  2766  2015
1359  2766  2431
1359  2766  3019
1359  2766  3318
1301  2666  3485
1359  3328  674
1359  3328  1014
1359  3328  1349
1359  3328  1676
1359  3328  2015
1359  3328  2431
1359  3328  3019
1359  3328  3318
1285  3308  3485
1359  3665  674
1359  3665  1020
1359  3665  1353
1359  3665  1676
1359  3665  2015
1359  3665  2431
1359  3665  3019
1359  3665  3318
1285  3645  3485
1301  3822  674
1285  3822  996
1301  3822  1301
1301  3822  1670
1301  3822  1975
1285  3822  2329
1285  3822  3003
1301  3822  3308
1301  3822  3485
1955  434  674
1955  434  1020
1955  434  1349
1955  434  1676
1955  434  2015
1955  434  2431
1955  434  3019
1955  434  3318
1863  434  3485
1955  1016  674
1955  1016  1014
1955  1016  1349
1955  1016  1676
1955  1016  2015
1955  1016  2431
1955  1016  3019
1955  1016  3318
1863  964  3485
1955  1538  674
1955  1538  1020
1955  1526  1349
1955  1538  1676
1955  1526  2015
1955  1534  2443
1955  1526  3019
1955  1522  3318
1863  1445  3485
1955  1967  674
1955  1967  1014
1955  1967  1349
1955  1967  1676
1955  1967  2015
1955  1967  2429
1955  1967  3031
1955  1967  3318
1863  1943  3485
1955  2345  674
1955  2345  1014
1955  2345  1349
1955  2345  1676
1955  2345  2015
1955  2345  2431
1955  2345  3019
1955  2345  3318
1863  2296  3485
1955  2766  674
1955  2766  1020
1955  2766  1353
1955  2766  1676
1955  2766  2015
1955  2766  2429
1955  2766  3019
1955  2766  3318
1863  2666  3485
1955  3328  674
1955  3328  1020
1955  3328  1349
1955  3328  1676
1955  3328  2015
1955  3328  2429
1955  3328  3019
1955  3328  3318
1863  3308  3485
1955  3665  674
1955  3665  1020
1955  3665  1349
1955  3665  1676
1955  3665  2015
1955  3665  2431
1955  3665  3031
1955  3665  3318
1863  3645  3485
1863  3822  674
1863  3838  996
1863  3822  1301
1863  3822  1670
1863  3822  1975
1863  3822  2329
1863  3822  3003
1863  3822  3308
1863  3822  3485
2401  434  674
2401  450  1014
2401  450  1353
2401  434  1676
2401  434  2015
2401  434  2431
2401  434  3019
2401  434  3318
2377  434  3485
2401  1016  674
2401  1016  1020
2401  1016  1353
2401  1016  1676
2401  1016  2015
2401  1016  2431
2415  1016  3031
2399  1016  3318
2393  964  3485
2415  1538  674
2399  1522  1014
2401  1526  1349
2401  1526  1676
2401  1526  2015
2401  1538  2445
2401  1526  3019
2401  1534  3318
2393  1445  3485
2401  1967  674
2401  1967  1014
2401  1967  1349
2401  1967  1676
2401  1967  2015
2401  1967  2431
2401  1967  3019
2401  1967  3318
2393  1943  3485
2399  2345  674
2401  2345  1014
2401  2345  1349
2401  2345  1676
2401  2345  2015
2401  2345  2445
2401  2345  3019
2401  2345  3318
2377  2296  3485
2401  2766  674
2401  2766  1014
2401  2766  1349
2401  2766  1676
2401  2766  2015
2401  2766  2445
2401  2766  3019
2401  2766  3318
2377  2666  3485
2401  3328  674
2399  3328  1014
2401  3328  1353
2401  3328  1676
2401  3328  2015
2401  3328  2431
2401  3328  3019
2401  3328  3318
2377  3308  3485
2399  3665  674
2399  3665  1014
2401  3665  1353
2401  3665  1676
2401  3665  2015
2401  3665  2445
2401  3665  3019
2399  3665  3318
2393  3645  3485
2377  3822  674
2393  3822  996
2377  3822  1301
2393  3822  1670
2393  3822  1975
2393  3822  2329
2393  3822  3003
2393  3822  3308
2393  3822  3485
2754  434  674
2754  434  1014
2754  434  1349
2754  434  1676
2762  434  2015
2754  450  2431
2754  434  3019
2754  434  3318
2714  434  3485
2754  1016  674
2762  1016  1020
2754  1016  1349
2754  1016  1676
2754  1016  2015
2754  1016  2431
2754  1016  3019
2762  1016  3318
2714  964  3485
2754  1538  674
2754  1538  1020
2754  1526  1349
2762  1538  1676
2754  1526  2015
2762  1538  2445
2754  1526  3019
2754  1522  3318
2714  1445  3485
2762  1967  674
2754  1967  1014
2754  1967  1353
2754  1967  1676
2754  1967  2015
2762  1967  2443
2754  1967  3019
2754  1967  3318
2714  1943  3485
2754  2345  674
2754  2345  1020
2754  2345  1353
2762  2345  1676
2754  2345  2015
2754  2345  2429
2754  2345  3019
2754  2345  3318
2714  2296  3485
2754  2766  674
2754  2766  1020
2754  2766  1353
2762  2766  1676
2754  2766  2015
2754  2766  2445
2762  2766  3019
2754  2766  3318
2714  2666  3485
2754  3328  674
2754  3328  1014
2762  3328  1353
2754  3328  1676
2754  3328  2015
2754  3328  2431
2762  3328  3019
2754  3328  3318
2714  3308  3485
2754  3665  674
2754  3665  1014
2754  3665  1349
2754  3665  1676
2754  3665  2015
2754  3665  2431
2754  3665  3019
2754  3665  3318
2714  3645  3485
2714  3822  674
2714  3822  996
2714  3822  1301
2714  3822  1670
2714  3822  1959
2714  3822  2329
2714  3822  3003
2714  3822  3308
2714  3822  3485
3107  450  674
3105  434  1014
3107  434  1353
3107  434  1676
3105  434  2015
3105  434  2431
3107  450  3031
3105  434  3312
3035  434  3485
3105  1016  674
3107  1016  1014
3105  1016  1349
3105  1016  1676
3105  1016  2015
3119  1016  2445
3107  1016  3031
3105  1016  3318
3035  964  3485
3105  1522  674
3105  1526  1020
3107  1526  1353
3119  1538  1676
3105  1522  2015
3107  1526  2431
3107  1526  3031
3105  1526  3318
3035  1445  3485
3107  1967  674
3107  1967  1014
3105  1967  1349
3105  1967  1676
3107  1967  2015
3107  1967  2445
3105  1967  3019
3105  1967  3318
3035  1943  3485
3105  2345  674
3105  2345  1020
3105  2345  1349
3107  2345  1676
3119  2345  2015
3107  2345  2445
3119  2345  3019
3105  2345  3318
3035  2296  3485
3105  2766  674
3105  2766  1020
3107  2766  1353
3107  2766  1676
3105  2766  2015
3105  2766  2431
3107  2766  3019
3105  2766  3318
3035  2666  3485
3107  3328  674
3107  3328  1020
3107  3328  1353
3105  3328  1676
3105  3328  2015
3121  3328  2445
3121  3328  3019
3107  3328  3318
3035  3308  3485
3107  3665  674
3105  3665  1014
3107  3665  1353
3105  3665  1676
3121  3665  2015
3119  3665  2445
3105  3665  3019
3105  3665  3318
3035  3645  3485
3035  3822  674
3035  3822  996
3035  3822  1301
3035  3822  1670
3035  3822  1975
3035  3822  2329
3035  3822  3003
3035  3822  3308
3035  3822  3485
3565  434  674
3565  434  1020
3565  434  1353
3565  434  1676
3565  434  2015
3565  434  2431
3565  434  3019
3565  450  3318
3533  434  3485
3565  1016  674
3565  1016  1020
3565  1016  1349
3565  1016  1676
3565  1016  2015
3565  1016  2431
3565  1016  3019
3565  1016  3318
3549  964  3485
3565  1522  674
3565  1526  1020
3565  1534  1349
3565  1538  1676
3565  1526  2015
3565  1538  2445
3565  1526  3019
3565  1526  3318
3549  1445  3485
3565  1967  674
3565  1967  1020
3565  1967  1353
3565  1967  1676
3565  1967  2015
3565  1967  2431
3565  1967  3019
3565  1967  3318
3549  1959  3485
3565  2345  674
3565  2345  1014
3565  2345  1349
3565  2345  1676
3565  2345  2015
3565  2345  2445
3565  2345  3019
3565  2345  3318
3533  2296  3485
3565  2752  674
3565  2766  1020
3565  2766  1353
3565  2766  1676
3565  2766  2015
3565  2766  2429
3565  2766  3019
3565  2766  3318
3549  2682  3485
3565  3328  674
3565  3328  1014
3565  3328  1353
3565  3328  1676
3565  3328  2015
3565  3328  2445
3565  3328  3019
3565  3328  3318
3533  3308  3485
3565  3665  674
3565  3665  1014
3565  3665  1353
3565  3665  1676
3565  3665  2015
3565  3665  2431
3565  3665  3019
3565  3665  3318
3549  3645  3485
3533  3822  674
3549  3822  996
3533  3822  1301
3549  3822  1670
3549  3822  1975
3533  3822  2329
3533  3822  3003
3549  3822  3308
3549  3822  3485
3890  434  674
3890  434  1014
3890  434  1349
3884  434  1676
3890  434  2015
3884  434  2429
3884  434  3019
3890  434  3318
3870  434  3485
3890  1016  674
3890  1016  1020
3890  1016  1349
3884  1016  1676
3884  1016  2015
3890  1016  2431
3890  1016  3019
3890  1016  3318
3854  964  3485
3890  1526  674
3884  1522  1014
3890  1538  1349
3884  1522  1676
3890  1526  2015
3890  1526  2431
3884  1534  3019
3884  1522  3318
3870  1445  3485
3884  1967  674
3890  1967  1014
3884  1967  1349
3890  1967  1676
3884  1967  2015
3890  1967  2431
3890  1967  3019
3884  1967  3312
3854  1943  3485
3890  2345  674
3884  2345  1020
3884  2345  1349
3890  2345  1676
3890  2345  2015
3890  2345  2431
3890  2345  3019
3890  2345  3318
3854  2296  3485
3884  2766  674
3890  2766  1020
3884  2766  1349
3890  2766  1676
3890  2766  2015
3890  2766  2431
3890  2766  3031
3890  2766  3318
3870  2682  3485
3884  3328  674
3884  3328  1014
3890  3328  1353
3890  3328  1676
3884  3328  2015
3890  3328  2445
3884  3328  3019
3884  3328  3318
3854  3308  3485
3890  3665  674
3890  3665  1014
3884  3665  1349
3890  3665  1676
3884  3665  2015
3884  3665  2443
3884  3665  3019
3890  3665  3318
3854  3645  3485
3870  3822  674
3854  3822  996
3854  3822  1301
3854  3822  1670
3854  3822  1975
3870  3822  2329
3870  3822  3003
3870  3822  3308
3854  3822  3485
4063  434  674
4063  434  996
4063  434  1301
4063  434  1670
4063  434  1975
4063  434  2329
4063  434  3003
4063  434  3308
4063  434  3485
4063  947  674
4063  964  996
4063  964  1301
4063  964  1670
4063  964  1975
4063  964  2329
4063  964  3003
4063  964  3308
4063  964  3485
4063  1445  674
4063  1445  996
4063  1445  1301
4063  1445  1670
4063  1445  1975
4063  1445  2329
4063  1445  3003
4063  1445  3308
4063  1445  3485
4063  1943  674
4063  1959  996
4063  1943  1301
4063  1943  1670
4063  1943  1975
4063  1943  2329
4063  1943  3003
4063  1943  3308
4063  1943  3485
4063  2296  674
4063  2296  996
4063  2296  1301
4063  2296  1670
4063  2296  1975
4063  2296  2329
4063  2296  3003
4063  2296  3308
4063  2296  3485
4063  2666  674
4063  2666  996
4063  2666  1301
4063  2666  1670
4063  2666  1975
4063  2666  2329
4063  2666  3003
4063  2666  3308
4063  2666  3485
4063  3308  674
4063  3308  996
4063  3308  1301
4063  3308  1670
4063  3308  1975
4063  3308  2329
4063  3308  3003
4063  3308  3308
4063  3308  3485
4063  3645  674
4063  3645  996
4063  3645  1301
4063  3645  1670
4063  3645  1975
4063  3645  2329
4063  3645  3003
4063  3645  3308
4063  3645  3485
4063  3838  674
4063  3822  996
4063  3822  1301
4063  3822  1670
4063  3822  1975
4063  3822  2329
4063  3822  3003
4063  3822  3308
4063  3822  3485
