PS/3DLUTs/Lobster.cube
LUT_3D_SIZE 6
0.146578 0.148751 0.151489
0.159687 0.146595 0.151715
0.311024 0.142442 0.136147
0.634209 0.168839 -0.045132
0.756172 0.172933 -0.124307
1.004972 0.113460 -0.203160
0.106320 0.176438 0.210039
0.160955 0.166243 0.147113
0.325805 0.201998 0.128081
0.640730 0.258729 -0.084077
0.753063 0.265936 -0.141118
1.002293 0.274340 -0.216426
0.115663 0.301423 0.246397
0.094821 0.326623 0.267939
0.349491 0.319078 0.147322
0.627715 0.381170 -0.109921
0.744583 0.389814 -0.162527
0.996068 0.428922 -0.236918
0.136645 0.575530 0.299603
0.108106 0.592854 0.267155
0.373782 0.534289 0.191461
0.597910 0.508221 0.148956
0.728202 0.515002 -0.123026
0.984769 0.573567 -0.246343
0.136622 0.705414 0.315967
0.109657 0.702711 0.300670
0.114623 0.702499 0.254136
0.556662 0.656875 0.147004
0.711590 0.627830 0.148014
0.964792 0.716974 -0.141386
0.149341 1.125677 0.416450
0.153241 1.125415 0.406880
-0.135725 1.126148 0.296374
0.373839 1.070411 0.191788
0.850480 1.025758 0.192730
0.954385 0.989137 0.241460
0.192612 -0.588085 0.140269
0.192612 -0.586599 0.189948
0.341788 -0.580118 0.231402
0.702747 -0.588513 0.281996
0.754771 -0.580198 0.262894
1.014325 -0.565754 0.243853
0.149926 0.178781 0.196297
0.152834 0.173325 0.195493
0.363760 0.171485 0.160624
0.656970 0.195878 -0.080149
0.770587 0.195590 -0.132545
1.017081 0.105916 -0.206494
0.149810 0.292917 0.332364
0.146478 0.329784 0.316617
0.356876 0.320604 0.155825
0.640686 0.371699 -0.120263
0.752947 0.377178 -0.157964
1.004087 0.408804 -0.230225
0.133058 0.575407 0.354730
0.151353 0.576990 0.328234
0.280521 0.548441 0.220710
0.599982 0.507230 0.146299
0.732855 0.510909 -0.125796
0.989265 0.565968 -0.241549
0.132988 0.704242 0.370297
0.150325 0.711035 0.320414
0.139079 0.709306 -0.113215
0.543861 0.658763 0.146905
0.712172 0.628477 0.155110
0.967355 0.714482 -0.135081
0.161407 1.125169 0.541300
0.143815 1.126615 0.393448
-0.148306 1.126682 0.323604
0.284033 1.083275 0.167798
0.844256 1.026755 0.179630
0.954929 0.990187 0.234265
0.175402 -0.572233 0.208001
0.159435 -0.583184 0.236084
0.346683 -0.580208 0.352511
0.675961 -0.578128 0.392562
0.736349 -0.571938 0.379500
1.003472 -0.563097 0.410957
0.173573 0.231044 0.308538
0.153253 0.220133 0.322988
0.340349 0.167623 0.365523
0.645372 0.154962 0.315833
0.766597 0.173431 0.273836
1.012929 0.118585 0.263799
0.171714 0.308772 0.360030
0.171936 0.311701 0.363406
0.279865 0.361432 0.408169
0.660545 0.344896 0.277393
0.784441 0.323070 0.179559
1.040851 0.264262 -0.184359
0.130095 0.436660 0.445279
0.142118 0.494511 0.484188
0.091571 0.597301 0.458983
0.610603 0.510944 0.250153
0.749935 0.501549 0.148406
1.012047 0.531631 -0.201755
0.135146 0.671495 0.532966
0.148422 0.680710 0.526994
0.107876 0.708115 0.398207
0.470823 0.672664 0.201529
0.716060 0.631586 0.216222
0.979283 0.704394 -0.076770
0.218753 1.125799 0.689159
0.231877 1.125685 0.664702
-0.153811 1.130324 0.393260
-0.470438 1.128774 0.155170
0.806212 1.029865 0.172802
0.957049 0.993256 0.198558
0.177853 -0.541071 0.395136
0.185264 -0.546648 0.398352
0.175247 -0.557762 0.436817
0.613163 -0.569672 0.563550
0.732173 -0.543632 0.553372
0.957691 -0.492596 0.640926
0.175333 0.302243 0.458503
0.158363 0.292326 0.487610
0.170117 0.257758 0.467061
0.574055 0.228626 0.528147
0.732844 0.278829 0.498370
0.981838 0.296757 0.564503
0.172408 0.369706 0.465046
0.161688 0.369574 0.472189
0.160030 0.360754 0.475379
0.602714 0.384339 0.545040
0.762949 0.386422 0.503563
1.024447 0.336685 0.515581
0.147641 0.455643 0.519571
0.140770 0.460211 0.523646
0.139212 0.452397 0.518428
0.559285 0.542143 0.516889
0.765275 0.519335 0.466933
1.042377 0.412844 0.260053
0.105328 0.554651 0.555004
0.106180 0.557064 0.554676
0.156324 0.489765 0.495861
0.312254 0.722139 0.594955
0.733585 0.649409 0.425865
1.002833 0.678917 0.258538
0.197481 1.103846 0.798761
0.204249 1.100294 0.782419
0.224069 1.138902 0.751609
0.122204 1.135130 0.429767
0.694583 1.029764 0.289446
0.961121 0.997314 0.267780
0.144805 -0.465017 0.582605
0.146669 -0.466801 0.582926
0.158715 -0.482797 0.589809
-0.125044 -0.543871 0.615347
0.738069 -0.538796 0.685036
0.958515 -0.481681 0.774059
0.176977 0.361141 0.601474
0.169277 0.335116 0.629343
0.168494 0.309772 0.614714
0.186610 0.289941 0.623346
0.723434 0.293450 0.647936
0.966403 0.342196 0.710638
0.178423 0.427168 0.588319
0.167682 0.430335 0.604325
0.156085 0.418458 0.633568
0.136892 0.414823 0.638184
0.748876 0.402640 0.667736
0.989057 0.412551 0.711758
0.164558 0.507597 0.622491
0.156743 0.509479 0.628018
0.135416 0.509557 0.641628
0.255688 0.525591 0.642652
0.740617 0.537226 0.659725
1.007524 0.516953 0.690192
0.144530 0.581196 0.649212
0.137564 0.584271 0.651998
0.164681 0.582101 0.652125
0.292590 0.614141 0.680117
0.703180 0.666416 0.634544
1.027828 0.623877 0.563915
0.205822 1.083814 0.869510
0.221919 1.086622 0.866838
0.275596 1.094329 0.849067
0.404398 1.109661 0.788361
0.438005 1.135905 0.570162
0.964740 1.009809 0.463067
0.162184 -0.437922 0.821758
0.170632 -0.438388 0.820896
0.166625 -0.462523 0.819778
0.230815 -0.477169 0.819761
0.674461 -0.500129 0.824813
0.958504 -0.476754 0.851009
0.178703 0.434251 0.803086
0.190327 0.382729 0.827447
0.177236 0.367423 0.815793
0.267212 0.353190 0.810813
0.651348 0.315246 0.806853
0.959977 0.353153 0.821652
0.179113 0.522877 0.799742
0.170271 0.519117 0.809104
0.147106 0.463188 0.842273
0.260974 0.447016 0.837286
0.687608 0.402632 0.828069
0.979346 0.421489 0.835395
0.172238 0.616884 0.813248
0.165265 0.615687 0.818474
0.142416 0.607212 0.834533
0.186300 0.565480 0.834850
0.674011 0.527767 0.833107
0.993427 0.526188 0.840761
0.170487 0.722536 0.851241
0.170365 0.722563 0.851592
0.173110 0.724311 0.858229
0.235254 0.711373 0.859992
0.535702 0.650058 0.829177
1.000018 0.652102 0.828890
0.162171 0.856488 0.897148
0.175148 0.857708 0.898161
0.214969 0.861779 0.901551
0.296050 0.876657 0.911501
0.446046 0.897338 0.915755
0.970045 0.883004 0.785128
