PS/3DLUTs/Lobster.cube
LUT_3D_SIZE 16
0.146578 0.148751 0.151489
0.146630 0.148827 0.151506
0.146618 0.146520 0.151047
0.159687 0.146595 0.151715
0.200803 0.144345 0.149619
0.250482 0.141535 0.142895
0.311024 0.142442 0.136147
0.408154 0.150176 0.122307
0.527987 0.162803 0.091033
0.634209 0.168839 -0.045132
0.685512 0.173085 -0.087416
0.713989 0.175985 -0.104145
0.756172 0.172933 -0.124307
0.808929 0.167879 -0.144222
0.877428 0.154947 -0.164892
1.004972 0.113460 -0.203160
0.146669 0.149058 0.151947
0.146657 0.148936 0.151779
0.146554 0.146750 0.150960
0.159799 0.146725 0.151359
0.200012 0.144484 0.149667
0.249355 0.142226 0.141670
0.310472 0.144715 0.135945
0.407759 0.155311 0.121785
0.527801 0.171847 0.089805
0.631403 0.177718 -0.047322
0.685755 0.182683 -0.088937
0.713751 0.186466 -0.106532
0.755832 0.184669 -0.126046
0.808770 0.182197 -0.145957
0.877064 0.176460 -0.167081
1.004632 0.148764 -0.205060
0.126539 0.153259 0.181498
0.125244 0.154296 0.185211
0.107622 0.155717 0.194568
0.158807 0.151447 0.147491
0.194056 0.154526 0.144413
0.240023 0.156901 0.140782
0.295576 0.162654 0.135407
0.399159 0.179575 0.119902
0.516126 0.198292 0.088285
0.619535 0.210044 -0.049056
0.684451 0.217415 -0.096047
0.712710 0.220564 -0.113457
0.754346 0.223477 -0.132395
0.807741 0.225127 -0.152080
0.876209 0.226698 -0.172646
1.003596 0.216987 -0.210203
0.106320 0.176438 0.210039
0.103493 0.178604 0.210105
0.092464 0.174848 0.204481
0.160955 0.166243 0.147113
0.194852 0.178459 0.146435
0.245636 0.185643 0.138873
0.325805 0.201998 0.128081
0.443086 0.228010 0.104018
0.548723 0.251289 0.059575
0.640730 0.258729 -0.084077
0.680305 0.262387 -0.109707
0.710611 0.264101 -0.124503
0.753063 0.265936 -0.141118
0.806541 0.269132 -0.159235
0.874414 0.273604 -0.178998
1.002293 0.274340 -0.216426
0.107174 0.204773 0.216398
0.102490 0.206909 0.216627
0.096079 0.211502 0.213549
0.151942 0.194775 0.161561
0.187301 0.193584 0.146404
0.244497 0.218600 0.146315
0.322125 0.238147 0.131727
0.435990 0.265229 0.101612
0.537384 0.287199 0.058303
0.630188 0.296375 -0.094338
0.676979 0.300629 -0.119038
0.708093 0.304143 -0.133067
0.750652 0.305689 -0.148752
0.803867 0.311469 -0.166535
0.873203 0.318946 -0.185629
1.001088 0.324976 -0.222843
0.105267 0.208926 0.209770
0.105689 0.205927 0.211406
0.092586 0.215537 0.205285
0.093099 0.215818 0.189777
0.198558 0.221846 0.146316
0.230955 0.230758 0.146318
0.323719 0.273733 0.145384
0.432767 0.305568 0.113083
0.528479 0.324278 0.056927
0.619541 0.333864 -0.098669
0.673473 0.339256 -0.126393
0.704957 0.342982 -0.140297
0.747774 0.348663 -0.156464
0.801509 0.354410 -0.173812
0.870413 0.365185 -0.192141
0.998234 0.378378 -0.229812
0.115663 0.301423 0.246397
0.118584 0.304960 0.252923
0.099772 0.343299 0.210437
0.094821 0.326623 0.267939
0.225687 0.311776 0.149267
0.290725 0.300581 0.146520
0.349491 0.319078 0.147322
0.458681 0.362332 0.139535
0.544538 0.375936 0.066929
0.627715 0.381170 -0.109921
0.668138 0.383737 -0.131965
0.701142 0.386175 -0.146516
0.744583 0.389814 -0.162527
0.798271 0.398626 -0.180087
0.867726 0.408841 -0.197798
0.996068 0.428922 -0.236918
0.126565 0.414530 0.269494
0.133702 0.410846 0.282182
0.120708 0.441564 0.266111
0.139513 0.432515 0.217161
0.036847 0.418246 0.264038
0.317773 0.389822 0.160109
0.385220 0.379331 0.151241
0.441561 0.389153 0.152297
0.533184 0.418348 0.129832
0.616903 0.423549 -0.077219
0.662470 0.425004 -0.125732
0.696588 0.426313 -0.146372
0.740597 0.430221 -0.164970
0.794878 0.438421 -0.183740
0.863754 0.453324 -0.202551
0.992752 0.477890 -0.242180
0.135612 0.503079 0.285890
0.139160 0.504443 0.291650
0.119386 0.503360 0.287409
0.098292 0.523371 0.176953
-0.103246 0.508499 0.245670
0.265907 0.483666 0.216872
0.399419 0.461511 0.166746
0.472431 0.446700 0.152594
0.522938 0.451256 0.152419
0.605884 0.467760 0.109372
0.656400 0.468179 -0.081275
0.690290 0.469733 -0.125488
0.734909 0.473806 -0.157259
0.790870 0.482031 -0.182937
0.859497 0.496723 -0.203018
0.989091 0.525434 -0.246194
0.136645 0.575530 0.299603
0.138837 0.579346 0.302452
0.119641 0.574030 0.297803
0.108106 0.592854 0.267155
0.147967 0.583439 0.215593
-0.195147 0.568218 0.262469
0.373782 0.534289 0.191461
0.469570 0.519599 0.158420
0.544078 0.502665 0.150755
0.597910 0.508221 0.148956
0.650420 0.512016 0.113559
0.683440 0.512889 0.031103
0.728202 0.515002 -0.123026
0.784427 0.523257 -0.167294
0.855242 0.541524 -0.197076
0.984769 0.573567 -0.246343
0.136601 0.613547 0.303653
0.139017 0.616704 0.306755
0.119672 0.614093 0.293587
0.107999 0.616583 0.286653
0.111851 0.627142 0.159641
-0.054681 0.614986 0.251423
0.156488 0.599352 0.248784
0.435664 0.575815 0.166348
0.528478 0.562450 0.153061
0.601052 0.545536 0.149115
0.649391 0.550136 0.146796
0.678050 0.552124 0.133353
0.721872 0.556061 0.072663
0.777796 0.566942 -0.118659
0.848027 0.586681 -0.167406
0.979472 0.621626 -0.238186
0.136605 0.654091 0.309096
0.139243 0.654665 0.311806
0.119752 0.653558 0.294978
0.109604 0.653171 0.297860
0.102400 0.667814 0.243078
0.134446 0.661442 0.050145
-0.214838 0.646607 0.241685
0.366237 0.627413 0.172727
0.496004 0.615761 0.150768
0.591845 0.607662 0.149052
0.659472 0.593192 0.146661
0.675907 0.590435 0.146498
0.718013 0.599549 0.145829
0.771618 0.609455 0.106371
0.841553 0.628356 -0.100520
0.972575 0.668238 -0.210008
0.136622 0.705414 0.315967
0.139514 0.705488 0.318563
0.119637 0.705423 0.299746
0.109657 0.702711 0.300670
0.102320 0.712401 0.272894
0.137900 0.714838 0.182390
0.114623 0.702499 0.254136
-0.116211 0.691401 0.213532
0.452316 0.665789 0.149398
0.556662 0.656875 0.147004
0.659851 0.652040 0.147217
0.688637 0.633354 0.146443
0.711590 0.627830 0.148014
0.767949 0.647177 0.151247
0.836566 0.670776 0.130145
0.964792 0.716974 -0.141386
0.136627 0.745195 0.321838
0.139707 0.745137 0.324620
0.119048 0.745234 0.305166
0.109111 0.744851 0.304903
0.104213 0.743470 0.285825
0.095526 0.744694 0.210841
0.178661 0.745544 0.167221
-0.233238 0.750267 0.201912
0.382785 0.731838 0.155892
0.531160 0.719303 0.146544
0.633897 0.710310 0.147793
0.714810 0.710105 0.146842
0.732755 0.689084 0.150796
0.757235 0.680181 0.156816
0.832193 0.712081 0.167780
0.959097 0.760424 0.119427
0.132481 0.753038 0.307457
0.135110 0.753033 0.310743
0.109809 0.753114 0.290386
0.096614 0.753203 0.283734
0.094142 0.753549 0.270473
0.096450 0.753616 0.230791
0.177325 0.754175 0.169168
0.107989 0.754845 0.188379
-0.087619 0.764033 0.185901
0.504555 0.788534 0.149032
0.612893 0.781474 0.151583
0.723048 0.772290 0.152983
0.764198 0.770080 0.151943
0.793873 0.748550 0.158663
0.815948 0.734614 0.163776
0.953526 0.804418 0.180446
0.149341 1.125677 0.416450
0.149825 1.125642 0.417287
0.152895 1.125525 0.412980
0.153241 1.125415 0.406880
0.145035 1.125198 0.384546
0.101868 1.125521 0.361257
-0.135725 1.126148 0.296374
-0.266116 1.125289 0.208492
-0.421450 1.124892 0.261889
0.373839 1.070411 0.191788
0.588176 1.028489 0.184999
0.731180 1.025168 0.189160
0.850480 1.025758 0.192730
0.881131 1.020148 0.192984
0.911608 1.000345 0.222566
0.954385 0.989137 0.241460
0.215290 -0.591362 0.149360
0.212321 -0.591126 0.145449
0.194197 -0.588795 0.122484
0.192612 -0.583544 0.154792
0.221292 -0.579136 0.180390
0.273444 -0.579057 0.189599
0.383647 -0.595823 0.235435
0.499110 -0.598007 0.255850
0.613423 -0.594564 0.247852
0.697744 -0.590532 0.237636
0.727807 -0.584208 0.238311
0.731264 -0.583118 0.232929
0.754187 -0.582043 0.224004
0.803899 -0.577904 0.211832
0.879693 -0.572709 0.192689
1.014577 -0.574413 0.143296
0.146705 0.149679 0.154152
0.146683 0.149690 0.154330
0.146497 0.146847 0.153748
0.159208 0.146582 0.153950
0.200535 0.144722 0.154206
0.253010 0.141268 0.147183
0.314866 0.139304 0.136088
0.414723 0.146509 0.121570
0.533482 0.158871 0.089844
0.638110 0.162515 -0.046644
0.687395 0.165476 -0.086089
0.715478 0.167497 -0.103083
0.757399 0.163141 -0.122971
0.810611 0.156485 -0.143430
0.878384 0.138294 -0.164491
1.005966 0.078057 -0.202693
0.138839 0.153559 0.168106
0.136266 0.155075 0.174840
0.134921 0.152077 0.168422
0.158574 0.151041 0.149765
0.194022 0.152211 0.146163
0.242306 0.152820 0.141819
0.297672 0.159154 0.135790
0.404283 0.176169 0.119050
0.520591 0.195095 0.085822
0.623258 0.206287 -0.053650
0.684776 0.213845 -0.097010
0.713768 0.216119 -0.113737
0.755833 0.219459 -0.132510
0.808701 0.220150 -0.151475
0.876942 0.221656 -0.171711
1.004654 0.210190 -0.209659
0.114379 0.174331 0.212494
0.106428 0.176765 0.214011
0.091087 0.176960 0.211586
0.160960 0.166662 0.148274
0.195794 0.177483 0.146997
0.246627 0.183805 0.138936
0.328674 0.200037 0.127692
0.447215 0.225661 0.101910
0.551499 0.248596 0.053135
0.642487 0.256554 -0.086387
0.680931 0.260224 -0.110475
0.711718 0.260965 -0.124692
0.753919 0.263207 -0.140974
0.807487 0.266064 -0.158766
0.875330 0.270077 -0.178202
1.002848 0.270106 -0.215768
0.110980 0.204682 0.225821
0.104722 0.204531 0.220906
0.085793 0.213518 0.212903
0.144658 0.196094 0.167449
0.187519 0.194158 0.146888
0.244729 0.217916 0.146425
0.324475 0.237078 0.130326
0.438601 0.264138 0.099357
0.539331 0.285530 0.051575
0.632251 0.294776 -0.096297
0.677506 0.299243 -0.119739
0.708732 0.302218 -0.133249
0.751680 0.304403 -0.148898
0.804915 0.309404 -0.166313
0.873813 0.316346 -0.184976
1.001619 0.322428 -0.222430
0.108054 0.209595 0.220589
0.104877 0.202202 0.211649
0.093085 0.219573 0.204056
0.060352 0.216424 0.195629
0.198066 0.222432 0.146439
0.231839 0.231350 0.146388
0.324304 0.273714 0.144944
0.434534 0.304894 0.110336
0.529887 0.323288 0.051542
0.621157 0.332348 -0.100686
0.673777 0.338082 -0.127035
0.706030 0.341151 -0.140722
0.748532 0.347067 -0.156521
0.802216 0.352761 -0.173569
0.870954 0.363504 -0.191518
0.999061 0.376173 -0.229348
0.126917 0.303781 0.267104
0.118801 0.293523 0.253087
0.107870 0.344767 0.234575
0.102684 0.330456 0.263059
0.218580 0.313551 0.150907
0.290682 0.300691 0.146345
0.350435 0.319106 0.146869
0.459085 0.361900 0.137607
0.545285 0.375362 0.062408
0.628617 0.380560 -0.111493
0.668467 0.383067 -0.132510
0.701614 0.385525 -0.146843
0.744732 0.388933 -0.162406
0.798789 0.397901 -0.179861
0.868370 0.407833 -0.197342
0.996355 0.427804 -0.236463
0.134451 0.415244 0.289271
0.129083 0.410908 0.272862
0.122827 0.436500 0.278198
0.143610 0.435769 0.213479
-0.089262 0.418628 0.262079
0.315664 0.390815 0.158960
0.385019 0.379885 0.150424
0.442627 0.389093 0.151565
0.533428 0.418180 0.128557
0.617570 0.423033 -0.080264
0.662663 0.424397 -0.126488
0.697138 0.425580 -0.146868
0.740959 0.429689 -0.165057
0.795419 0.437563 -0.183585
0.864433 0.451871 -0.202023
0.993433 0.476976 -0.241921
0.132480 0.505322 0.294370
0.136401 0.502732 0.284670
0.121670 0.502096 0.293867
0.097675 0.525633 0.196391
-0.088030 0.510418 0.241612
0.254232 0.485606 0.221458
0.398199 0.462001 0.166570
0.472278 0.446931 0.151824
0.523512 0.451192 0.151644
0.606201 0.467565 0.107934
0.656532 0.467997 -0.082552
0.690947 0.469231 -0.126544
0.735202 0.472937 -0.157639
0.790614 0.481447 -0.182562
0.860632 0.495880 -0.202787
0.989350 0.524761 -0.245857
0.131490 0.577435 0.307170
0.150269 0.575957 0.308606
0.121046 0.575727 0.299766
0.108470 0.590620 0.275662
0.150858 0.584966 0.213446
-0.173485 0.561687 0.238556
0.370409 0.535002 0.191611
0.468776 0.519912 0.157573
0.544011 0.502781 0.150193
0.597970 0.508034 0.148484
0.650722 0.511872 0.112724
0.683683 0.512673 0.026840
0.728958 0.514343 -0.124317
0.785098 0.522862 -0.167556
0.854990 0.541098 -0.196396
0.985078 0.572914 -0.246050
0.131001 0.613374 0.311671
0.149466 0.614268 0.312343
0.120660 0.616297 0.295706
0.108656 0.614745 0.292469
0.103423 0.628338 0.162852
0.032995 0.615961 0.249898
0.112370 0.601507 0.254802
0.433532 0.576021 0.165865
0.527900 0.562527 0.152383
0.600635 0.545642 0.148697
0.649532 0.550156 0.146595
0.678095 0.552031 0.133256
0.722140 0.556054 0.072586
0.777530 0.566649 -0.118159
0.848637 0.586550 -0.167266
0.979342 0.621196 -0.237822
0.131012 0.655722 0.317920
0.149438 0.654694 0.316812
0.120850 0.654389 0.297951
0.110166 0.652207 0.300370
0.102959 0.667822 0.251749
0.136468 0.661775 0.021562
-0.207688 0.646886 0.241274
0.361205 0.627902 0.172952
0.494904 0.616118 0.150294
0.591511 0.607850 0.148625
0.659216 0.593177 0.146530
0.676075 0.590462 0.146639
0.717857 0.599455 0.146211
0.771992 0.609162 0.106132
0.841506 0.628333 -0.098944
0.972854 0.668001 -0.209873
0.130857 0.705019 0.325033
0.149437 0.705284 0.323233
0.120785 0.705400 0.302742
0.110091 0.703001 0.302501
0.102978 0.711905 0.278013
0.128752 0.714808 0.173911
0.122103 0.703172 0.252491
-0.162244 0.693260 0.218239
0.450702 0.666096 0.149032
0.555698 0.657026 0.146817
0.659451 0.652020 0.146997
0.688749 0.633374 0.146547
0.711767 0.627949 0.148365
0.767534 0.646977 0.151856
0.836655 0.670642 0.130989
0.965106 0.716672 -0.141398
0.130602 0.745232 0.332043
0.149465 0.745347 0.328382
0.120370 0.745492 0.308633
0.109522 0.744886 0.306485
0.104504 0.743587 0.290278
0.095846 0.745049 0.218870
0.180389 0.744831 0.166157
-0.226788 0.750071 0.201987
0.379008 0.732400 0.156282
0.529914 0.719508 0.146671
0.633175 0.710548 0.148104
0.715046 0.710073 0.147038
0.732581 0.689065 0.151297
0.757326 0.680224 0.157540
0.832362 0.712080 0.168655
0.959380 0.760455 0.120820
0.125439 0.753118 0.316422
0.145944 0.753067 0.312789
0.112199 0.752993 0.294483
0.097344 0.753345 0.285490
0.094109 0.753263 0.274251
0.097329 0.753815 0.237929
0.172263 0.754327 0.165560
0.120502 0.754878 0.188123
-0.150720 0.762953 0.191903
0.502798 0.788837 0.149367
0.612133 0.781377 0.152065
0.722702 0.772304 0.153524
0.764116 0.769969 0.152450
0.793921 0.748765 0.159394
0.815920 0.734721 0.164658
0.953597 0.804240 0.181202
0.154823 1.125521 0.440332
0.151871 1.125670 0.410597
0.153256 1.125671 0.412473
0.153037 1.125737 0.405776
0.144767 1.125903 0.384105
0.105306 1.126038 0.361197
-0.140411 1.125818 0.290745
-0.268643 1.125101 0.194995
-0.429915 1.124681 0.249261
0.368686 1.070924 0.186262
0.585981 1.028608 0.181151
0.730517 1.025149 0.185682
0.849694 1.025670 0.188724
0.880612 1.020376 0.187880
0.911569 1.000129 0.217837
0.954447 0.989220 0.237126
0.192612 -0.589068 0.130466
0.192612 -0.589000 0.138800
0.192612 -0.588975 0.150499
0.192612 -0.587818 0.159556
0.218584 -0.589513 0.157412
0.275864 -0.590104 0.171611
0.361358 -0.591474 0.219956
0.501992 -0.595734 0.263547
0.618344 -0.595475 0.259956
0.700158 -0.593488 0.244673
0.728668 -0.590073 0.234771
0.731855 -0.586509 0.232503
0.754720 -0.582898 0.231905
0.804126 -0.577125 0.228102
0.879800 -0.570271 0.222262
1.014643 -0.573705 0.183438
0.147102 0.153437 0.166513
0.147166 0.153909 0.166623
0.146336 0.147832 0.167613
0.159762 0.146659 0.167585
0.191864 0.146358 0.170381
0.243841 0.144357 0.172015
0.305485 0.137981 0.165097
0.419258 0.134336 0.134330
0.533958 0.147358 0.101613
0.633695 0.155846 -0.012532
0.684839 0.167958 -0.086560
0.713765 0.172759 -0.099817
0.756052 0.171256 -0.112936
0.809105 0.166315 -0.125890
0.877029 0.158445 -0.135881
1.004774 0.111219 -0.180490
0.149290 0.157361 0.164041
0.149155 0.157186 0.164899
0.146329 0.154493 0.166309
0.156173 0.150705 0.163652
0.188204 0.149633 0.162592
0.248632 0.143104 0.156320
0.316959 0.138809 0.140282
0.431587 0.152629 0.117906
0.542268 0.169970 0.081620
0.643022 0.175333 -0.059548
0.690301 0.179465 -0.091450
0.720845 0.174257 -0.108583
0.762492 0.169147 -0.126234
0.814924 0.159375 -0.145360
0.883497 0.141631 -0.166660
1.009995 0.080083 -0.204237
0.120096 0.166188 0.200115
0.124116 0.167172 0.199255
0.107166 0.179673 0.225158
0.115996 0.173718 0.207736
0.193940 0.172650 0.156002
0.253573 0.178428 0.145813
0.339933 0.191586 0.131499
0.462644 0.217029 0.098760
0.563312 0.236176 0.025678
0.652279 0.245424 -0.094337
0.683432 0.248075 -0.110902
0.716209 0.249892 -0.124429
0.758178 0.251701 -0.139514
0.811069 0.254400 -0.156227
0.878927 0.256750 -0.174637
1.006178 0.251418 -0.212927
0.112027 0.200755 0.236139
0.115122 0.199497 0.239990
0.098782 0.212404 0.233192
0.077641 0.210484 0.199695
0.189602 0.195616 0.152932
0.246945 0.214769 0.149590
0.331794 0.232963 0.129297
0.449102 0.258197 0.094099
0.549942 0.277210 -0.032455
0.640247 0.286453 -0.101726
0.679857 0.291737 -0.120813
0.712749 0.295134 -0.133874
0.755488 0.296749 -0.148267
0.808733 0.300723 -0.164297
0.876638 0.306837 -0.181721
1.004465 0.310921 -0.220423
0.127572 0.202568 0.248735
0.130204 0.197982 0.251175
0.101405 0.212826 0.222916
-0.060908 0.229339 0.208985
0.193915 0.224746 0.149257
0.235559 0.233462 0.149326
0.328746 0.273328 0.144243
0.439624 0.301839 0.102215
0.537831 0.319732 -0.028895
0.629581 0.328202 -0.107953
0.675784 0.332316 -0.128640
0.708926 0.335871 -0.141467
0.751736 0.341355 -0.156269
0.805295 0.347089 -0.172298
0.874509 0.356175 -0.188935
1.002020 0.367247 -0.227386
0.132898 0.305617 0.288873
0.135505 0.304682 0.293964
0.131337 0.306970 0.277645
0.128386 0.350661 0.250599
0.168522 0.320259 0.165771
0.287829 0.303193 0.147440
0.351978 0.320052 0.146571
0.461364 0.359848 0.129171
0.548222 0.373495 0.042291
0.632289 0.377141 -0.116150
0.669951 0.380551 -0.134102
0.704442 0.381310 -0.147455
0.747598 0.385118 -0.161964
0.801681 0.392742 -0.178226
0.870568 0.403785 -0.194918
0.998684 0.421738 -0.234460
0.132464 0.413350 0.306405
0.132894 0.415004 0.310333
0.146597 0.411758 0.303527
0.091429 0.454289 0.215083
-0.137815 0.424311 0.242931
0.304115 0.395587 0.153998
0.385198 0.380111 0.147350
0.443713 0.390661 0.148663
0.534893 0.417174 0.123352
0.620564 0.421212 -0.090338
0.664031 0.422162 -0.129332
0.699154 0.422767 -0.148076
0.743040 0.427228 -0.165045
0.797465 0.433921 -0.182536
0.866751 0.447997 -0.199591
0.995344 0.472948 -0.240375
0.132834 0.503012 0.315780
0.132267 0.504420 0.319486
0.145883 0.506030 0.299008
0.112727 0.526836 0.279774
0.077300 0.519790 0.207335
0.178039 0.495247 0.242659
0.392982 0.464964 0.166682
0.471964 0.448031 0.149176
0.525163 0.450956 0.148955
0.607418 0.466629 0.102389
0.657353 0.466462 -0.087984
0.692362 0.467282 -0.129046
0.737172 0.470237 -0.158491
0.792555 0.479361 -0.181700
0.861979 0.493350 -0.200448
0.991248 0.521692 -0.244513
0.133068 0.578332 0.321865
0.131948 0.578230 0.327147
0.150078 0.578215 0.310322
0.106213 0.577370 0.303880
0.157060 0.590775 0.226413
-0.181289 0.563376 0.229951
0.351375 0.538437 0.197850
0.465111 0.520718 0.154896
0.543826 0.504115 0.148408
0.598708 0.507699 0.146965
0.651213 0.511518 0.111046
0.684465 0.512005 0.006115
0.730203 0.512498 -0.126353
0.786387 0.521800 -0.167173
0.856957 0.538354 -0.195177
0.986235 0.570751 -0.244708
0.133087 0.615620 0.329245
0.131700 0.615453 0.334741
0.149792 0.617496 0.310723
0.108021 0.610031 0.309593
0.103455 0.631638 0.237683
0.106168 0.619958 0.227702
-0.178792 0.608854 0.270861
0.425282 0.577008 0.163527
0.524530 0.563891 0.149873
0.599999 0.546615 0.147304
0.649891 0.549986 0.146191
0.679127 0.551856 0.132738
0.722931 0.555587 0.072291
0.778703 0.565963 -0.118137
0.850081 0.584508 -0.166578
0.980796 0.619927 -0.236947
0.133103 0.655789 0.334439
0.131548 0.656428 0.340885
0.149779 0.656738 0.313493
0.110107 0.651055 0.305893
0.103093 0.667283 0.284039
0.138437 0.663838 -0.026297
-0.175299 0.647943 0.238013
0.337017 0.630646 0.175599
0.490187 0.617557 0.148586
0.588792 0.608169 0.147223
0.660082 0.593766 0.146318
0.676166 0.590419 0.147599
0.718043 0.599181 0.147961
0.772471 0.608515 0.108265
0.842257 0.627392 -0.095866
0.973654 0.666940 -0.208901
0.132978 0.705575 0.341702
0.131344 0.704913 0.348562
0.149695 0.706154 0.318235
0.110203 0.704226 0.306175
0.104573 0.708715 0.298025
0.100680 0.715488 0.177351
0.144929 0.706291 0.241767
-0.228477 0.696905 0.229763
0.441736 0.667121 0.147723
0.551966 0.657189 0.146366
0.657415 0.652084 0.146398
0.689035 0.633755 0.147302
0.712098 0.628143 0.150193
0.768173 0.647063 0.154357
0.836959 0.670045 0.134247
0.965573 0.715974 -0.139000
0.132768 0.744901 0.346743
0.131044 0.745053 0.357188
0.149604 0.746439 0.321155
0.109718 0.745890 0.310650
0.105181 0.744524 0.306365
0.096753 0.745291 0.252345
0.183744 0.745065 0.163067
-0.198770 0.749337 0.200363
0.358283 0.734018 0.157745
0.525493 0.720590 0.147497
0.630586 0.711736 0.149742
0.715783 0.710542 0.148176
0.732915 0.689199 0.153524
0.757468 0.680413 0.160866
0.832674 0.712098 0.172566
0.960307 0.759732 0.122005
0.126849 0.753108 0.342424
0.125803 0.752815 0.354971
0.145973 0.753072 0.296029
0.100257 0.752764 0.294555
0.094621 0.753060 0.289413
0.098933 0.753282 0.253227
0.150816 0.753178 0.159629
0.158814 0.754424 0.198323
-0.223546 0.760543 0.242844
0.495264 0.788797 0.150631
0.607538 0.782400 0.153889
0.719681 0.772970 0.155705
0.764369 0.770906 0.154727
0.793496 0.748848 0.162491
0.816242 0.734918 0.168356
0.953659 0.804117 0.184900
0.156548 1.125371 0.484444
0.156127 1.125453 0.483494
0.149863 1.126337 0.399659
0.150346 1.126098 0.408590
0.141673 1.126135 0.389230
0.105221 1.126234 0.363137
-0.140886 1.126061 0.299434
-0.261523 1.125190 0.176723
-0.447885 1.125108 0.227354
0.343989 1.074492 0.177199
0.579399 1.030067 0.177301
0.725465 1.025513 0.182051
0.848361 1.025700 0.184708
0.880215 1.021121 0.183072
0.910755 1.000321 0.214542
0.954842 0.989549 0.234393
0.192612 -0.588085 0.140269
0.192612 -0.588197 0.175104
0.175644 -0.589099 0.192612
0.192612 -0.586599 0.189948
0.215109 -0.585162 0.194343
0.270491 -0.583522 0.213627
0.341788 -0.580118 0.231402
0.485447 -0.582093 0.272633
0.617845 -0.587231 0.289956
0.702747 -0.588513 0.281996
0.728719 -0.586762 0.272624
0.732077 -0.583596 0.268416
0.754771 -0.580198 0.262894
0.804086 -0.573915 0.259225
0.879019 -0.563563 0.267203
1.014325 -0.565754 0.243853
0.147831 0.160245 0.192812
0.147702 0.160281 0.193059
0.147559 0.159453 0.193381
0.160077 0.146414 0.197560
0.190810 0.146437 0.195824
0.236472 0.146334 0.199157
0.299176 0.143679 0.196831
0.425309 0.129053 0.176285
0.539136 0.129903 0.145096
0.636685 0.135648 0.115991
0.684813 0.146086 0.084441
0.714585 0.154647 0.056095
0.756324 0.157893 -0.066851
0.809503 0.157610 -0.089588
0.877260 0.152379 -0.080342
1.004884 0.107965 -0.146162
0.152201 0.168158 0.189974
0.152383 0.168321 0.189574
0.149102 0.166440 0.192656
0.153282 0.149824 0.195430
0.186737 0.149606 0.192517
0.232938 0.147491 0.194492
0.310869 0.142812 0.188862
0.437252 0.138394 0.161841
0.548108 0.150646 0.133140
0.645752 0.158069 0.085345
0.687220 0.165642 0.030504
0.717928 0.174548 -0.071715
0.759521 0.176095 -0.096868
0.812697 0.174969 -0.103683
0.880238 0.171784 -0.105854
1.007277 0.127762 -0.160765
0.149926 0.178781 0.196297
0.150780 0.179268 0.196441
0.145478 0.176280 0.194389
0.152834 0.173325 0.195493
0.184573 0.168971 0.191327
0.252321 0.168332 0.184143
0.363760 0.171485 0.160624
0.472355 0.183422 0.124744
0.561219 0.189559 0.080157
0.656970 0.195878 -0.080149
0.695953 0.203367 -0.104988
0.728947 0.201530 -0.118358
0.770587 0.195590 -0.132545
0.823446 0.184591 -0.148921
0.891046 0.163264 -0.168052
1.017081 0.105916 -0.206494
0.111970 0.196328 0.238036
0.114605 0.192505 0.232421
0.116028 0.186277 0.223388
0.121042 0.223037 0.275561
0.191053 0.198882 0.177900
0.249738 0.210136 0.172803
0.343322 0.224392 0.150380
0.470225 0.248526 0.111683
0.571906 0.263410 0.024453
0.659601 0.270841 -0.103358
0.686010 0.276267 -0.116985
0.720374 0.280068 -0.128616
0.762712 0.282138 -0.141399
0.816178 0.285242 -0.156843
0.883979 0.287575 -0.173943
1.010494 0.285551 -0.214464
0.104354 0.175695 0.227954
0.113586 0.173375 0.223721
0.141637 0.187549 0.247517
0.087064 0.238583 0.267674
0.111100 0.233345 0.181688
0.242657 0.234234 0.166297
0.336823 0.270801 0.153275
0.452857 0.295857 0.104624
0.550416 0.310209 -0.042248
0.642229 0.318462 -0.111817
0.680071 0.321872 -0.126595
0.715496 0.324484 -0.137949
0.758659 0.327767 -0.151047
0.811945 0.335862 -0.165962
0.880758 0.343406 -0.181219
1.007713 0.349704 -0.222633
0.149810 0.292917 0.332364
0.148864 0.289962 0.332788
0.149379 0.306565 0.325687
0.146478 0.329784 0.316617
-0.132678 0.357612 0.221668
0.281718 0.308186 0.158961
0.356876 0.320604 0.155825
0.466012 0.356973 0.125027
0.556494 0.368267 -0.050816
0.640686 0.371699 -0.120263
0.673642 0.372927 -0.132899
0.709812 0.373549 -0.144726
