PS/3DLUTs/rooking-richard.3dl
#Created by: Generate3DLut
#Generator: Copyright 2012 by Linus Hechinger
0 64 128 192 256 320 384 448 512 575 639 703 767 831 895 959 1023
193  193  177
209  209  190
225  225  203
225  225  216
225  225  213
241  241  225
289  289  271
289  289  273
305  305  297
321  321  316
385  385  357
434  434  416
450  450  426
434  434  411
482  482  446
498  498  482
562  562  546
209  212  193
225  225  209
225  225  215
225  228  225
241  244  237
257  260  272
289  292  277
305  314  315
353  356  345
369  372  364
401  407  414
450  456  436
530  530  514
546  549  537
562  574  576
610  625  646
658  658  626
209  215  193
225  225  209
225  231  215
241  247  234
257  263  265
273  285  288
305  311  291
321  333  315
385  385  369
401  401  396
450  450  434
482  500  469
514  526  506
562  574  553
610  628  614
642  666  662
803  787  771
225  225  209
225  234  225
225  243  231
257  266  259
257  275  269
289  298  288
305  332  309
353  371  347
385  385  385
401  429  424
450  486  490
498  543  487
578  569  558
594  639  606
674  702  672
723  777  782
835  819  803
225  237  225
241  253  231
257  281  263
273  285  273
289  313  297
321  333  320
353  377  341
385  422  395
401  438  418
434  470  451
514  514  498
530  578  518
594  642  578
626  699  636
723  747  711
787  843  833
931  915  899
257  272  241
273  303  276
273  303  285
305  305  298
305  335  313
337  382  366
385  400  373
418  448  412
450  465  442
482  542  510
546  561  544
594  669  567
642  718  630
723  768  719
771  831  789
883  958  916
980  964  931
305  305  289
305  307  305
321  325  317
353  357  355
385  385  381
385  387  385
401  405  389
450  452  439
482  488  490
530  536  547
578  586  604
691  697  661
771  773  747
787  777  776
867  859  875
931  927  978
1092  1076  1028
305  315  305
353  363  346
385  390  381
385  400  396
401  417  426
450  450  434
450  475  444
466  491  475
546  561  554
594  604  589
642  662  666
723  738  695
787  806  783
867  901  905
996  995  994
1028  1062  1100
1220  1204  1172
385  393  369
385  410  391
418  434  414
434  450  436
450  474  470
466  490  495
530  554  520
546  570  540
578  602  578
658  674  648
723  755  761
803  835  777
899  891  871
980  988  960
1108  1124  1084
1188  1228  1228
1413  1381  1349
418  440  401
434  456  424
466  477  456
530  541  523
546  546  530
546  557  545
578  622  568
610  643  604
642  698  650
723  778  757
787  826  825
851  923  826
980  1019  951
1028  1133  1066
1172  1278  1228
1349  1344  1314
1477  1461  1413
482  524  466
514  528  501
546  574  542
562  604  573
594  636  602
626  654  624
642  699  618
723  751  701
755  797  755
803  829  804
899  925  909
1012  1108  987
1076  1156  1040
1172  1283  1178
1253  1363  1295
1413  1508  1466
1686  1654  1622
562  565  546
594  596  568
642  644  622
658  662  662
691  694  695
723  726  751
771  774  747
819  808  812
915  904  923
931  920  954
1028  1016  1024
1124  1116  1084
1220  1214  1212
1413  1386  1377
1461  1461  1552
1590  1556  1666
1831  1799  1750
642  658  610
674  687  651
723  735  709
755  767  759
771  787  799
835  831  848
851  855  829
931  947  934
996  1004  996
1012  1028  1057
1124  1136  1174
1285  1285  1228
1413  1417  1385
1542  1558  1550
1702  1714  1664
1879  1871  1809
2039  2023  1943
723  758  691
771  806  757
819  838  817
835  854  848
883  888  887
947  967  991
1012  1031  986
1028  1026  1001
1108  1127  1084
1156  1194  1202
1253  1279  1289
1413  1423  1355
1590  1612  1546
1622  1676  1612
1831  1883  1851
2007  2033  2002
2168  2168  2120
803  837  771
867  901  850
867  921  871
980  994  968
996  1050  1024
1044  1078  1072
1092  1146  1044
1156  1184  1122
1220  1224  1188
1301  1395  1363
1381  1445  1459
1510  1584  1485
1638  1712  1618
1799  1873  1798
1975  2048  1979
2152  2236  2186
2312  2312  2248
931  954  899
996  1006  970
1012  1074  1004
1076  1109  1057
1124  1147  1100
1124  1199  1181
1204  1267  1168
1301  1350  1278
1349  1372  1325
1413  1498  1448
1510  1663  1632
1654  1768  1615
1783  1897  1746
1975  2084  1949
2056  2261  2152
2200  2370  2292
2473  2473  2425
1237  1220  1188
1317  1301  1269
1365  1349  1317
1413  1381  1349
1445  1413  1365
1510  1493  1477
1654  1638  1606
1702  1702  1654
1799  1783  1734
1927  1911  1863
2120  2088  2023
2152  2136  2056
2248  2248  2168
2409  2409  2329
2537  2537  2457
2585  2585  2489
2746  2746  2650
180  177  177
180  177  177
199  193  189
212  209  202
225  225  221
231  225  239
237  225  231
266  257  256
282  273  289
298  289  306
320  305  359
336  321  311
365  353  353
397  385  397
406  385  446
429  401  506
401  401  401
212  212  193
225  225  212
228  228  225
244  244  243
260  260  269
279  279  288
308  308  291
314  314  315
356  356  345
394  394  402
414  414  444
478  478  454
510  510  498
555  555  551
603  603  598
651  651  649
723  723  691
225  225  209
228  231  212
257  257  241
260  263  259
276  279  273
292  295  288
337  337  321
375  381  363
388  391  393
424  430  424
469  472  464
507  516  485
555  564  538
600  606  576
641  656  644
719  731  727
819  803  787
228  234  209
244  250  228
260  266  253
266  284  275
292  298  297
317  341  350
359  371  341
391  403  390
404  411  401
443  461  451
494  518  522
555  573  532
600  612  570
667  686  647
729  741  711
799  807  807
899  883  867
244  253  225
263  281  260
279  297  285
292  301  291
311  329  313
359  377  367
391  410  373
411  438  412
453  462  442
491  518  499
533  542  528
581  590  563
657  703  630
729  747  705
786  819  789
856  903  894
1012  996  980
263  287  257
295  319  279
311  335  311
327  351  323
346  382  357
375  399  383
407  432  403
437  449  423
465  525  474
549  561  541
581  593  576
654  703  614
693  765  666
773  830  765
866  910  869
936  1005  975
1044  1028  1012
311  309  305
346  343  330
372  371  359
375  373  371
397  393  422
411  407  432
456  454  438
494  490  486
539  536  538
603  600  595
641  636  664
735  729  695
805  783  779
850  829  838
963  941  966
1058  1032  1100
1237  1220  1188
346  352  321
375  379  362
407  412  407
437  439  427
453  455  446
462  470  494
510  518  490
539  545  529
606  614  594
641  651  649
700  706  701
799  791  759
878  880  855
949  945  941
1097  1084  1082
1174  1159  1183
1365  1349  1317
407  418  385
440  450  424
456  466  446
491  506  493
507  522  518
526  546  558
568  578  548
606  626  593
644  674  642
687  707  687
812  811  813
856  875  810
949  964  923
1055  1084  1045
1174  1180  1162
1261  1285  1293
1461  1445  1381
456  472  434
504  520  488
529  569  522
542  574  541
561  601  578
593  633  622
664  680  630
697  713  668
732  756  715
783  804  783
908  916  909
989  997  935
1076  1044  1012
1145  1185  1125
1270  1331  1289
1431  1458  1453
1606  1590  1526
523  556  498
561  616  542
587  620  574
619  652  612
664  687  650
684  717  688
709  761  670
751  781  727
844  861  827
866  905  874
1002  1008  992
1116  1188  1037
1218  1313  1168
1309  1365  1277
1392  1475  1417
1611  1682  1627
1750  1734  1670
603  597  578
654  646  622
670  662  650
738  727  736
735  726  739
809  789  801
847  823  811
930  904  908
989  967  964
1033  1003  1046
1120  1096  1100
1248  1213  1181
1398  1360  1361
1534  1502  1527
1661  1618  1672
1810  1776  1833
2007  1991  1911
713  715  674
751  751  719
786  787  769
815  803  807
886  871  863
917  907  958
923  915  883
1001  992  962
1065  1052  1052
1187  1176  1174
1270  1261  1329
1347  1341  1278
1557  1546  1506
1661  1654  1633
1788  1779  1740
1935  1927  1919
2136  2120  2039
760  781  707
873  865  841
905  897  879
943  943  935
972  981  988
1011  1008  1009
1091  1079  1022
1132  1148  1089
1222  1231  1204
1264  1284  1288
1353  1385  1451
1521  1541  1454
1681  1701  1638
1849  1848  1800
2034  2055  2001
2160  2183  2170
2296  2296  2216
901  927  851
933  960  901
966  992  951
1040  1052  1014
1085  1084  1060
1100  1134  1147
1200  1212  1134
1310  1315  1268
1322  1345  1301
1399  1425  1388
1534  1574  1576
1652  1706  1552
1810  1857  1742
2026  2017  1934
2148  2170  2100
2242  2341  2305
2441  2441  2361
959  1020  899
1026  1097  988
1107  1141  1058
1113  1167  1100
1206  1238  1196
1245  1309  1293
1318  1409  1241
1422  1433  1359
1452  1564  1445
1596  1594  1532
1652  1736  1682
1793  1891  1683
1927  2072  1847
2179  2266  2126
2279  2330  2260
2394  2504  2430
2553  2553  2473
1301  1285  1253
1381  1365  1333
1445  1413  1365
1493  1477  1445
1590  1542  1510
1622  1606  1542
1766  1750  1670
1799  1783  1734
1879  1863  1783
2007  1991  1911
2152  2152  2088
2296  2296  2216
2312  2312  2248
2441  2441  2361
2569  2569  2473
2650  2650  2569
2778  2778  2714
183  177  177
195  177  183
215  209  205
231  225  218
237  225  233
237  225  255
259  241  231
275  257  256
303  273  305
335  305  355
361  337  391
377  353  341
410  385  385
428  385  428
450  401  472
488  434  535
514  514  498
225  225  209
225  225  209
237  231  237
257  257  250
285  279  285
311  308  304
339  330  311
375  372  363
397  391  393
430  424  424
456  453  448
512  497  471
564  555  542
612  603  592
660  651  640
741  732  730
787  771  755
225  225  209
231  231  225
263  263  253
285  285  282
305  305  301
323  323  335
359  359  339
397  397  379
420  420  418
462  462  456
490  490  506
552  552  531
606  606  570
660  660  631
713  713  685
833  817  836
883  867  851
237  243  225
263  266  247
275  284  269
305  305  298
323  332  329
355  364  366
391  394  371
414  420  406
456  459  442
496  511  505
532  541  540
600  603  564
656  671  614
729  732  698
801  807  789
891  887  887
1028  1012  996
257  257  241
285  297  276
305  305  295
345  369  341
355  373  369
391  397  384
420  438  405
456  462  439
490  514  482
536  542  525
574  586  574
640  670  598
709  727  670
781  811  756
845  871  841
935  956  945
1044  1028  1012
279  288  273
317  335  295
349  367  333
375  384  371
371  398  385
407  417  400
446  464  422
494  512  476
542  560  530
596  623  584
624  669  634
725  752  677
775  814  731
843  863  815
966  977  945
1042  1071  1019
1172  1156  1108
323  311  305
365  357  346
391  387  381
420  407  413
430  422  426
450  450  434
506  490  474
564  552  540
608  588  594
646  622  649
709  697  701
811  779  759
879  855  843
986  931  948
1082  1030  1066
1156  1108  1161
1349  1333  1301
397  395  385
430  428  407
450  450  434
468  465  461
494  492  490
526  524  528
558  556  534
586  582  561
666  662  642
731  727  719
779  770  779
887  865  825
968  945  923
1058  1037  1017
1156  1132  1134
1321  1288  1312
1461  1445  1381
420  426  401
462  466  440
500  506  484
536  538  523
558  562  554
594  594  577
618  626  584
660  666  625
747  747  723
777  787  790
863  851  847
978  972  920
1082  1084  1024
1186  1172  1134
1305  1309  1293
1403  1405  1418
1510  1493  1477
506  526  466
542  552  520
564  579  548
600  605  587
632  637  606
654  664  640
703  713  662
747  756  711
797  821  779
871  885  869
951  966  968
1112  1121  1018
1174  1202  1088
1281  1315  1243
1449  1458  1429
1584  1603  1585
1750  1734  1670
564  588  530
606  622  581
650  682  618
662  711  648
703  719  682
723  723  691
795  813  747
855  887  817
897  921  875
992  1056  988
1064  1096  1066
1184  1235  1085
1353  1371  1289
1443  1465  1391
1564  1620  1558
1781  1791  1735
1879  1863  1783
652  617  594
731  711  687
753  727  721
791  760  777
875  839  867
871  825  893
968  921  911
1014  983  979
1058  1017  1020
1180  1129  1147
1235  1138  1289
1409  1343  1312
1528  1456  1433
1672  1601  1603
1811  1744  1760
1943  1887  1903
2136  2120  2039
793  771  707
863  843  825
885  863  853
935  907  921
951  923  956
978  951  991
1058  1032  1002
1138  1112  1069
1216  1196  1172
1267  1241  1244
1371  1337  1367
1536  1473  1381
1666  1630  1562
1867  1823  1794
1999  1955  1963
2108  2068  2123
2264  2264  2200
859  847  803
917  904  876
978  967  945
1014  1001  991
1064  1054  1056
1118  1100  1117
1186  1166  1104
1269  1261  1212
1331  1320  1293
1385  1368  1345
1491  1480  1479
1720  1708  1615
1867  1865  1754
1999  1988  1933
2170  2173  2118
2272  2276  2233
2409  2409  2329
962  966  899
1058  1062  1005
1092  1108  1048
1128  1136  1082
1180  1174  1152
1231  1243  1245
1291  1311  1206
1383  1369  1327
1441  1465  1413
1542  1558  1512
1660  1680  1652
1861  1859  1754
1999  2021  1903
2118  2164  2041
2242  2270  2206
2427  2471  2430
2553  2553  2473
1072  1126  980
1124  1161  1039
1231  1264  1172
1241  1267  1210
1313  1354  1313
1373  1372  1346
1449  1472  1365
1481  1505  1405
1590  1686  1558
1710  1765  1700
1781  1859  1795
1959  1999  1823
2098  2144  2023
2222  2285  2176
2417  2501  2397
2561  2589  2535
2682  2682  2585
1365  1349  1317
1461  1445  1381
1542  1526  1493
1606  1590  1526
1654  1638  1606
1702  1702  1654
1831  1799  1750
1911  1895  1815
2023  2007  1927
2168  2168  2120
2248  2248  2168
2345  2345  2296
2441  2441  2361
2569  2569  2473
2602  2602  2553
2746  2746  2650
2826  2826  2746
202  193  177
218  209  196
225  225  215
243  225  227
259  241  261
275  257  271
284  257  247
302  257  277
325  289  305
350  305  344
373  337  391
398  353  342
440  385  405
479  434  453
506  434  498
558  450  577
530  530  514
225  225  209
225  225  212
250  244  231
291  279  282
300  282  297
323  311  320
371  359  343
394  388  385
401  401  401
443  437  429
475  469  464
557  539  517
607  577  562
655  625  622
734  716  705
827  776  827
