PS/3DLUTs/rooking-richard.3dl
#Created by: Generate3DLut
#Generator: Copyright 2012 by Linus Hechinger
0 256 512 767 1023
193  193  177
225  225  213
305  305  297
450  450  426
562  562  546
225  237  225
289  313  297
401  438  418
594  642  578
931  915  899
385  393  369
450  474  470
578  602  578
899  891  871
1413  1381  1349
642  658  610
771  787  799
996  1004  996
1413  1417  1385
2039  2023  1943
1237  1220  1188
1445  1413  1365
1799  1783  1734
2248  2248  2168
2746  2746  2650
221  209  193
305  257  289
365  305  337
446  385  401
594  594  578
317  317  289
474  474  458
618  618  578
887  871  799
1237  1220  1188
510  490  434
727  715  695
960  907  891
1293  1253  1196
1895  1879  1799
939  907  883
1164  1100  1100
1441  1385  1357
1951  1879  1807
2473  2473  2425
1493  1477  1445
1879  1863  1783
2248  2248  2168
2585  2585  2489
2842  2842  2762
273  257  257
418  385  418
610  546  586
707  594  618
819  803  787
442  454  401
594  618  590
1092  1116  1044
1365  1405  1257
1799  1783  1734
755  755  707
1140  1124  1100
1839  1823  1766
2529  2529  2349
2955  2955  2875
1228  1180  1108
1895  1815  1863
2979  2927  2891
3292  3228  3156
3485  3485  3421
1927  1911  1863
2971  2971  2907
3517  3517  3453
3549  3533  3485
3549  3533  3485
349  337  321
562  546  578
719  674  731
1072  980  1036
1253  1237  1204
614  654  562
735  759  727
1397  1401  1349
2369  2481  2300
2971  2971  2907
1136  1148  1044
1538  1598  1598
2329  2457  2385
3573  3581  3509
3758  3742  3694
1754  1750  1654
2405  2405  2421
3437  3433  3404
3946  3946  3910
4015  4015  3983
2345  2345  2296
3131  3131  3051
3886  3870  3838
4031  4031  3999
4063  4047  4015
498  498  482
723  723  691
1092  1076  1028
1493  1477  1445
2361  2361  2312
883  867  851
996  980  964
1766  1750  1670
2907  2907  2826
3437  3437  3388
1477  1461  1413
2023  2007  1927
2923  2923  2842
3774  3758  3710
3950  3934  3902
2264  2264  2200
2842  2842  2762
3694  3677  3613
3999  3999  3967
4079  4079  4031
2585  2585  2489
3067  3067  2987
3774  3758  3710
4063  4047  4015
4079  4079  4047
