PS/3DLUTs/rooking-richard.3dl
#Created by: Generate3DLut
#Generator: Copyright 2012 by Linus Hechinger
0 128 256 384 512 639 767 895 1023
193  193  177
225  225  203
225  225  213
289  289  271
305  305  297
385  385  357
450  450  426
482  482  446
562  562  546
209  215  193
225  231  215
257  263  265
305  311  291
385  385  369
450  450  434
514  526  506
610  628  614
803  787  771
225  237  225
257  281  263
289  313  297
353  377  341
401  438  418
514  514  498
594  642  578
723  747  711
931  915  899
305  305  289
321  325  317
385  385  381
401  405  389
482  488  490
578  586  604
771  773  747
867  859  875
1092  1076  1028
385  393  369
418  434  414
450  474  470
530  554  520
578  602  578
723  755  761
899  891  871
1108  1124  1084
1413  1381  1349
482  524  466
546  574  542
594  636  602
642  699  618
755  797  755
899  925  909
1076  1156  1040
1253  1363  1295
1686  1654  1622
642  658  610
723  735  709
771  787  799
851  855  829
996  1004  996
1124  1136  1174
1413  1417  1385
1702  1714  1664
2039  2023  1943
803  837  771
867  921  871
996  1050  1024
1092  1146  1044
1220  1224  1188
1381  1445  1459
1638  1712  1618
1975  2048  1979
2312  2312  2248
1237  1220  1188
1365  1349  1317
1445  1413  1365
1654  1638  1606
1799  1783  1734
2120  2088  2023
2248  2248  2168
2537  2537  2457
2746  2746  2650
183  177  177
215  209  205
237  225  233
259  241  231
303  273  305
361  337  391
410  385  385
450  401  472
514  514  498
225  225  209
263  263  253
305  305  301
359  359  339
420  420  418
490  490  506
606  606  570
713  713  685
883  867  851
257  257  241
305  305  295
355  373  369
420  438  405
490  514  482
574  586  574
709  727  670
845  871  841
1044  1028  1012
323  311  305
391  387  381
430  422  426
506  490  474
608  588  594
709  697  701
879  855  843
1082  1030  1066
1349  1333  1301
420  426  401
500  506  484
558  562  554
618  626  584
747  747  723
863  851  847
1082  1084  1024
1305  1309  1293
1510  1493  1477
564  588  530
650  682  618
703  719  682
795  813  747
897  921  875
1064  1096  1066
1353  1371  1289
1564  1620  1558
1879  1863  1783
793  771  707
885  863  853
951  923  956
1058  1032  1002
1216  1196  1172
1371  1337  1367
1666  1630  1562
1999  1955  1963
2264  2264  2200
962  966  899
1092  1108  1048
1180  1174  1152
1291  1311  1206
1441  1465  1413
1660  1680  1652
1999  2021  1903
2242  2270  2206
2553  2553  2473
1365  1349  1317
1542  1526  1493
1654  1638  1606
1831  1799  1750
2023  2007  1927
2248  2248  2168
2441  2441  2361
2602  2602  2553
2826  2826  2746
221  209  193
253  241  237
305  257  289
337  289  281
365  305  337
389  353  393
446  385  401
546  450  514
594  594  578
237  231  225
297  285  279
389  371  385
438  420  405
486  468  458
582  564  572
755  731  691
839  805  801
1028  1012  996
317  317  289
377  377  349
474  474  458
534  534  488
618  618  578
731  731  711
887  871  799
1016  1000  972
1237  1220  1188
397  387  369
482  442  442
586  566  570
658  578  560
795  733  739
883  827  859
1100  1024  1016
1277  1146  1202
1590  1542  1510
510  490  434
614  602  574
727  715  695
835  803  763
960  907  891
1076  1044  1024
1293  1253  1196
1594  1550  1518
1895  1879  1799
658  666  594
803  797  747
964  964  931
1032  1024  885
1152  1154  1068
1333  1333  1301
1678  1688  1558
1895  1895  1815
2152  2136  2056
939  907  883
1064  1020  1002
1164  1100  1100
1293  1228  1184
1441  1385  1357
1654  1546  1632
1951  1879  1807
2296  2200  2218
2473  2473  2425
1140  1106  1028
1277  1249  1192
1457  1423  1409
1570  1536  1399
1730  1696  1606
1927  1867  1857
2296  2272  2140
2569  2553  2505
2698  2698  2602
1493  1477  1445
1750  1734  1670
1879  1863  1783
2056  2039  1991
2248  2248  2168
2345  2345  2296
2585  2585  2489
2762  2762  2682
2842  2842  2762
227  225  225
277  273  285
343  337  369
407  401  391
438  434  434
462  450  518
484  466  486
564  546  610
642  642  610
277  285  273
323  327  311
407  420  422
552  564  536
600  612  586
705  727  757
861  865  839
943  951  960
1108  1092  1044
359  389  337
440  470  436
472  502  486
670  731  638
751  799  755
825  919  911
1024  1068  996
1329  1361  1319
1686  1654  1622
490  490  466
550  550  542
668  668  687
911  895  879
1024  1008  1012
1194  1178  1277
1435  1401  1389
1698  1668  1672
1975  1927  1879
602  626  562
670  707  662
863  883  891
1102  1148  1038
1188  1220  1180
1435  1461  1489
1795  1815  1722
2060  2112  2064
2312  2312  2248
735  793  691
881  949  871
1098  1212  1156
1497  1602  1435
1562  1680  1574
1879  1863  1783
2039  2230  1983
2429  2549  2419
2585  2585  2489
958  951  915
1239  1241  1226
1518  1522  1578
1855  1851  1772
2025  2027  1983
2172  2180  2224
2503  2517  2469
2762  2778  2730
2778  2778  2714
1196  1277  1108
1504  1582  1491
1859  1949  1931
2144  2228  2052
2230  2351  2248
2403  2571  2565
2700  2772  2626
2852  2957  2887
2875  2875  2778
1750  1734  1670
2136  2120  2039
2312  2312  2248
2553  2553  2473
2553  2553  2473
2682  2682  2585
2714  2714  2634
2875  2875  2778
2875  2875  2778
273  257  257
337  305  323
418  385  418
482  418  418
610  546  586
634  546  670
707  594  618
771  642  771
819  803  787
353  345  305
361  355  345
506  500  502
691  670  612
859  831  827
972  937  994
1148  1104  1052
1333  1291  1295
1445  1413  1365
442  454  401
490  510  464
594  618  590
859  863  797
1092  1116  1044
1204  1216  1202
1365  1405  1257
1590  1642  1564
1799  1783  1734
618  600  562
691  666  650
867  791  875
1068  1010  992
1445  1317  1381
1646  1552  1648
1975  1835  1819
2433  2306  2421
2778  2778  2714
755  755  707
891  875  853
1140  1124  1100
1461  1437  1365
1839  1823  1766
2184  2176  2216
2529  2529  2349
2842  2842  2802
2955  2955  2875
964  984  883
1124  1142  1048
1421  1459  1409
1903  1911  1766
2497  2636  2417
2618  2726  2650
2947  3085  2774
3172  3298  3129
3244  3244  3180
1228  1180  1108
1437  1397  1361
1895  1815  1863
2433  2373  2276
2979  2927  2891
3091  3039  3105
3292  3228  3156
3437  3404  3382
3485  3485  3421
1445  1413  1365
1791  1803  1702
2304  2314  2272
2802  2796  2742
3164  3184  3091
3372  3384  3354
3461  3473  3340
3597  3607  3553
3549  3533  3485
1927  1911  1863
2441  2441  2361
2971  2971  2907
3372  3372  3292
3517  3517  3453
3501  3501  3437
3549  3533  3485
3613  3613  3549
3549  3533  3485
347  305  305
399  385  381
506  450  482
584  514  508
687  546  602
809  626  777
887  691  715
1052  771  919
1012  996  980
399  391  385
450  450  434
586  554  550
779  741  699
1016  951  947
1289  1224  1241
1518  1405  1349
1744  1620  1610
1831  1799  1750
536  526  450
588  582  542
638  634  606
996  964  867
1329  1293  1212
1672  1638  1620
1883  1835  1670
2276  2236  2128
2312  2312  2248
731  682  642
881  771  777
1002  925  960
1216  1066  1034
1813  1672  1686
2222  2052  2140
2523  2343  2304
2766  2694  2666
2907  2907  2826
1018  972  915
1168  1092  1044
1393  1309  1313
1875  1750  1576
2320  2192  2128
3037  2947  2957
3348  3180  2991
3539  3501  3461
3710  3710  3661
1202  1184  1012
1415  1385  1235
1720  1704  1622
2140  2138  2003
2921  2921  2730
3493  3493  3425
3629  3615  3485
3768  3768  3669
3790  3790  3742
1530  1441  1365
1849  1682  1662
2152  2060  2076
2680  2509  2395
3398  3288  3268
3766  3710  3700
3810  3734  3698
3866  3846  3810
3902  3886  3854
1785  1734  1622
2037  1985  1881
2537  2473  2417
3148  3083  2877
3627  3581  3509
3846  3814  3782
3910  3878  3810
3961  3932  3900
3918  3918  3870
2152  2136  2056
2473  2473  2425
3035  3035  2971
3549  3533  3485
3838  3838  3790
3918  3902  3870
3967  3950  3918
3999  3983  3967
3999  3999  3967
349  337  321
494  482  484
562  546  578
703  674  656
719  674  731
791  723  929
1072  980  1036
1313  1220  1379
1253  1237  1204
502  504  482
550  552  536
610  618  614
895  893  847
1224  1210  1180
1481  1461  1491
1935  1939  1847
2192  2202  2176
2361  2361  2312
614  654  562
699  715  670
735  759  727
1032  1056  986
1397  1401  1349
1983  2092  2060
2369  2481  2300
2610  2722  2624
2971  2971  2907
855  829  803
947  915  931
1060  1026  1068
1341  1311  1279
1795  1756  1766
2477  2459  2473
2923  2883  2842
3200  3182  3164
3404  3404  3340
1136  1148  1044
1293  1309  1259
1538  1598  1598
1963  1991  1841
2329  2457  2385
3188  3260  3302
3573  3581  3509
3706  3702  3653
3758  3742  3694
1397  1461  1317
1694  1859  1644
1975  2134  2043
2585  2666  2487
3204  3304  3156
3621  3625  3575
3834  3848  3770
3882  3910  3846
3967  3950  3918
1754  1750  1654
2080  2068  2015
2405  2405  2421
2931  2931  2840
3437  3433  3404
3790  3778  3780
3946  3946  3910
3995  3991  3965
4015  4015  3983
1983  2062  1863
2329  2377  2264
2706  2742  2682
3212  3260  3127
3649  3663  3597
3898  3900  3880
4007  4003  3971
4031  4031  3999
4031  4031  3999
2345  2345  2296
2714  2714  2634
3131  3131  3051
3581  3565  3517
3886  3870  3838
3999  3983  3967
4031  4031  3999
4063  4047  4015
4063  4047  4015
442  401  401
576  546  542
656  626  630
843  787  779
1010  883  939
1108  931  1126
1461  1204  1261
1809  1622  1730
1927  1911  1863
608  596  562
672  660  628
711  703  682
998  962  925
1371  1321  1301
1764  1698  1732
2252  2202  2104
2648  2604  2567
2826  2826  2746
763  759  691
811  807  763
869  863  847
1118  1120  1010
1594  1598  1526
2252  2268  2224
2748  2758  2630
3087  3107  3013
3212  3212  3148
1016  984  964
1134  1046  1054
1194  1122  1160
1534  1407  1371
1941  1823  1831
2706  2610  2686
3326  3222  3184
3623  3535  3559
3565  3549  3501
1353  1309  1204
1582  1542  1465
1777  1726  1718
2094  2064  1941
2712  2642  2577
3326  3284  3358
3730  3718  3665
3872  3854  3828
3870  3870  3822
1746  1772  1526
2021  2080  1859
2365  2405  2308
2869  2905  2730
3318  3386  3212
3667  3694  3631
3916  3912  3850
3987  3981  3954
3983  3983  3934
2098  2027  1911
2355  2300  2248
2760  2694  2702
3270  3216  3129
3673  3637  3605
3884  3854  3860
3993  3983  3954
4051  4039  4019
4079  4063  4031
2294  2294  2200
2608  2608  2499
2987  2987  2935
3380  3380  3256
3750  3740  3677
3965  3954  3930
4051  4051  4007
4079  4079  4041
4079  4079  4031
2553  2553  2473
2762  2762  2682
3180  3180  3115
3645  3629  3581
3870  3854  3806
4015  4015  3983
4063  4063  4031
4079  4079  4047
4079  4079  4047
498  498  482
626  626  594
723  723  691
867  851  835
1092  1076  1028
1253  1237  1204
1493  1477  1445
1927  1911  1863
2361  2361  2312
707  707  674
739  739  707
787  771  755
1076  1044  1012
1461  1445  1381
1879  1863  1783
2425  2425  2345
2778  2778  2714
3148  3148  3067
883  867  851
915  899  883
996  980  964
1285  1253  1220
1766  1750  1670
2312  2312  2248
2907  2907  2826
3308  3308  3212
3437  3437  3388
1124  1108  1076
1204  1188  1156
1413  1381  1349
1702  1702  1654
2312  2312  2248
2826  2826  2746
3421  3421  3356
3677  3661  3613
3790  3774  3726
1477  1461  1413
1638  1622  1590
2023  2007  1927
2361  2361  2312
2923  2923  2842
3404  3404  3340
3774  3758  3710
3902  3902  3870
3950  3934  3902
1895  1879  1799
2056  2039  1991
2473  2473  2425
2987  2987  2923
3404  3404  3340
3774  3774  3710
3918  3902  3870
4015  4015  3983
4031  4015  3983
2264  2264  2200
2489  2489  2441
2842  2842  2762
3260  3260  3180
3694  3677  3613
3902  3902  3870
3999  3999  3967
4079  4063  4031
4079  4079  4031
2553  2553  2473
2762  2762  2682
3067  3067  2987
3421  3421  3372
3758  3742  3694
3934  3918  3886
4031  4031  3999
4079  4079  4047
4079  4079  4047
2585  2585  2489
2762  2762  2682
3067  3067  2987
3437  3437  3388
3774  3758  3710
3934  3934  3902
4063  4047  4015
4079  4079  4047
4079  4079  4047
