PS/3DLUTs/WA-Filter-Film.3dl
#Created by: Generate3DLut
#Generator: Copyright 2012 by Linus Hechinger
0 64 128 192 256 320 384 448 512 575 639 703 767 831 895 959 1023
514  674  707
514  674  694
498  674  707
482  691  850
530  691  1112
562  739  1554
626  803  1732
642  819  2161
674  835  2505
691  851  2764
723  899  3001
739  931  3093
771  931  3336
771  931  3516
771  964  3605
787  980  3738
819  996  3726
514  620  723
514  633  703
498  646  727
530  636  920
546  655  1192
610  671  1523
642  772  1726
674  771  2157
707  797  2473
723  826  2709
755  842  2947
787  877  3076
803  903  3344
803  893  3479
803  925  3579
835  938  3705
819  947  3694
578  638  739
562  660  695
562  654  695
546  670  891
594  705  1128
642  737  1434
691  811  1728
723  839  2127
755  849  2449
755  865  2637
803  907  2881
819  939  3100
835  945  3332
851  945  3448
867  978  3521
883  982  3603
851  947  3710
562  768  739
546  784  695
546  784  695
530  791  866
562  809  1116
594  825  1539
658  894  1746
674  905  2156
723  937  2513
707  953  2720
771  993  2977
787  1023  3092
803  1032  3348
803  1025  3509
803  1050  3605
835  1064  3728
819  1028  3710
562  1020  723
562  1032  714
530  1036  705
530  1012  882
562  1032  1096
562  1076  1476
658  1120  1722
658  1144  2120
691  1164  2449
691  1192  2655
755  1228  2917
771  1265  3087
803  1261  3328
787  1265  3458
803  1281  3549
819  1297  3656
835  1237  3710
610  1308  851
610  1338  784
578  1324  793
594  1309  953
610  1338  1200
642  1339  1575
658  1387  1801
674  1403  2211
739  1437  2561
755  1468  2735
787  1470  2987
787  1502  3107
803  1517  3360
803  1533  3513
835  1549  3631
835  1550  3717
851  1429  3806
674  1728  851
674  1728  813
642  1746  831
626  1712  974
626  1672  1208
658  1688  1559
723  1716  1742
739  1732  2191
755  1766  2457
771  1785  2725
803  1803  2971
819  1845  3075
819  1849  3328
835  1865  3529
867  1883  3623
883  1927  3744
867  1863  3774
723  2059  915
723  2075  868
723  2080  877
707  2054  1027
707  2059  1237
723  2042  1562
691  2065  1799
707  2054  2213
755  2097  2481
739  2107  2692
787  2139  2963
819  2166  3105
819  2176  3352
851  2182  3476
867  2198  3589
883  2214  3698
867  2184  3790
707  2345  883
707  2345  860
691  2361  887
691  2337  1065
691  2337  1309
723  2353  1650
658  2369  1797
642  2361  2210
674  2369  2465
707  2393  2732
787  2433  3003
771  2433  3078
803  2441  3360
819  2441  3495
819  2473  3595
835  2489  3731
835  2425  3726
771  2647  931
739  2652  903
739  2663  903
739  2657  1057
739  2657  1277
755  2657  1636
723  2662  1829
707  2646  2196
723  2667  2441
707  2668  2678
755  2705  2955
787  2715  3104
787  2721  3348
803  2721  3467
819  2753  3549
851  2769  3681
803  2698  3726
771  2846  931
771  2862  908
771  2862  923
755  2862  1102
771  2862  1361
803  2862  1688
803  2846  1837
803  2856  2276
819  2848  2521
819  2844  2763
819  2860  2991
803  2899  3092
787  2883  3352
819  2903  3504
851  2931  3625
851  2949  3734
851  2891  3742
819  3088  996
819  3088  977
787  3104  986
787  3087  1150
803  3072  1369
819  3072  1718
803  3088  1889
803  3087  2285
803  3070  2577
803  3071  2762
803  3088  3009
819  3104  3138
851  3103  3348
835  3104  3491
851  3119  3607
867  3120  3730
883  3115  3742
835  3276  996
835  3276  990
819  3292  984
819  3276  1137
803  3252  1381
835  3264  1660
819  3276  1909
819  3276  2270
819  3260  2569
835  3264  2799
851  3276  2953
835  3268  3104
851  3264  3332
851  3292  3463
867  3284  3585
883  3312  3707
883  3276  3758
803  3433  1028
803  3449  993
787  3458  990
787  3433  1166
787  3433  1381
819  3449  1732
803  3458  1877
819  3440  2290
803  3426  2553
803  3433  2768
835  3435  3001
819  3433  3121
819  3440  3300
803  3435  3461
819  3440  3575
819  3449  3702
851  3453  3694
835  3595  1012
819  3601  977
819  3601  998
787  3601  1141
803  3595  1373
819  3595  1716
819  3607  1885
819  3595  2296
819  3585  2561
803  3595  2806
835  3601  2985
835  3595  3135
819  3585  3288
835  3585  3463
835  3585  3565
851  3585  3678
835  3581  3694
851  3692  1012
819  3695  980
819  3708  992
851  3704  1171
835  3698  1393
867  3701  1690
835  3701  1903
835  3705  2301
835  3695  2577
835  3695  2800
851  3711  2999
851  3708  3152
851  3708  3316
867  3695  3486
851  3708  3597
851  3692  3711
851  3629  3726
980  3710  1028
980  3710  996
964  3726  996
931  3677  1044
947  3661  1333
980  3677  1445
915  3661  1831
947  3677  2264
931  3661  2489
964  3677  2794
947  3694  2858
964  3710  3131
980  3694  3388
964  3694  3485
964  3710  3581
980  3726  3629
964  3661  3677
410  626  707
406  626  674
367  658  680
436  739  896
500  723  1152
481  771  1466
587  835  1815
593  867  2226
603  883  2465
654  883  2729
641  931  2967
687  964  3122
735  947  3376
722  964  3522
706  964  3603
728  980  3681
739  1028  3790
491  597  691
491  610  661
472  626  664
478  623  861
539  645  1132
552  680  1448
603  749  1742
667  787  2187
664  790  2425
684  835  2704
720  861  2947
758  880  3061
790  902  3336
800  902  3497
790  902  3595
809  918  3699
851  980  3758
526  626  723
523  642  691
510  642  717
523  652  884
558  670  1148
594  703  1464
632  775  1768
657  803  2198
680  829  2449
716  857  2730
739  903  2965
787  919  3135
796  947  3368
777  931  3513
793  931  3591
786  958  3689
835  964  3742
569  743  755
553  759  724
553  759  719
553  766  898
575  775  1124
611  825  1421
633  860  1766
671  896  2183
698  921  2449
723  953  2713
743  959  2949
765  1007  3091
787  1016  3360
826  1023  3524
813  1057  3603
835  1055  3681
867  1044  3774
604  1008  803
598  1024  768
585  1028  777
553  980  907
578  1016  1164
598  1056  1509
652  1108  1758
664  1140  2208
668  1136  2441
707  1164  2720
746  1196  2977
752  1228  3077
777  1253  3356
774  1257  3509
803  1285  3615
835  1281  3734
835  1204  3710
562  1370  771
568  1371  718
533  1386  721
556  1372  896
536  1384  1056
608  1404  1449
607  1468  1714
652  1483  2126
671  1514  2441
691  1561  2660
727  1564  2921
749  1581  3088
765  1596  3332
781  1641  3451
784  1643  3535
818  1599  3636
819  1493  3710
625  1628  851
619  1630  822
583  1658  825
622  1698  1034
645  1658  1249
622  1676  1619
642  1696  1768
657  1736  2194
680  1762  2513
742  1781  2729
748  1841  3015
764  1859  3155
796  1831  3392
770  1845  3543
786  1875  3623
796  1895  3766
867  1863  3774
655  2031  835
658  2031  838
626  2053  821
633  2037  1022
658  2037  1257
685  2043  1590
651  2055  1760
635  2043  2141
680  2060  2465
697  2086  2683
726  2118  2985
774  2145  3092
806  2156  3360
806  2178  3502
816  2183  3601
810  2220  3728
835  2152  3742
681  2353  915
681  2353  871
652  2361  891
662  2361  1025
668  2345  1249
692  2345  1594
698  2353  1813
688  2345  2190
727  2361  2513
746  2401  2729
756  2409  2967
765  2433  3106
791  2457  3368
810  2473  3522
800  2473  3593
831  2473  3708
851  2441  3742
687  2641  947
687  2652  906
670  2657  909
694  2640  1089
710  2640  1273
717  2662  1655
723  2663  1823
710  2658  2232
717  2641  2513
707  2663  2708
720  2674  2977
742  2710  3107
771  2737  3372
755  2737  3506
784  2742  3587
796  2752  3711
835  2730  3726
701  2925  915
688  2927  890
681  2939  891
671  2939  1061
674  2925  1277
678  2911  1593
711  2943  1833
714  2941  2206
730  2897  2489
701  2923  2681
730  2927  2931
704  2929  3042
720  2931  3300
755  2975  3481
774  2977  3565
803  3023  3702
803  2923  3710
839  3056  980
839  3056  958
810  3072  964
791  3057  1116
800  3041  1357
804  3042  1689
761  3087  1897
771  3088  2286
739  3056  2553
761  3056  2752
748  3070  2977
816  3071  3091
819  3070  3340
864  3103  3518
871  3120  3625
893  3134  3721
883  3083  3790
761  3272  964
761  3276  937
745  3292  943
751  3288  1161
748  3288  1369
758  3284  1730
748  3304  1845
767  3276  2246
748  3268  2553
735  3276  2774
761  3280  3035
777  3284  3109
793  3296  3304
803  3296  3450
793  3284  3585
809  3304  3718
803  3308  3710
845  3442  1044
839  3449  1000
813  3449  1014
823  3444  1144
839  3442  1369
849  3442  1706
826  3442  1925
829  3442  2303
810  3426  2577
826  3433  2782
826  3442  3001
826  3442  3166
855  3435  3356
855  3435  3490
845  3442  3595
842  3442  3691
883  3437  3790
835  3585  1028
829  3595  1003
816  3601  1006
777  3579  1166
809  3573  1377
813  3575  1718
803  3579  1875
819  3567  2279
839  3565  2594
803  3585  2783
842  3585  3043
832  3553  3124
806  3569  3316
829  3575  3477
845  3569  3587
845  3585  3698
803  3549  3710
816  3671  1028
813  3688  1005
787  3691  1014
790  3684  1202
809  3684  1449
813  3684  1794
803  3688  1897
806  3688  2333
803  3671  2618
809  3684  2855
819  3704  3085
790  3684  3142
806  3668  3324
813  3658  3507
813  3671  3617
829  3688  3668
835  3645  3726
835  3758  1028
819  3774  1012
819  3774  1012
803  3774  1108
819  3774  1397
835  3774  1493
835  3806  1895
835  3774  2329
819  3742  2505
803  3758  2794
835  3774  2875
835  3758  3148
819  3758  3308
835  3758  3404
835  3742  3597
851  3758  3645
803  3742  3710
550  642  691
538  658  667
518  674  676
528  691  870
566  674  1140
618  739  1448
642  787  1714
687  787  2143
721  835  2441
739  851  2715
785  915  2989
747  964  3047
783  931  3312
773  964  3500
789  996  3599
805  1012  3735
835  964  3677
598  606  723
586  596  746
576  609  743
560  616  905
608  625  1136
638  680  1435
682  739  1752
717  764  2172
733  786  2433
759  786  2687
789  857  2963
817  886  3151
813  876  3352
827  889  3492
839  908  3571
859  934  3678
899  915  3742
578  648  691
566  644  707
556  654  703
578  660  909
602  672  1160
646  725  1477
691  797  1726
709  815  2149
729  837  2425
745  847  2688
781  905  2959
839  921  3076
851  927  3344
867  927  3486
867  945  3583
887  953  3696
899  931  3677
550  764  707
550  773  684
534  773  713
536  780  888
572  798  1156
582  839  1446
656  874  1740
697  908  2171
723  942  2449
713  959  2699
759  989  2959
797  1005  3076
807  1030  3344
823  1023  3511
845  1055  3611
843  1053  3715
819  1028  3694
590  976  771
590  992  727
568  992  747
584  996  914
596  1004  1120
616  1044  1420
680  1080  1781
715  1132  2199
741  1172  2457
747  1160  2692
783  1200  2965
825  1233  3135
851  1228  3372
845  1233  3512
861  1265  3591
877  1269  3677
851  1220  3758
616  1368  787
616  1384  774
584  1385  777
572  1340  939
604  1354  1168
604  1401  1449
642  1405  1738
687  1464  2182
733  1483  2457
739  1499  2703
775  1547  2965
791  1548  3120
813  1563  3364
839  1594  3522
851  1610  3613
855  1611  3714
835  1445  3742
656  1734  851
626  1750  798
624  1752  801
604  1722  919
606  1736  1136
610  1730  1479
628  1764  1700
701  1781  2122
733  1799  2465
703  1813  2649
747  1849  2907
775  1867  3103
803  1871  3324
817  1883  3455
821  1903  3531
865  1933  3652
835  1879  3742
723  2065  883
723  2065  854
707  2076  857
691  2049  1040
703  2042  1285
713  2042  1590
709  2054  1764
735  2076  2189
751  2081  2497
767  2092  2704
777  2134  2947
823  2155  3105
857  2165  3360
851  2177  3511
879  2193  3629
871  2204  3724
915  2168  3790
707  2353  851
707  2361  847
685  2369  871
689  2353  1058
701  2353  1277
697  2369  1648
682  2369  1720
682  2369  2150
715  2377  2497
719  2393  2700
777  2425  2973
779  2441  3062
803  2465  3332
817  2465  3484
839  2489  3583
843  2497  3699
803  2425  3677
781  2609  964
781  2631  945
771  2636  939
759  2609  1089
765  2620  1285
761  2631  1642
769  2652  1837
775  2652  2232
763  2636  2521
775  2647  2713
817  2679  2969
849  2689  3166
839  2684  3384
845  2700  3524
877  2716  3609
871  2731  3714
851  2666  3726
771  2846  931
765  2877  890
751  2877  931
777  2893  1091
781  2921  1309
783  2881  1642
765  2893  1805
771  2893  2205
781  2866  2521
777  2891  2703
797  2925  2961
819  2925  3119
819  2925  3332
829  2971  3501
867  2987  3583
861  2977  3668
819  2907  3694
787  3106  980
787  3107  941
771  3122  947
767  3120  1109
781  3105  1329
759  3106  1654
771  3121  1811
793  3121  2232
771  3104  2513
777  3090  2715
765  3120  2933
787  3135  3088
801  3121  3328
787  3121  3449
809  3154  3549
819  3154  3659
803  3164  3710
831  3284  996
831  3288  993
811  3296  996
805  3284  1164
805  3260  1377
819  3268  1733
821  3292  1859
811  3272  2247
827  3284  2585
827  3276  2806
819  3308  3021
811  3272  3109
821  3272  3352
831  3296  3506
853  3304  3591
841  3324  3692
867  3292  3758
865  3433  964
847  3449  943
839  3442  968
837  3435  1152
853  3442  1381
857  3435  1730
859  3451  1877
849  3433  2324
837  3437  2545
837  3433  2785
835  3442  3021
843  3442  3062
831  3433  3328
831  3451  3477
853  3456  3589
837  3458  3693
851  3453  3694
871  3557  1124
871  3563  1074
845  3573  1068
829  3563  1208
873  3557  1425
855  3567  1785
871  3573  2017
855  3557  2412
849  3547  2618
863  3547  2841
867  3557  3077
845  3563  3216
873  3547  3441
877  3553  3565
867  3579  3633
873  3569  3720
867  3533  3790
807  3701  980
807  3701  983
785  3714  992
795  3707  1173
827  3704  1405
805  3717  1734
805  3704  1931
801  3698  2318
799  3694  2553
791  3691  2795
805  3704  3021
801  3717  3123
791  3701  3356
795  3674  3490
801  3691  3565
805  3694  3672
771  3694  3710
964  3613  964
915  3645  931
947  3629  931
899  3645  1012
931  3645  1317
947  3645  1413
931  3677  1847
980  3645  2296
980  3661  2409
964  3677  2730
980  3677  2891
947  3677  3083
947  3661  3324
980  3645  3421
931  3661  3517
947  3661  3549
964  3694  3677
652  787  787
652  803  752
634  803  755
636  787  916
670  803  1184
682  835  1451
719  883  1754
769  899  2187
792  915  2465
801  931  2725
806  964  2961
847  980  3061
874  980  3328
893  1012  3520
911  1028  3611
909  1044  3715
819  1028  3822
590  635  658
574  654  647
574  638  701
567  648  867
624  684  1160
654  716  1490
691  774  1702
748  796  2153
755  815  2433
778  844  2716
799  889  2983
833  905  3017
865  924  3312
877  937  3500
888  953  3609
895  970  3709
