PS/3DLUTs/WA-Filter-Pop.3dl
#Created by: Generate3DLut
#Generator: Copyright 2012 by Linus Hechinger
0 128 256 384 512 639 767 895 1023
16  0  80
0  16  343
0  0  1048
32  0  1744
32  0  2497
0  0  3182
0  0  3497
0  16  3840
0  16  4015
0  407  128
0  430  416
0  381  1184
0  369  1831
0  369  2569
0  353  3298
0  339  3597
0  333  3950
0  353  4095
0  1088  32
0  1120  297
16  1116  1040
0  1024  1728
0  1020  2473
0  1028  3077
0  1020  3521
0  1020  3812
0  947  4063
16  1859  32
0  1851  351
0  1837  1056
0  1835  1795
0  1835  2529
0  1811  3154
0  1783  3569
0  1787  3890
0  1799  4047
0  2529  0
0  2553  347
0  2521  1040
0  2537  1708
0  2537  2433
0  2521  3190
0  2513  3581
0  2505  3894
32  2377  4095
0  3073  16
0  3089  335
0  3101  1028
0  3085  1799
0  3115  2537
0  3087  3166
0  3055  3569
0  3071  3900
0  3019  3983
16  3525  80
16  3541  275
32  3517  1016
16  3537  1748
0  3553  2457
0  3541  3095
0  3529  3525
16  3509  3876
32  3453  4095
0  3878  0
0  3916  249
0  3914  927
0  3876  1690
0  3902  2425
0  3880  3045
0  3890  3465
0  3894  3830
0  3822  4031
0  4047  64
0  4079  273
0  4079  964
0  4095  1670
0  4079  2361
0  4063  2923
0  4079  3469
0  4063  3806
0  4047  4015
335  64  0
325  80  271
329  16  1016
333  32  1692
305  32  2417
299  48  3075
287  64  3388
283  48  3774
305  48  4095
373  391  80
331  403  397
297  313  1108
139  231  1973
70  179  2754
24  80  3342
0  24  3830
96  118  4085
321  385  4095
279  1072  0
321  1040  393
241  1116  1088
161  1000  1873
58  915  2658
36  843  3406
12  787  3930
108  863  4095
273  980  4095
355  1883  0
373  1867  307
275  1897  935
151  2007  1939
54  1901  2778
18  1815  3435
0  1779  3826
122  1756  3987
321  1783  4047
283  2577  0
319  2537  293
265  2577  996
86  2802  1793
0  2858  2738
6  2714  3521
0  2650  3834
110  2561  4053
257  2457  3967
283  3103  0
315  3073  303
287  3137  968
112  3288  1728
0  3457  2690
38  3433  3439
0  3352  3898
100  3186  4079
289  3003  4079
327  3557  16
337  3541  297
289  3537  956
185  3706  1698
10  3878  2650
60  3858  3376
0  3842  3902
136  3673  4095
321  3501  4095
251  3906  0
261  3944  175
261  3912  935
157  4063  1580
84  4095  2473
116  4095  3222
66  4095  3597
149  4047  3948
257  3854  3983
434  4031  0
434  4031  209
418  4031  980
450  4015  1622
385  4031  2312
466  3983  2891
418  4015  3469
418  4031  3806
369  4047  3999
988  112  16
984  64  399
1016  32  1072
1036  16  1779
1024  0  2521
1000  0  3152
992  16  3493
1000  16  3860
899  64  4047
1016  387  64
1048  371  474
1076  355  1116
1064  271  1891
960  151  2722
859  42  3529
835  36  3882
907  126  4077
947  369  4095
947  1024  0
976  1040  333
943  1084  992
935  927  1772
827  851  2594
755  811  3336
739  723  3850
771  807  4065
915  964  4063
1016  1795  80
1048  1839  315
1024  1819  1020
919  1925  1803
803  1877  2722
815  1777  3429
731  1660  3818
835  1702  4065
899  1815  4079
1056  2465  32
1112  2497  327
1052  2489  1020
863  2642  1774
779  2722  2690
759  2618  3388
634  2569  3918
803  2497  4055
947  2425  4047
1048  3045  0
1020  3093  279
1004  3087  1004
903  3158  1724
775  3348  2618
739  3364  3431
650  3300  3850
807  3123  4047
819  2987  4047
996  3561  80
988  3585  319
939  3529  968
939  3585  1670
695  3794  2457
658  3882  3310
602  3910  3866
783  3710  4065
915  3517  4095
1004  3884  0
1028  3906  235
1028  3884  919
947  3948  1712
815  4069  2425
795  4095  3188
795  4095  3617
799  4055  4009
835  3822  4031
899  4095  0
883  4095  353
915  4079  964
899  4079  1686
899  4095  2409
899  4095  2955
883  4095  3404
867  4095  3806
931  4079  4015
1700  96  145
1718  128  387
1746  64  996
1823  48  1797
1768  64  2505
1839  0  3184
1843  0  3629
1740  32  3948
1734  48  4079
1726  416  161
1732  432  460
1764  416  1036
1851  381  1766
1740  367  2497
1801  185  3336
1708  120  3750
1722  126  4055
1815  385  4079
1700  1048  80
1702  1064  403
1750  1076  1056
1853  1016  1774
1825  984  2545
1783  859  3316
1744  795  3802
1682  815  4059
1831  980  4095
1785  1664  145
1787  1680  476
1805  1698  1052
1720  1787  1785
1716  1738  2553
1608  1662  3230
1606  1582  3814
1532  1540  3977
1783  1718  4079
1799  2369  177
1789  2417  448
1805  2425  988
1754  2537  1779
1650  2577  2513
1586  2497  3304
1514  2417  3790
1508  2369  4017
1702  2489  4095
1774  3037  128
1762  3055  377
1766  3117  964
1811  3073  1696
1770  3210  2417
1622  3232  3252
1544  3182  3750
1600  3129  3991
1766  2971  4047
1744  3453  128
1783  3477  365
1746  3517  1028
1777  3537  1718
1756  3581  2473
1542  3734  3226
1465  3754  3714
1568  3641  4055
1702  3517  4063
1770  3806  64
1811  3832  303
1764  3870  956
1777  3872  1678
1690  3942  2409
1630  4027  3107
1506  4079  3686
1542  4057  4043
1750  3838  4095
1750  4079  177
1799  4095  434
1718  4095  1092
1831  4079  1702
1750  4095  2393
1766  4095  2987
1815  4047  3517
1734  4079  3902
1702  4079  4079
2361  112  273
2385  177  502
2369  145  1096
2441  112  1827
2425  112  2529
2433  96  3176
2409  80  3645
2425  80  3932
2296  96  4095
2337  458  241
2337  468  474
2369  452  1132
2473  361  1803
2497  345  2537
2489  329  3172
2465  241  3665
2481  203  4065
2409  353  4095
2329  1112  80
2337  1140  460
2353  1140  1100
2457  1064  1829
2473  1036  2465
2481  1000  3178
2473  951  3673
2457  907  4049
2393  1012  4015
2385  1734  161
2393  1764  460
2425  1768  1092
2465  1843  1766
2497  1799  2441
2465  1760  3182
2425  1652  3629
2361  1576  3965
2473  1766  4095
2361  2385  128
2385  2409  432
2409  2449  1072
2473  2465  1740
2481  2521  2441
2425  2433  3146
2353  2361  3597
2296  2337  3975
2425  2489  4095
2401  2957  241
2409  2975  522
2457  2987  1120
2481  3051  1787
2481  3129  2513
2425  3148  3196
2345  3065  3637
2312  3049  4021
2441  3003  4095
2417  3364  161
2417  3400  458
2473  3425  1140
2513  3497  1696
2473  3537  2425
2409  3593  3111
2320  3673  3673
2304  3585  4009
2345  3517  4047
2465  3736  80
2457  3778  412
2449  3810  1000
2465  3894  1588
2457  3880  2401
2409  3930  2969
2296  4059  3521
2320  4023  3940
2505  3806  4095
2457  3967  209
2457  3983  514
2489  4015  1156
2537  4047  1863
2505  4031  2553
2521  4047  3148
2489  4015  3694
2457  4047  3999
2441  4095  3934
2921  177  0
2923  225  315
2909  225  960
3017  64  1750
3105  48  2497
3063  0  3146
3085  32  3529
3097  32  3912
2987  48  4079
2925  484  177
2925  506  482
2899  468  1060
3009  410  1698
3073  339  2529
3037  303  3158
3069  323  3493
3073  313  3902
2971  369  4079
2901  1104  177
2901  1120  508
2979  1152  1152
3025  1088  1781
3099  1016  2545
3051  1000  3168
3075  1000  3565
3077  980  3910
3019  964  4095
2905  1754  161
2919  1772  510
2935  1789  1140
2965  1849  1817
3015  1815  2441
3049  1770  3133
3041  1724  3589
3043  1676  3975
3051  1718  4095
3003  2401  209
3017  2425  512
3033  2409  1084
3025  2497  1807
3045  2505  2457
3091  2481  3109
3089  2401  3613
3085  2345  3975
2923  2473  4095
2866  2973  112
2881  3003  424
2915  3033  1084
2973  3037  1736
2989  3079  2409
3019  3095  3093
2959  3037  3501
2959  3003  3868
3019  3003  4063
2927  3336  177
2929  3364  482
3029  3404  1132
3007  3449  1811
3033  3497  2433
2979  3505  3125
2989  3569  3505
2915  3509  3940
2907  3485  4063
2949  3675  225
2963  3708  524
3011  3724  1144
3015  3790  1841
3015  3868  2465
3029  3858  3115
3027  3932  3517
2967  3971  3961
2939  3838  4095
2907  3918  241
2907  3934  546
2955  3967  1124
2987  4063  1783
3003  4095  2361
3019  4095  2955
2891  4095  3453
2971  4063  3822
2907  4095  4079
3324  209  177
3316  193  478
3304  193  1124
3449  96  1656
3481  64  2393
3529  16  3119
3481  0  3577
3465  0  3912
3421  16  4095
3348  522  241
3324  524  520
3376  518  1148
3404  466  1764
3433  395  2481
3537  339  3168
3505  345  3605
3521  329  3918
3437  353  4095
3312  1116  225
3312  1132  542
3340  1160  1168
3368  1124  1781
3469  1040  2433
3481  1016  3162
3521  980  3585
3477  996  3908
3421  947  4095
3348  1803  193
3352  1823  480
3368  1809  1084
3425  1869  1779
3453  1885  2385
3545  1785  3150
3541  1770  3541
3525  1748  3848
3501  1783  4031
3300  2441  128
3308  2481  476
3348  2465  1132
3360  2529  1795
3372  2569  2481
3364  2561  3142
3445  2521  3445
3453  2497  3852
3421  2457  3999
3324  2955  177
3336  2961  492
3388  2989  1124
3437  3025  1825
3425  3095  2465
3493  3061  3140
3509  3051  3489
3505  3005  3856
3485  2971  4015
3336  3352  161
3356  3368  482
3368  3376  1120
3457  3429  1821
3461  3449  2545
3469  3477  3148
3485  3485  3501
3485  3449  3882
3485  3469  4095
3256  3706  16
3268  3738  430
3296  3744  1116
3445  3764  1766
3421  3816  2505
3429  3852  3087
3421  3880  3404
3404  3912  3840
3453  3854  3967
3404  3870  145
3404  3886  482
3437  3902  1076
3485  3950  1638
3565  3999  2312
3613  3983  2858
3613  3999  3421
3533  4015  3822
3549  4015  3950
3609  225  161
3603  225  514
3613  193  1156
3798  96  1724
3848  32  2449
3902  0  3218
3872  0  3517
3860  32  3908
3790  48  4047
3742  504  241
3746  510  596
3772  520  1277
3762  476  1793
3852  407  2481
3926  321  3312
3975  307  3589
3932  307  3969
3822  353  4095
3581  1156  177
3597  1184  502
3659  1208  1116
3708  1160  1762
3758  1104  2393
3878  1008  3041
3862  984  3509
3846  1012  3834
3774  931  4015
3657  1813  193
3657  1829  540
3706  1849  1148
3724  1921  1833
3770  1867  2529
3858  1865  3137
3876  1766  3573
3892  1750  3896
3806  1783  4095
3728  2417  193
3734  2441  538
3756  2457  1188
3792  2505  1867
3822  2537  2545
3784  2569  3057
3848  2497  3477
3868  2457  3816
3790  2425  4079
3673  2935  225
3679  2965  512
3704  2993  1136
3766  2999  1851
3772  3047  2577
3806  3095  3224
3816  3057  3585
3818  3043  3900
3790  2987  4095
3665  3340  225
3677  3372  522
3730  3388  1156
3748  3457  1845
3764  3473  2513
3796  3505  3119
3812  3493  3501
3828  3477  3830
3822  3469  4095
3657  3681  145
3669  3704  510
3722  3714  1120
3750  3760  1807
3780  3778  2505
3812  3806  3111
3834  3826  3457
3840  3842  3816
3790  3822  4031
3758  3854  161
3774  3870  466
3758  3886  1092
3694  3999  1718
3710  4015  2329
3726  3983  2987
3790  4047  3469
3758  4047  3822
3758  4047  4047
3790  321  80
3790  353  353
3790  353  964
3983  161  1542
4047  112  2184
4095  96  2746
4079  48  3533
4095  64  3838
4095  48  4031
3886  530  209
3902  562  562
3870  514  1140
3950  498  1734
4015  418  2409
4079  353  2939
4079  385  3501
4047  385  3774
4063  369  3950
3918  1076  273
3934  1092  562
3950  1076  1172
3983  1108  1750
4031  1012  2361
4095  980  2826
4063  931  3533
4079  947  3838
4079  915  4015
3870  1783  209
3886  1815  514
3950  1815  1156
3967  1863  1943
4031  1847  2489
4095  1799  2923
4095  1734  3565
4095  1766  3870
4095  1718  4031
3967  2409  305
3950  2409  594
3983  2409  1204
3999  2505  1847
4047  2537  2553
4047  2537  2923
3999  2537  3517
3999  2489  3870
4095  2457  4063
3902  2923  209
3902  2939  530
3902  2939  1108
3950  3035  1766
3983  3035  2489
4015  3083  2891
4095  2987  3453
4095  2971  3806
4031  2987  4015
3870  3356  161
3870  3388  466
3918  3404  1108
3967  3437  1783
3983  3469  2489
3999  3533  2891
4031  3533  3485
4031  3501  3838
4047  3485  3999
3918  3645  209
3950  3694  530
3934  3677  1140
3999  3742  1799
4047  3758  2537
4079  3838  2923
4063  3822  3485
4079  3822  3870
4079  3822  4031
3918  3902  241
3918  3918  546
3967  3967  1204
4031  3999  1799
4031  4015  2521
4047  4079  2907
4047  4047  3469
4063  4063  3870
4063  4095  4047
