PS/3DLUTs/WA-Filter-Pop.3dl
#Created by: Generate3DLut
#Generator: Copyright 2012 by Linus Hechinger
0 256 512 767 1023
16  0  80
0  0  1048
32  0  2497
0  0  3497
0  16  4015
0  1088  32
16  1116  1040
0  1020  2473
0  1020  3521
0  947  4063
0  2529  0
0  2521  1040
0  2537  2433
0  2513  3581
32  2377  4095
16  3525  80
32  3517  1016
0  3553  2457
0  3529  3525
32  3453  4095
0  4047  64
0  4079  964
0  4079  2361
0  4079  3469
0  4047  4015
988  112  16
1016  32  1072
1024  0  2521
992  16  3493
899  64  4047
947  1024  0
943  1084  992
827  851  2594
739  723  3850
915  964  4063
1056  2465  32
1052  2489  1020
779  2722  2690
634  2569  3918
947  2425  4047
996  3561  80
939  3529  968
695  3794  2457
602  3910  3866
915  3517  4095
899  4095  0
915  4079  964
899  4095  2409
883  4095  3404
931  4079  4015
2361  112  273
2369  145  1096
2425  112  2529
2409  80  3645
2296  96  4095
2329  1112  80
2353  1140  1100
2473  1036  2465
2473  951  3673
2393  1012  4015
2361  2385  128
2409  2449  1072
2481  2521  2441
2353  2361  3597
2425  2489  4095
2417  3364  161
2473  3425  1140
2473  3537  2425
2320  3673  3673
2345  3517  4047
2457  3967  209
2489  4015  1156
2505  4031  2553
2489  4015  3694
2441  4095  3934
3324  209  177
3304  193  1124
3481  64  2393
3481  0  3577
3421  16  4095
3312  1116  225
3340  1160  1168
3469  1040  2433
3521  980  3585
3421  947  4095
3300  2441  128
3348  2465  1132
3372  2569  2481
3445  2521  3445
3421  2457  3999
3336  3352  161
3368  3376  1120
3461  3449  2545
3485  3485  3501
3485  3469  4095
3404  3870  145
3437  3902  1076
3565  3999  2312
3613  3999  3421
3549  4015  3950
3790  321  80
3790  353  964
4047  112  2184
4079  48  3533
4095  48  4031
3918  1076  273
3950  1076  1172
4031  1012  2361
4063  931  3533
4079  915  4015
3967  2409  305
3983  2409  1204
4047  2537  2553
3999  2537  3517
4095  2457  4063
3870  3356  161
3918  3404  1108
3983  3469  2489
4031  3533  3485
4047  3485  3999
3918  3902  241
3967  3967  1204
4031  4015  2521
4047  4047  3469
4063  4095  4047
