PS/3DLUTs/WA-Filter-Chrom.3dl
#Created by: Generate3DLut
#Generator: Copyright 2012 by Linus Hechinger
0 256 512 767 1023
48  0  578
16  0  1196
16  0  2786
0  0  3690
16  0  4047
32  711  562
0  711  1132
16  723  2722
0  723  3637
0  594  3983
32  2674  562
32  2650  1180
48  2674  2754
48  2666  3657
32  2569  3999
48  3649  594
64  3617  1132
48  3645  2754
48  3645  3605
64  3613  4031
0  4095  514
0  4063  1108
0  4079  2618
0  4063  3581
0  4079  3950
682  0  626
699  0  1224
691  0  2802
699  0  3698
610  16  4047
622  727  546
650  715  1164
518  630  2778
530  542  3686
498  562  3983
642  2674  546
666  2634  1160
658  2690  2738
674  2634  3710
562  2553  3999
699  3653  562
682  3649  1128
662  3641  2754
691  3629  3617
594  3629  3983
498  4095  514
466  4031  1076
546  4063  2618
530  4031  3597
562  4079  3950
2553  145  691
2594  96  1257
2594  112  2850
2585  80  3726
2441  96  4063
2634  731  594
2650  699  1160
2650  703  2802
2642  646  3681
2585  578  4015
2634  2706  578
2658  2666  1168
2650  2658  2762
2594  2594  3657
2602  2618  3950
2618  3690  530
2650  3641  1204
2634  3665  2746
2610  3653  3613
2553  3645  3983
2634  4079  707
2650  4031  1317
2666  4063  2810
2650  4047  3774
2634  4095  3822
3589  96  434
3617  32  1120
3621  64  2690
3601  80  3501
3629  48  3886
3625  727  562
3605  699  1128
3641  687  2746
3637  678  3661
3613  546  4031
3557  2722  514
3557  2698  1168
3581  2674  2722
3577  2682  3553
3533  2618  3918
3625  3673  594
3649  3637  1204
3641  3653  2794
3649  3629  3645
3661  3613  4047
3661  4063  482
3726  4015  1092
3710  4031  2602
3694  4031  3533
3742  4015  3886
4095  48  594
4095  16  1204
4095  64  2714
4095  32  3629
4095  32  4015
4063  642  578
4063  546  1156
4063  578  2682
4047  578  3581
4063  546  3983
3999  2666  578
4031  2618  1188
4047  2650  2746
4031  2650  3661
4095  2602  4047
4047  3694  530
4047  3645  1156
4063  3645  2666
4047  3645  3581
4047  3645  3983
4047  4095  546
4063  4079  1156
4079  4095  2698
4095  4095  3613
4079  4095  3999
