PS/3DLUTs/WA-Filter-Kühl.3dl
#Created by: Generate3DLut
#Generator: Copyright 2012 by Linus Hechinger
0 256 512 767 1023
32  273  385
0  112  1441
0  96  2537
0  96  3501
64  305  3886
16  1228  257
64  1233  1377
0  1092  2682
0  1024  3786
64  1124  4079
48  2537  321
64  2553  1369
48  2585  2754
32  2409  3842
112  2280  4095
48  3738  353
32  3742  1241
48  3742  2553
48  3726  3794
209  3485  4079
16  4063  514
32  4079  1333
48  4079  2377
64  4079  3517
321  3983  4095
598  482  658
622  434  1136
590  209  2585
498  161  3814
626  353  3983
634  960  658
799  1212  1321
506  1004  2746
381  815  3890
691  1156  4031
951  2345  546
723  2513  1277
622  2553  2690
518  2393  3886
771  2329  4015
642  3822  385
550  3782  1196
518  3810  2537
614  3790  3826
867  3501  4095
739  4031  803
787  4015  1477
835  4047  2457
883  3983  3710
964  4015  4015
1566  851  867
1510  867  1433
1574  803  2104
1951  674  3288
1927  562  3822
1566  1297  931
1758  1489  1662
1791  1461  2288
2031  1297  3641
1943  1253  4095
1574  1879  996
1823  2080  1638
2096  2417  2561
1815  2232  3826
2007  2441  4095
2039  2959  1012
2152  3304  1594
2007  3661  2505
1959  3677  3762
2072  3517  4063
2104  3710  883
2264  3983  1477
2120  4015  2602
2200  4015  3726
2088  4079  4095
2505  1140  1381
2517  1124  1907
2517  1076  2385
2533  1060  2959
2634  1220  3437
2493  1610  1269
2690  1791  1971
2722  1758  2553
2746  1746  3152
2875  1799  3613
2497  2168  1285
2702  2385  1959
2971  2690  2866
3047  2690  3364
3164  2618  3838
2509  2730  1301
2710  2927  1971
3039  3244  2891
3392  3557  3726
3324  3533  4095
2569  3212  1253
2794  3421  1927
3196  3790  2714
3421  4095  3565
3437  4095  3999
3035  1220  1510
3035  1253  1943
3083  1204  2473
3228  1220  3276
3180  1124  3485
2939  1702  1445
3164  1927  2088
3212  1895  2634
3260  1831  3308
3260  1831  3565
3019  2280  1493
3196  2473  2136
3549  2810  2987
3581  2794  3517
3613  2794  3854
2955  2858  1445
3180  3083  2088
3533  3421  2971
3870  3694  3758
3886  3677  3950
3003  3131  1477
3212  3388  2136
3597  3726  2971
3934  3999  3758
4079  4079  4095
