PS/3DLUTs/WA-Filter-Kühl.3dl
#Created by: Generate3DLut
#Generator: Copyright 2012 by Linus Hechinger
0 64 128 192 256 320 384 448 512 575 639 703 767 831 895 959 1023
32  273  385
32  241  559
0  209  859
0  177  1125
0  112  1441
0  128  1771
0  112  1933
0  80  2356
0  96  2537
0  80  2844
0  80  3095
0  112  3176
0  96  3501
0  112  3657
0  177  3788
0  225  3810
64  305  3886
96  474  418
112  461  581
64  435  857
64  439  1175
32  364  1457
0  316  1849
0  252  1981
0  223  2404
0  252  2610
0  242  2897
0  230  3216
0  233  3272
0  233  3593
0  252  3756
32  306  3864
48  358  4027
64  418  3967
64  697  385
80  687  576
80  676  889
80  664  1228
32  628  1554
48  584  1910
0  524  2070
16  488  2520
0  488  2754
0  478  3081
0  450  3501
32  456  3411
16  430  3766
32  462  3922
32  528  4035
80  576  3996
96  658  4063
16  933  289
48  942  537
16  935  827
32  959  1155
16  912  1465
16  887  1832
0  830  2045
0  768  2482
0  789  2762
0  766  3148
0  716  3471
16  718  3437
0  720  3774
0  745  3930
0  795  4003
32  834  3996
32  867  4047
16  1228  257
48  1237  494
64  1237  747
64  1228  1047
64  1233  1377
96  1208  1771
16  1152  2007
0  1108  2447
0  1092  2682
0  1072  3015
0  1048  3344
0  1028  3478
0  1024  3786
0  1024  3943
0  1100  3973
16  1168  4034
64  1124  4079
64  1547  353
96  1548  516
80  1560  821
112  1548  1099
112  1577  1421
161  1562  1841
96  1516  2029
48  1481  2500
80  1468  2762
48  1434  3079
48  1389  3425
32  1372  3543
0  1355  3842
16  1355  3997
16  1403  4075
48  1405  4066
96  1317  4079
0  1913  305
16  1917  426
16  1903  731
32  1887  1045
32  1905  1333
64  1921  1729
80  1905  2021
64  1877  2457
32  1847  2698
0  1787  3046
0  1748  3406
0  1730  3512
0  1686  3838
0  1684  3981
16  1704  4017
48  1744  4060
112  1734  4047
0  2258  273
32  2274  410
0  2263  701
16  2258  1047
16  2257  1333
32  2289  1712
96  2257  1989
96  2251  2430
64  2209  2658
32  2139  2997
16  2123  3419
0  2102  3513
0  2065  3838
0  2055  3974
0  2060  4005
0  2076  4044
112  2039  3999
48  2537  321
64  2545  445
48  2553  743
48  2537  1079
64  2553  1369
80  2585  1745
0  2594  2039
0  2577  2462
48  2585  2754
0  2529  3093
0  2489  3515
32  2449  3519
32  2409  3842
32  2385  3996
64  2385  4065
64  2377  4074
112  2280  4095
16  2888  257
48  2904  397
16  2899  670
32  2888  1002
16  2899  1285
48  2926  1652
16  2925  1997
0  2920  2410
16  2925  2666
32  2921  3039
48  2872  3417
64  2850  3525
64  2808  3818
80  2764  3941
64  2732  3977
64  2721  4006
128  2618  4095
0  3184  177
0  3202  312
0  3212  618
0  3186  987
0  3202  1265
32  3232  1648
48  3200  1903
64  3208  2355
64  3224  2650
64  3206  3037
96  3178  3507
0  3148  3515
0  3111  3830
32  3061  4013
16  3011  4055
16  2969  4080
209  2875  4063
32  3478  321
32  3494  411
48  3494  666
32  3491  952
16  3477  1233
32  3477  1575
48  3506  1873
48  3492  2341
48  3492  2602
16  3464  2970
48  3462  3451
48  3477  3545
48  3461  3850
64  3426  3986
145  3331  4049
112  3264  4083
193  3196  4079
48  3738  353
48  3754  407
48  3754  634
48  3750  967
32  3742  1241
64  3754  1546
64  3738  1873
48  3738  2307
48  3742  2553
16  3742  2944
48  3734  3400
48  3738  3511
48  3726  3794
96  3694  3953
161  3617  4007
145  3537  4041
209  3485  4079
0  3919  353
16  3935  420
16  3928  664
48  3939  1003
32  3930  1305
48  3921  1592
32  3921  1881
32  3921  2289
16  3939  2545
0  3930  2952
32  3930  3406
16  3953  3452
48  3937  3754
80  3891  3908
161  3811  4003
128  3717  4068
177  3645  3983
64  4025  401
80  4041  477
64  4067  719
80  4047  1029
80  4051  1305
96  4047  1715
96  4057  1919
80  4051  2287
80  4039  2602
64  4037  2892
64  4047  3224
64  4037  3455
80  4037  3718
112  4011  3902
225  3987  3981
225  3872  3986
209  3790  4031
80  4070  418
112  4089  494
96  4092  727
96  4050  1036
80  4060  1297
96  4047  1655
96  4073  1883
80  4073  2268
80  4053  2489
80  4063  2764
80  4050  3109
64  4050  3417
80  4034  3686
128  4047  3823
257  4051  3912
241  3980  4018
257  3886  4095
16  4063  514
16  4047  530
0  4047  755
32  4095  996
32  4079  1333
32  4079  1429
48  4079  1847
32  4047  2280
48  4079  2377
64  4047  2794
48  4047  2987
32  4079  3260
64  4079  3517
80  4031  3661
128  4063  3822
145  4079  3838
321  3983  4095
210  289  305
216  305  424
184  257  713
139  209  1063
106  177  1349
100  145  1769
113  80  1993
103  64  2376
97  64  2569
67  64  2903
87  64  3152
12  241  3104
9  241  3364
12  241  3543
12  225  3665
18  273  3829
241  337  3838
108  417  498
147  462  621
114  414  883
82  362  1200
43  304  1506
28  276  1821
15  199  2025
12  170  2387
3  177  2585
6  174  2919
0  158  3222
3  92  3395
0  79  3637
48  123  3816
125  201  3920
226  325  4011
96  514  4063
124  660  498
173  689  605
173  656  857
134  622  1154
92  586  1453
79  548  1825
99  472  2041
67  426  2446
48  389  2674
16  335  3014
29  307  3406
16  317  3467
3  333  3734
41  395  3908
69  512  3993
155  614  4019
177  674  4095
82  933  498
53  959  545
72  977  823
89  982  1139
47  944  1385
51  890  1724
35  805  2086
3  759  2480
0  727  2714
0  671  3088
0  628  3481
0  626  3575
0  628  3842
9  722  3986
18  786  4025
79  882  4011
193  883  4095
154  1228  401
151  1249  519
164  1261  777
139  1233  1047
125  1261  1357
155  1228  1764
135  1160  2068
93  1116  2511
42  1056  2754
29  1004  3131
35  964  3553
22  956  3653
6  951  3890
38  1016  3981
93  1088  4015
170  1152  4037
145  1108  4031
138  1550  353
164  1551  449
145  1537  699
161  1582  1056
151  1579  1333
143  1611  1717
113  1534  2003
77  1515  2442
68  1468  2698
55  1419  3070
48  1357  3551
9  1326  3607
29  1265  3874
54  1340  3981
122  1403  4011
180  1407  4008
145  1381  4015
86  1835  434
93  1851  481
109  1835  743
109  1847  1095
99  1835  1385
115  1821  1751
108  1855  1995
72  1785  2478
89  1807  2778
34  1760  3141
16  1720  3641
26  1700  3747
0  1654  3942
48  1674  4070
93  1692  4073
141  1730  4063
257  1702  4095
112  2203  385
96  2214  462
96  2203  674
109  2203  1040
112  2214  1329
135  2214  1689
139  2225  2019
102  2203  2468
70  2171  2722
25  2134  3099
32  2128  3531
61  2091  3669
29  2060  3926
41  2026  4020
80  2015  4019
144  2049  4067
193  2007  4063
62  2569  257
69  2569  355
43  2561  624
56  2561  938
75  2561  1273
67  2610  1607
70  2594  1993
57  2594  2438
57  2626  2746
25  2577  3086
25  2513  3443
34  2465  3679
40  2441  3950
52  2417  4042
88  2385  4007
194  2369  4063
257  2296  4095
112  2904  369
135  2909  456
122  2914  703
122  2871  988
125  2888  1293
149  2893  1613
128  2903  1897
125  2904  2394
109  2932  2666
90  2937  3056
100  2899  3473
106  2860  3636
125  2839  3914
128  2769  4015
210  2732  4017
231  2678  4038
241  2634  4079
80  3236  321
80  3238  384
74  3224  634
93  3224  956
96  3224  1241
110  3254  1507
113  3260  1831
106  3272  2318
113  3262  2610
116  3276  3018
119  3244  3412
74  3212  3570
90  3206  3862
121  3115  4004
206  3063  4019
215  3003  3983
209  2907  4047
47  3522  225
60  3537  335
44  3537  586
41  3536  915
47  3506  1208
54  3538  1572
70  3553  1893
76  3540  2361
51  3568  2642
70  3554  3051
51  3538  3443
15  3555  3605
66  3492  3922
123  3425  4063
179  3314  4079
159  3262  4077
241  3180  4095
41  3754  305
67  3778  365
51  3790  588
51  3798  895
64  3778  1184
74  3806  1556
57  3802  1793
44  3814  2279
61  3834  2561
64  3822  2956
68  3822  3376
54  3842  3586
115  3814  3862
114  3722  3997
157  3577  3997
211  3525  4070
289  3469  4031
96  3953  385
93  3963  466
109  3979  672
109  3965  981
112  3981  1241
162  3981  1578
135  3965  1859
115  3972  2280
122  3988  2537
125  3986  2922
129  3988  3332
135  3988  3552
165  3972  3814
209  3934  3967
222  3809  3991
247  3751  4076
273  3645  4079
124  4047  434
138  4047  523
124  4063  733
121  4053  1040
111  4057  1317
131  4053  1594
127  4037  1851
138  4057  2274
115  4059  2505
105  4057  2897
157  4039  3310
127  4031  3430
134  4031  3714
205  4027  3944
279  3971  4031
301  3910  4077
289  3838  4095
141  4073  514
144  4063  577
150  4079  787
163  4027  1068
146  4037  1325
160  4079  1642
150  4063  1865
166  4076  2285
153  4069  2505
143  4063  2858
148  4069  3266
173  4063  3369
173  4060  3686
227  4053  3899
276  4015  3997
333  3989  4080
305  3950  4063
145  4047  610
177  4079  674
161  4095  899
161  4079  1092
193  4047  1461
161  4079  1558
193  4079  1895
193  4031  2361
145  4079  2425
128  4047  2891
225  4079  3099
241  4047  3372
209  4031  3645
209  4031  3774
321  3999  3950
353  4015  3999
305  3999  3999
291  305  434
333  337  526
309  321  701
341  337  1052
289  257  1269
265  225  1770
239  161  1891
191  112  2256
185  128  2473
201  112  2798
136  96  3210
136  112  3228
136  112  3453
136  80  3654
191  112  3808
285  225  3907
337  289  3999
279  433  562
331  484  636
335  490  819
319  462  1109
265  371  1417
233  327  1800
175  240  2130
145  195  2454
114  180  2634
114  131  2937
92  119  3350
102  122  3492
88  112  3722
132  176  3877
189  278  3979
265  390  3951
273  434  4095
249  584  530
299  658  619
311  697  823
283  644  1138
267  570  1481
209  548  1789
167  488  2100
130  442  2479
76  393  2682
56  319  3034
16  273  3410
22  249  3481
28  295  3746
74  385  3892
128  528  4035
183  630  4030
273  691  4079
383  777  594
401  843  645
387  905  825
339  903  1147
245  873  1469
199  875  1857
193  802  1977
151  735  2433
114  699  2714
78  652  3089
60  577  3499
32  547  3577
52  563  3874
118  654  4009
207  772  4025
285  877  4006
257  899  4047
331  1136  498
325  1208  551
299  1228  759
273  1233  1085
235  1228  1409
245  1188  1780
197  1120  2041
165  1072  2473
114  1028  2730
78  984  3093
60  903  3521
30  851  3652
44  851  3946
116  939  4042
181  1044  4057
269  1136  4024
337  1140  4095
297  1535  401
293  1551  493
251  1566  731
259  1538  1072
235  1552  1341
261  1553  1703
209  1474  1989
171  1453  2425
124  1422  2722
86  1388  3088
86  1295  3559
56  1262  3667
88  1231  3958
118  1293  4051
193  1374  4037
275  1469  4060
321  1349  4047
301  1893  385
301  1879  490
281  1865  795
279  1861  1105
283  1833  1345
273  1847  1705
249  1901  1949
243  1847  2429
193  1817  2722
151  1754  3089
132  1716  3541
108  1656  3582
128  1626  3938
177  1642  4022
259  1690  4033
295  1754  3983
305  1766  4031
237  2268  241
247  2268  380
231  2235  719
237  2224  1066
251  2202  1301
273  2197  1670
213  2258  1987
217  2230  2464
167  2203  2706
134  2133  3054
110  2075  3465
80  2070  3635
120  2025  3946
167  1998  4026
239  2053  4045
295  2081  4035
401  1991  4079
237  2585  321
221  2594  381
221  2577  622
205  2561  957
205  2553  1257
205  2569  1607
225  2553  1855
189  2561  2350
177  2594  2634
130  2553  3014
102  2505  3463
122  2489  3562
108  2473  3830
143  2425  3949
249  2417  3981
317  2393  4062
353  2296  3983
275  2865  369
273  2854  468
253  2849  705
237  2833  1010
249  2844  1333
245  2849  1641
187  2864  1931
177  2882  2414
149  2881  2690
128  2882  3088
126  2853  3535
141  2816  3639
147  2773  3922
183  2714  4036
257  2704  4083
297  2688  4041
337  2634  4095
181  3198  305
165  3200  387
165  3198  648
169  3158  985
181  3170  1289
181  3188  1580
143  3186  1879
112  3214  2350
122  3244  2642
102  3260  3067
104  3232  3487
124  3182  3593
120  3135  3890
193  3059  4034
271  3011  4051
323  2977  4038
337  2907  4095
159  3526  257
153  3541  343
143  3526  560
134  3537  884
132  3493  1184
159  3506  1529
229  3505  1817
209  3508  2281
191  3527  2561
173  3542  2960
175  3525  3392
165  3557  3542
189  3514  3886
243  3412  3988
333  3301  4019
401  3264  3996
434  3228  4031
209  3770  305
209  3758  381
183  3746  604
183  3754  911
199  3734  1233
181  3738  1576
161  3770  1807
155  3786  2306
143  3822  2618
118  3822  3019
153  3822  3412
126  3834  3572
181  3810  3914
241  3742  4040
299  3597  4059
373  3545  4089
418  3501  4079
175  3963  241
185  3981  370
149  3972  685
143  3967  943
128  3990  1200
98  4013  1564
161  3981  1762
155  3979  2219
149  4020  2513
165  3993  2920
181  3981  3330
108  4031  3450
201  4004  3746
257  3923  3924
299  3852  4007
357  3771  4038
385  3645  4095
183  4063  418
203  4089  535
173  4089  775
177  4085  1068
161  4075  1277
175  4075  1622
215  4055  1795
201  4065  2219
195  4075  2489
179  4065  2849
163  4085  3244
145  4085  3381
231  4063  3673
305  4043  3855
363  4015  3987
399  3924  4048
401  3870  4095
303  4066  418
287  4069  521
293  4095  785
277  4082  1071
281  4069  1325
293  4095  1651
385  4031  1925
375  4028  2318
375  4044  2545
371  4031  2890
343  4070  3232
313  4063  3425
377  4070  3702
410  4041  3873
448  4038  3973
476  3999  4067
498  3950  3983
369  3983  771
353  4015  819
353  4031  964
401  3999  1172
401  3967  1606
385  3918  1734
466  4031  1863
434  3999  2248
418  4031  2393
401  4015  2794
466  3999  3003
434  4015  3292
434  4015  3549
401  3983  3645
418  3983  3742
434  3999  3758
466  3950  4095
444  482  305
460  450  558
460  466  763
467  498  917
480  482  1265
521  482  1736
472  273  2056
447  177  2522
375  177  2754
361  128  3067
332  145  3431
340  177  3528
365  177  3802
381  177  3963
374  177  4051
416  209  4089
434  353  4095
433  536  562
483  561  691
490  548  781
497  551  874
536  509  1188
516  469  1585
512  262  1891
425  153  2403
365  120  2650
342  75  2976
322  76  3392
254  155  3406
249  161  3706
258  182  3856
331  301  3963
377  413  3917
