PS/3DLUTs/WA-Filter-Film.3dl
#Created by: Generate3DLut
#Generator: Copyright 2012 by Linus Hechinger
0 256 512 767 1023
514  674  707
530  691  1112
674  835  2505
771  931  3336
819  996  3726
562  1020  723
562  1032  1096
691  1164  2449
803  1261  3328
835  1237  3710
707  2345  883
691  2337  1309
674  2369  2465
803  2441  3360
835  2425  3726
835  3276  996
803  3252  1381
819  3260  2569
851  3264  3332
883  3276  3758
980  3710  1028
947  3661  1333
931  3661  2489
980  3694  3388
964  3661  3677
827  707  771
855  707  1088
1008  867  2417
1076  964  3348
1076  1028  3710
891  1024  771
895  1076  1112
1048  1196  2497
1136  1301  3344
1124  1269  3726
1104  2361  915
1112  2361  1337
1108  2401  2561
1220  2497  3392
1188  2441  3758
1180  3288  1108
1176  3300  1377
1176  3312  2521
1188  3300  3421
1188  3340  3774
1237  3677  947
1285  3677  1365
1301  3726  2457
1269  3710  3340
1269  3726  3694
2224  899  899
2224  915  1285
2272  980  2505
2329  1012  3352
2264  1044  3742
2280  1160  851
2280  1180  1313
2296  1180  2513
2401  1313  3372
2393  1333  3742
2272  2385  899
2312  2433  1349
2441  2561  2626
2513  2610  3497
2553  2666  3918
2385  3280  996
2425  3344  1465
2529  3445  2698
2553  3445  3517
2553  3469  3902
2393  3758  1140
2441  3758  1558
2602  3870  2810
2602  3854  3645
2569  3902  3999
3248  947  1012
3180  964  1369
3216  915  2561
3236  931  3340
3212  1012  3677
3300  1261  1028
3308  1289  1421
3288  1265  2610
3300  1273  3449
3324  1237  3806
3264  2497  980
3272  2529  1469
3380  2634  2738
3404  2666  3525
3356  2650  3854
3260  3304  1028
3276  3316  1461
3441  3489  2786
3525  3565  3641
3581  3597  4047
3404  3677  980
3485  3726  1429
3565  3854  2666
3629  3934  3581
3629  3918  3918
3677  1028  1124
3661  1012  1493
3694  1060  2650
3758  1076  3517
3758  1092  3854
3790  1253  1076
3806  1269  1493
3774  1237  2585
3790  1253  3437
3774  1237  3726
3774  2457  1108
3806  2505  1493
3967  2634  2762
3950  2650  3581
3950  2634  3950
3758  3324  1060
3774  3372  1461
3934  3501  2746
4015  3629  3629
3999  3613  3999
3790  3774  1076
3790  3822  1477
3934  3934  2746
4031  4079  3645
4079  4095  4095
