PS/3DLUTs/WA-Filter-Chrom.3dl
#Created by: Generate3DLut
#Generator: Copyright 2012 by Linus Hechinger
0 128 256 384 512 639 767 895 1023
48  0  578
0  0  685
16  0  1196
48  16  2088
16  0  2786
16  0  3402
0  0  3690
0  0  3908
16  0  4047
32  108  530
0  90  658
0  86  1228
48  114  2023
16  112  2770
0  90  3465
0  96  3645
0  86  3896
0  112  3950
32  711  562
16  699  630
0  711  1132
16  691  2015
16  723  2722
0  719  3354
0  723  3637
0  723  3818
0  594  3983
32  1865  562
0  1843  680
0  1803  1192
16  1827  2074
0  1833  2770
0  1829  3382
32  1821  3645
32  1807  3884
16  1783  3983
32  2674  562
16  2642  658
32  2650  1180
48  2642  2084
48  2674  2754
32  2650  3382
48  2666  3657
16  2650  3850
32  2569  3999
0  3250  482
0  3234  626
32  3238  1208
16  3210  2035
0  3254  2770
0  3238  3374
0  3250  3593
0  3252  3852
0  3196  3934
48  3649  594
32  3649  646
64  3617  1132
64  3641  2037
48  3645  2754
48  3633  3346
48  3645  3605
48  3625  3876
64  3613  4031
16  3954  530
0  3954  618
0  3936  1124
0  3920  2009
0  3954  2714
0  3928  3324
16  3938  3581
0  3932  3840
0  3918  3967
0  4095  514
0  4047  594
0  4063  1108
0  4079  1959
0  4079  2618
0  4063  3180
0  4063  3581
0  4063  3806
0  4079  3950
66  0  691
44  0  727
28  0  1172
64  80  1871
58  80  2658
48  64  3304
38  48  3481
22  64  3812
48  0  4095
64  122  530
72  110  666
76  70  1176
54  58  2114
32  74  2802
28  64  3338
24  58  3621
38  80  3878
64  80  3950
88  707  578
80  674  646
74  695  1148
68  642  2058
40  654  2762
30  654  3330
46  638  3698
42  662  3912
64  562  4015
98  1845  498
50  1847  586
52  1823  1108
70  1855  2001
60  1859  2754
34  1833  3336
50  1849  3609
34  1835  3832
48  1783  3934
44  2674  530
6  2682  616
32  2658  1144
54  2674  1985
32  2706  2690
22  2690  3378
12  2690  3573
16  2682  3874
64  2569  3902
60  3250  514
38  3264  622
76  3290  1172
92  3206  2001
76  3236  2746
70  3264  3338
54  3248  3565
80  3250  3860
48  3196  3967
90  3661  546
64  3657  654
98  3641  1176
114  3625  2084
116  3629  2770
106  3617  3376
106  3629  3605
116  3621  3896
16  3645  4031
58  3954  450
16  3954  584
24  3944  1148
34  3920  1929
44  3934  2706
50  3924  3374
56  3934  3521
60  3928  3844
32  3934  3870
193  4031  450
161  4031  562
128  4015  1076
177  4015  1927
177  4031  2602
145  4015  3164
161  4031  3517
145  3999  3790
161  4031  3918
682  0  626
703  0  727
699  0  1224
695  32  2066
691  0  2802
666  0  3368
699  0  3698
670  0  3884
610  16  4047
674  102  514
723  84  662
695  90  1212
682  66  2058
662  68  2826
662  74  3431
658  52  3653
670  64  3908
578  112  3967
622  727  546
658  691  634
650  715  1164
566  654  2011
518  630  2778
554  590  3394
530  542  3686
606  634  3932
498  562  3983
674  1865  546
723  1817  644
707  1787  1168
703  1829  2062
682  1845  2802
602  1849  3431
602  1762  3726
610  1793  3920
594  1766  3983
642  2674  546
731  2642  664
666  2634  1160
662  2666  2039
658  2690  2738
662  2658  3358
674  2634  3710
674  2642  3842
562  2553  3999
715  3242  482
719  3268  640
658  3232  1140
699  3216  1987
691  3240  2730
682  3238  3334
682  3222  3617
682  3236  3860
514  3180  3950
699  3653  562
691  3686  646
682  3649  1128
666  3645  2025
662  3641  2754
678  3645  3346
691  3629  3617
695  3629  3868
594  3629  3983
670  3926  466
658  3938  610
707  3932  1136
699  3904  2019
699  3930  2714
682  3954  3284
687  3934  3585
678  3918  3830
546  3902  3967
498  4095  514
546  4063  594
466  4031  1076
562  4047  1911
546  4063  2618
546  4063  3196
530  4031  3597
578  4079  3806
562  4079  3950
1746  32  562
1815  16  703
1774  32  1212
1819  48  2088
1797  16  2818
1777  0  3390
1805  48  3669
1809  32  3904
1783  32  4031
1728  102  514
1823  86  640
1813  94  1128
1795  78  2037
1789  98  2762
1754  58  3334
1770  38  3653
1815  68  3850
1815  128  4031
1803  727  546
1843  707  652
1803  715  1164
1809  695  2074
1825  707  2802
1799  626  3390
1827  594  3730
1871  642  3920
1799  594  4031
1783  1823  594
1843  1777  680
1799  1762  1108
1815  1779  2084
1787  1770  2802
1738  1716  3463
1754  1728  3758
1736  1708  3920
1799  1750  4047
1774  2682  594
1801  2658  693
1706  2634  1164
1787  2658  2094
1781  2650  2802
1779  2666  3320
1734  2650  3726
1706  2618  3862
1734  2602  3983
1839  3332  498
1849  3314  604
1799  3302  1100
1871  3278  1991
1849  3308  2706
1837  3306  3310
1825  3302  3609
1837  3290  3828
1815  3148  3950
1748  3653  498
1801  3629  664
1781  3637  1204
1805  3657  2015
1777  3657  2762
1760  3637  3380
1791  3637  3617
1805  3681  3890
1799  3645  3950
1787  3944  466
1855  3926  618
1831  3928  1160
1811  3908  2025
1815  3948  2762
1827  3918  3360
1815  3932  3637
1791  3932  3882
1815  3934  3999
1766  4095  562
1847  4095  707
1766  4063  1172
1783  4095  1991
1799  4095  2698
1799  4095  3260
1750  4079  3613
1734  4063  3822
1718  4079  3950
2553  145  691
2618  96  753
2594  96  1257
2618  112  2136
2594  112  2850
2594  112  3441
2585  80  3726
2585  80  3967
2441  96  4063
2594  130  610
2658  72  723
2618  78  1237
2642  86  2132
2642  94  2826
2618  78  3423
2602  52  3698
2618  62  3950
2602  48  4031
2634  731  594
2682  699  662
2650  699  1160
2682  678  2086
2650  703  2802
2666  687  3378
2642  646  3681
2666  666  3904
2585  578  4015
2585  1847  466
2626  1801  592
2602  1789  1104
2618  1831  2011
2642  1863  2738
2650  1847  3352
2618  1756  3649
2602  1772  3844
2553  1799  3918
2634  2706  578
2674  2666  644
2658  2666  1168
2658  2650  2013
2650  2658  2762
2602  2626  3384
2594  2594  3657
2594  2602  3908
2602  2618  3950
2618  3322  530
2682  3278  658
2658  3278  1168
2666  3264  2086
2658  3280  2770
2666  3250  3384
2658  3260  3690
2658  3260  3886
2585  3148  4015
2618  3690  530
2690  3629  672
2650  3641  1204
2674  3665  2021
2634  3665  2746
2594  3661  3386
2610  3653  3613
2618  3649  3902
2553  3645  3983
2618  3985  498
2690  3936  576
2658  3946  1080
2666  3938  1947
2658  3958  2690
2650  3963  3278
2650  3963  3541
2650  3956  3806
2634  3886  3950
2634  4079  707
2682  4031  819
2650  4031  1317
2682  4047  2136
2666  4063  2810
2650  4047  3372
2650  4047  3774
2650  4031  4047
2634  4095  3822
3230  64  594
3296  16  693
3278  32  1224
3282  16  2068
3280  32  2818
3264  16  3400
3278  32  3633
3280  16  3928
3180  32  4047
3218  122  530
3266  80  630
3236  86  1132
3240  94  2054
3250  102  2762
3234  74  3398
3248  80  3625
3234  70  3902
3164  80  3983
3232  747  546
3284  691  652
3260  691  1140
3282  691  2058
3262  711  2762
3208  691  3316
3236  727  3633
3238  695  3888
3196  578  3999
3180  1819  594
3228  1770  701
3248  1762  1224
3256  1791  2082
3226  1793  2778
3240  1797  3322
3234  1766  3653
3222  1748  3880
3228  1750  4047
3246  2698  626
3318  2666  676
3276  2658  1144
3284  2650  2048
3256  2658  2794
3312  2642  3388
3298  2618  3698
3270  2618  3928
3131  2602  3999
3196  3348  514
3228  3300  614
3248  3302  1120
3258  3264  2019
3258  3308  2730
3170  3306  3298
3184  3318  3605
3166  3286  3812
3260  3148  3983
3202  3669  530
3248  3633  628
3260  3653  1188
3208  3686  2015
3220  3661  2746
3248  3645  3368
3244  3649  3577
3230  3649  3864
3131  3629  3950
3190  3958  546
3254  3910  638
3232  3926  1164
3238  3914  2011
3266  3942  2746
3276  3926  3382
3260  3932  3593
3276  3922  3900
3196  3918  3999
3131  4095  546
3196  4079  626
3148  4079  1140
3196  4095  2007
3180  4095  2682
3164  4095  3244
3148  4095  3581
3164  4095  3870
3164  4079  3983
3589  96  434
3673  16  576
3617  32  1120
3641  64  1927
3621  64  2690
3609  48  3340
3601  80  3501
3593  48  3822
3629  48  3886
3553  139  578
3601  100  670
3585  90  1196
3609  98  2041
3589  116  2770
3581  100  3400
3641  70  3613
3617  90  3902
3533  128  4015
3625  727  562
3669  678  662
3605  699  1128
3637  674  2056
3641  687  2746
3633  670  3358
3637  678  3661
3645  691  3892
3613  546  4031
3597  1911  530
3641  1835  600
3593  1851  1104
3625  1861  1983
3601  1865  2730
3589  1845  3423
3605  1831  3645
3613  1841  3888
3581  1815  3950
3557  2722  514
3605  2682  634
3557  2698  1168
3629  2682  1985
3581  2674  2722
3597  2682  3294
3577  2682  3553
3569  2682  3838
3533  2618  3918
3597  3252  530
3637  3234  622
3613  3266  1156
3657  3240  2007
3617  3264  2722
3629  3238  3370
3597  3232  3565
3625  3248  3894
3613  3196  3967
3625  3673  594
3690  3613  689
3649  3637  1204
3661  3653  2078
3641  3653  2794
3613  3641  3374
3649  3629  3645
3653  3613  3904
3661  3613  4047
3565  3967  450
3597  3928  604
3589  3924  1144
3621  3910  1961
3593  3940  2730
3593  3930  3358
3593  3936  3529
3605  3940  3870
3581  3934  3886
3661  4063  482
3758  3999  578
3726  4015  1092
3742  4015  1895
3710  4031  2602
3694  4015  3164
3694  4031  3533
3726  4015  3822
3742  4015  3886
3916  32  626
3965  0  721
3920  0  1220
3965  0  2104
3922  0  2802
3926  0  3404
3936  0  3669
3948  0  3942
3870  0  4047
3894  116  514
3952  68  668
3920  74  1224
3938  68  2009
3938  90  2778
3936  74  3435
3932  74  3609
3936  74  3920
3886  112  3967
3864  731  546
3918  695  634
3904  703  1132
3928  674  2023
3902  674  2722
3886  695  3298
3880  682  3581
3912  707  3872
3854  578  3967
3932  1805  578
3993  1785  699
3942  1791  1192
3971  1801  2048
3948  1805  2762
3928  1819  3376
3975  1819  3669
3934  1803  3920
3902  1783  3983
3924  2674  546
3973  2650  646
3946  2650  1172
3930  2650  2084
3914  2658  2746
3928  2642  3338
3932  2666  3597
3932  2650  3894
3918  2553  4015
3890  3280  594
3942  3238  717
3902  3250  1176
3936  3236  2023
3916  3252  2770
3920  3254  3390
3920  3248  3665
3924  3236  3912
3870  3196  3967
3894  3649  578
3938  3641  630
3938  3641  1164
3924  3625  2052
3924  3649  2754
3928  3657  3340
3928  3645  3593
3928  3629  3878
3934  3629  3983
3896  3965  514
3880  3958  620
3912  3942  1128
3948  3924  2054
3916  3934  2706
3880  3948  3308
3884  3954  3577
3894  3954  3860
3902  3918  3983
3838  4095  530
3870  4095  610
3854  4079  1124
3886  4095  1975
3870  4095  2682
3854  4079  3228
3870  4095  3565
3854  4079  3838
3838  4095  3934
4095  48  594
4095  48  707
4095  16  1204
4095  64  2056
4095  64  2714
4095  32  3276
4095  32  3629
4095  32  3918
4095  32  4015
4047  112  610
4095  80  691
4079  64  1204
4095  96  1991
4095  96  2698
4063  80  3260
4079  96  3597
4079  96  3886
4079  112  3983
4063  642  578
4095  562  691
4063  546  1156
4095  610  2007
4063  578  2682
4079  594  3276
4047  578  3581
4079  562  3870
4063  546  3983
4047  1766  546
4095  1734  658
4095  1750  1204
4095  1766  2056
4095  1750  2746
4095  1766  3292
4079  1750  3629
4095  1766  3934
4095  1750  4031
3999  2666  578
4063  2618  691
4031  2618  1188
4063  2650  2039
4047  2650  2746
4031  2634  3308
4031  2650  3661
4015  2618  3918
4095  2602  4047
4095  3180  498
4095  3164  642
4095  3131  1124
4095  3164  1927
4095  3180  2634
4095  3196  3228
4095  3164  3581
4095  3164  3870
4063  3196  3983
4047  3694  530
4095  3645  642
4047  3645  1156
4047  3645  1991
4063  3645  2666
4047  3629  3228
4047  3645  3581
4063  3629  3870
4047  3645  3983
4063  3950  546
4095  3886  658
4063  3886  1156
4095  3918  2023
4095  3918  2698
4095  3902  3260
4095  3918  3629
4095  3886  3870
4079  3902  3999
4047  4095  546
4095  4095  658
4063  4079  1156
4095  4095  2023
4079  4095  2698
4063  4095  3260
4095  4095  3613
4079  4079  3886
4079  4095  3999
