PS/3DLUTs/WA-Filter-Film.3dl
#Created by: Generate3DLut
#Generator: Copyright 2012 by Linus Hechinger
0 128 256 384 512 639 767 895 1023
514  674  707
498  674  707
530  691  1112
626  803  1732
674  835  2505
723  899  3001
771  931  3336
771  964  3605
819  996  3726
578  638  739
562  654  695
594  705  1128
691  811  1728
755  849  2449
803  907  2881
835  945  3332
867  978  3521
851  947  3710
562  1020  723
530  1036  705
562  1032  1096
658  1120  1722
691  1164  2449
755  1228  2917
803  1261  3328
803  1281  3549
835  1237  3710
674  1728  851
642  1746  831
626  1672  1208
723  1716  1742
755  1766  2457
803  1803  2971
819  1849  3328
867  1883  3623
867  1863  3774
707  2345  883
691  2361  887
691  2337  1309
658  2369  1797
674  2369  2465
787  2433  3003
803  2441  3360
819  2473  3595
835  2425  3726
771  2846  931
771  2862  923
771  2862  1361
803  2846  1837
819  2848  2521
819  2860  2991
787  2883  3352
851  2931  3625
851  2891  3742
835  3276  996
819  3292  984
803  3252  1381
819  3276  1909
819  3260  2569
851  3276  2953
851  3264  3332
867  3284  3585
883  3276  3758
835  3595  1012
819  3601  998
803  3595  1373
819  3607  1885
819  3585  2561
835  3601  2985
819  3585  3288
835  3585  3565
835  3581  3694
980  3710  1028
964  3726  996
947  3661  1333
915  3661  1831
931  3661  2489
947  3694  2858
980  3694  3388
964  3710  3581
964  3661  3677
550  642  691
518  674  676
566  674  1140
642  787  1714
721  835  2441
785  915  2989
783  931  3312
789  996  3599
835  964  3677
578  648  691
556  654  703
602  672  1160
691  797  1726
729  837  2425
781  905  2959
851  927  3344
867  945  3583
899  931  3677
590  976  771
568  992  747
596  1004  1120
680  1080  1781
741  1172  2457
783  1200  2965
851  1228  3372
861  1265  3591
851  1220  3758
656  1734  851
624  1752  801
606  1736  1136
628  1764  1700
733  1799  2465
747  1849  2907
803  1871  3324
821  1903  3531
835  1879  3742
707  2353  851
685  2369  871
701  2353  1277
682  2369  1720
715  2377  2497
777  2425  2973
803  2465  3332
839  2489  3583
803  2425  3677
771  2846  931
751  2877  931
781  2921  1309
765  2893  1805
781  2866  2521
797  2925  2961
819  2925  3332
867  2987  3583
819  2907  3694
831  3284  996
811  3296  996
805  3260  1377
821  3292  1859
827  3284  2585
819  3308  3021
821  3272  3352
853  3304  3591
867  3292  3758
871  3557  1124
845  3573  1068
873  3557  1425
871  3573  2017
849  3547  2618
867  3557  3077
873  3547  3441
867  3579  3633
867  3533  3790
964  3613  964
947  3629  931
931  3645  1317
931  3677  1847
980  3661  2409
980  3677  2891
947  3661  3324
931  3661  3517
964  3694  3677
827  707  771
811  723  715
855  707  1088
907  835  1720
1008  867  2417
1060  931  2981
1076  964  3348
1124  1012  3565
1076  1028  3710
899  672  755
883  689  735
879  682  1128
980  809  1795
1024  849  2457
1060  907  2953
1112  939  3352
1140  962  3603
1172  964  3774
891  1024  771
863  1040  715
895  1076  1112
984  1152  1740
1048  1196  2497
1076  1265  2953
1136  1301  3344
1164  1329  3619
1124  1269  3726
1004  1760  851
984  1762  859
996  1732  1220
1040  1764  1779
1092  1829  2553
1124  1875  2993
1204  1883  3421
1208  1943  3639
1124  1927  3742
1104  2361  915
1076  2377  901
1112  2361  1337
1080  2385  1831
1108  2401  2561
1136  2449  3039
1220  2497  3392
1245  2505  3673
1188  2441  3758
1120  2869  964
1104  2897  984
1136  2883  1393
1144  2889  1917
1140  2885  2545
1152  2915  3051
1196  2945  3384
1241  2989  3673
1076  2939  3758
1180  3288  1108
1148  3320  1010
1176  3300  1377
1180  3316  1975
1176  3312  2521
1168  3312  3067
1188  3300  3421
1200  3332  3603
1188  3340  3774
1172  3617  1060
1144  3633  1010
1180  3637  1381
1156  3627  1949
1172  3611  2610
1164  3611  3111
1172  3623  3400
1156  3601  3631
1124  3597  3726
1237  3677  947
1220  3677  947
1285  3677  1365
1285  3742  1911
1301  3726  2457
1333  3742  2971
1269  3710  3340
1269  3694  3549
1269  3726  3694
1465  851  883
1449  867  859
1463  851  1233
1508  915  1841
1544  931  2497
1590  996  2985
1612  996  3372
1628  1028  3637
1686  1012  3774
1562  735  803
1544  751  799
1572  743  1200
1604  787  1770
1658  853  2449
1722  899  3005
1756  931  3364
1789  984  3617
1783  996  3726
1608  1072  819
1578  1100  817
1656  1096  1289
1666  1128  1807
1720  1216  2497
1774  1224  3035
1827  1297  3400
1831  1317  3669
1895  1301  3822
1632  1702  883
1602  1720  873
1624  1696  1281
1708  1857  1903
1774  1891  2626
1821  1927  3162
1841  1975  3501
1871  1989  3736
1879  1959  3854
1720  2377  964
1690  2393  931
1710  2369  1305
1779  2489  1907
1762  2473  2594
1825  2529  3077
1879  2577  3485
1917  2610  3710
1831  2618  3854
1686  2941  947
1668  2959  909
1692  2999  1325
1801  3029  1943
1787  3051  2545
1809  3053  3059
1861  3099  3445
1847  3117  3655
1927  2987  3790
1768  3304  1028
1752  3308  986
1777  3344  1425
1843  3425  2009
1845  3404  2642
1859  3392  3107
1841  3368  3433
1913  3433  3720
1895  3437  3838
1843  3607  1076
1827  3613  1032
1835  3633  1441
1907  3679  2039
1911  3702  2658
1921  3683  3129
1925  3679  3473
1913  3706  3724
1943  3677  3870
1799  3774  1060
1766  3790  1028
1815  3806  1461
1895  3902  2023
1879  3886  2666
1927  3902  3019
1879  3838  3469
1879  3822  3677
1879  3854  3822
2224  899  899
2200  915  887
2224  915  1285
2248  947  1861
2272  980  2505
2304  1012  2993
2329  1012  3352
2369  1060  3633
2264  1044  3742
2280  807  867
2248  833  829
2272  823  1216
2248  855  1791
2304  871  2473
2337  919  2975
2353  958  3332
2393  994  3577
2329  1012  3742
2280  1160  851
2264  1176  887
2280  1180  1313
2304  1216  1827
2296  1180  2513
2361  1261  3035
2401  1313  3372
2417  1333  3625
2393  1333  3742
2264  1740  899
2248  1756  855
2288  1813  1281
2377  1895  1929
2401  1897  2610
2457  1963  3079
2465  1977  3449
2505  2013  3716
2473  1975  3854
2272  2385  899
2256  2401  873
2312  2433  1349
2393  2513  1935
2441  2561  2626
2505  2602  3115
2513  2610  3497
2561  2666  3774
2553  2666  3918
2361  2893  996
2329  2909  976
2385  2941  1429
2457  2997  2029
2513  3097  2682
2505  3101  3184
2529  3119  3561
2569  3164  3804
2569  3067  3934
2385  3280  996
2369  3296  994
2425  3344  1465
2505  3441  2092
2529  3445  2698
2553  3457  3210
2553  3445  3517
2585  3477  3778
2553  3469  3902
2473  3567  1060
2441  3583  1102
2481  3599  1546
2537  3692  2048
2594  3724  2842
2594  3746  3330
2585  3734  3585
2585  3728  3864
2521  3774  3934
2393  3758  1140
2377  3774  1092
2441  3758  1558
2569  3838  2120
2602  3870  2810
2618  3886  3131
2602  3854  3645
2602  3886  3870
2569  3902  3999
2826  915  980
2796  931  941
2778  947  1329
2782  996  1925
2804  980  2618
2808  1028  3021
2852  1012  3437
2887  1028  3643
2778  1044  3838
2856  857  947
2840  873  941
2873  879  1345
2814  883  1855
2840  857  2553
2790  915  3009
2862  933  3356
2871  970  3619
2858  996  3774
2866  1216  1012
2850  1233  986
2883  1261  1409
2826  1241  1903
2838  1233  2602
2856  1261  3043
2915  1293  3421
2949  1341  3675
2891  1269  3774
2860  1797  1028
2842  1813  990
2895  1829  1425
2975  1925  2015
2953  1897  2690
3001  1943  3156
3021  1945  3517
3033  1993  3762
2955  1975  3886
2810  2433  1028
2794  2449  1004
2826  2457  1381
2931  2553  2009
2981  2585  2714
2983  2610  3184
3045  2658  3569
3059  2658  3774
2971  2666  3934
2786  2943  947
2770  2957  935
2832  3001  1337
2883  3041  1961
2949  3150  2650
2981  3166  3142
3115  3228  3561
3087  3256  3790
3115  3115  3918
2869  3296  1012
2848  3304  976
2937  3332  1417
2991  3437  2048
3071  3477  2746
3103  3513  3220
3127  3505  3569
3150  3561  3858
3051  3565  3967
2929  3585  1044
2899  3611  1024
2963  3663  1421
3015  3700  2088
3107  3786  2762
3146  3842  3272
3148  3814  3601
3164  3824  3832
3067  3822  3983
2858  3758  1044
2842  3774  1012
2875  3806  1445
2971  3918  2056
3051  3950  2746
3115  4031  3180
3035  3967  3613
3051  3967  3822
3035  3983  3950
3248  947  1012
3220  964  984
3180  964  1369
3240  947  1875
3216  915  2561
3212  947  2999
3236  931  3340
3264  964  3583
3212  1012  3677
3304  901  1028
3288  917  996
3296  907  1389
3264  931  1875
3288  921  2553
3292  943  3029
3296  937  3348
3300  966  3615
3372  964  3677
3300  1261  1028
3276  1289  1008
3308  1289  1421
3280  1293  1933
3288  1265  2610
3312  1285  3017
3300  1273  3449
3312  1305  3641
3324  1237  3806
3280  1897  1028
3268  1915  982
3288  1901  1397
3344  2013  1983
3344  1995  2674
3340  2009  3039
3368  2009  3465
3340  2039  3679
3356  2023  3854
3264  2497  980
3232  2497  1010
3272  2529  1469
3332  2610  1965
3380  2634  2738
3352  2658  3206
3404  2666  3525
3425  2690  3792
3356  2650  3854
3276  2941  1028
3264  2943  990
3304  2963  1417
3368  3061  2029
3445  3119  2754
3485  3170  3194
3489  3182  3585
3529  3212  3854
3501  3115  3886
3260  3304  1028
3244  3316  1014
3276  3316  1461
3364  3453  1993
3441  3489  2786
3493  3565  3266
3525  3565  3641
3565  3605  3912
3581  3597  4047
3312  3579  1124
3292  3589  1094
3332  3611  1493
3417  3698  2120
3493  3766  2866
3557  3836  3324
3573  3836  3738
3561  3862  3930
3613  3822  4095
3404  3677  980
3388  3694  980
3485  3726  1429
3533  3806  1975
3565  3854  2666
3597  3902  3019
3629  3934  3581
3613  3934  3790
3629  3918  3918
3531  996  1012
3515  1012  1032
3525  964  1433
3505  996  1953
3495  980  2602
3485  1012  3095
3507  1012  3376
3525  996  3679
3501  996  3742
3577  972  1060
3551  988  1044
3555  972  1413
3529  966  1921
3551  984  2529
3541  972  2975
3545  982  3332
3559  968  3553
3581  980  3758
3559  1301  1028
3543  1337  1022
3579  1345  1385
3565  1345  1945
3555  1329  2610
3565  1345  3017
3575  1325  3356
3569  1353  3625
3565  1269  3742
3611  1899  1044
3605  1915  1036
3627  1917  1453
3698  2007  2088
3708  2009  2762
3677  2023  3137
3708  2039  3513
3692  2023  3726
3629  2023  3886
3625  2489  1060
3593  2505  1052
3641  2537  1465
3714  2618  2078
3766  2658  2818
3756  2674  3256
3764  2666  3521
3754  2674  3810
3758  2618  3902
3589  2947  1060
3593  2991  1052
3631  3007  1481
3714  3091  2146
3756  3123  2826
3806  3202  3316
3792  3186  3577
3798  3202  3844
3710  3180  3934
3577  3336  1076
3571  3356  1064
3607  3352  1457
3694  3445  2116
3748  3505  2810
3818  3581  3256
3848  3593  3657
3854  3589  3890
3854  3597  4063
3545  3607  1044
3523  3623  1000
3585  3649  1429
3655  3742  2064
3732  3804  2786
3756  3874  3268
3790  3904  3601
3808  3922  3878
3838  3918  4015
3677  3694  1028
3661  3710  996
3694  3726  1397
3790  3822  2056
3838  3886  2650
3870  3902  3148
3886  3934  3629
3967  4015  3902
3918  3983  3967
3677  1028  1124
3661  1044  1124
3661  1012  1493
3694  1060  2023
3694  1060  2650
3710  1092  3003
3758  1076  3517
3694  1092  3726
3758  1092  3854
3774  996  1092
3742  1012  1060
3758  980  1429
3758  996  1927
3742  980  2553
3758  996  2923
3758  980  3421
3758  996  3629
3726  964  3694
3790  1253  1076
3774  1269  1060
3806  1269  1493
3822  1301  1991
3774  1237  2585
3838  1285  2939
3790  1253  3437
3774  1237  3629
3774  1237  3726
3742  1879  1092
3726  1895  1060
3806  1895  1510
3854  1975  2072
3854  1991  2714
3886  2039  3083
3870  1975  3533
3822  1991  3774
3854  1975  3854
3774  2457  1108
3758  2473  1076
3806  2505  1493
3934  2602  2088
3967  2634  2762
3983  2650  3131
3950  2650  3581
3934  2618  3838
3950  2634  3950
3742  2923  1044
3758  2971  1060
3742  2955  1429
3886  3099  2039
3934  3099  2714
3983  3164  3115
3934  3164  3549
3934  3164  3838
3934  3164  3967
3758  3324  1060
3742  3340  1028
3774  3372  1461
3870  3485  2039
3934  3501  2746
3999  3581  3148
4015  3629  3629
3999  3597  3902
3999  3613  3999
3790  3581  1076
3758  3597  1044
3822  3629  1477
3902  3726  2039
3983  3758  2746
4047  3838  3164
4031  3886  3645
4063  3886  3950
4063  3902  4047
3790  3774  1076
3758  3790  1044
3790  3822  1477
3870  3918  2039
3934  3934  2746
4031  4031  3164
4031  4079  3645
4047  4063  3934
4079  4095  4095
