PS/3DLUTs/WA-Filter-SW.3dl
#Created by: Generate3DLut
#Generator: Copyright 2012 by Linus Hechinger
0 64 128 192 256 320 384 448 512 575 639 703 767 831 895 959 1023
273  273  273
321  321  327
418  418  430
530  530  548
626  626  650
723  723  783
851  851  861
947  947  973
1060  1060  1100
1172  1172  1216
1301  1301  1315
1461  1461  1464
1606  1606  1626
1750  1750  1807
1895  1895  1965
2088  2088  2153
2296  2296  2296
353  362  353
369  378  378
434  443  452
530  542  566
626  638  674
723  735  783
867  879  875
980  992  1000
1076  1091  1116
1204  1210  1226
1333  1342  1375
1493  1506  1497
1622  1640  1646
1766  1785  1809
1927  1939  1967
2104  2116  2156
2296  2296  2296
450  462  450
450  468  459
466  484  484
530  554  566
626  644  662
723  747  783
867  891  875
964  994  989
1076  1118  1132
1188  1212  1233
1317  1341  1373
1477  1508  1482
1606  1648  1634
1766  1809  1816
1911  1941  1961
2088  2118  2153
2296  2296  2296
530  557  530
530  575  545
530  557  548
546  591  591
610  655  670
739  766  784
867  903  875
964  1009  989
1076  1130  1124
1188  1224  1233
1333  1360  1375
1510  1537  1513
1622  1676  1646
1750  1823  1807
1895  1949  1955
2088  2133  2153
2280  2280  2280
626  662  626
626  674  638
626  674  650
626  662  653
642  691  691
739  763  769
867  903  873
964  1012  984
1060  1132  1108
1172  1245  1239
1317  1353  1359
1493  1542  1497
1622  1706  1650
1750  1847  1807
1895  1967  1955
2088  2160  2166
2280  2280  2280
707  767  707
707  782  722
707  797  743
723  783  759
707  797  779
771  816  816
867  897  871
964  1024  984
1092  1152  1124
1204  1265  1249
1349  1364  1363
1526  1556  1528
1638  1713  1658
1750  1871  1807
1911  1971  1951
2088  2178  2166
2280  2280  2280
851  859  851
851  859  863
851  859  875
851  861  896
851  861  911
851  865  957
851  861  861
980  986  995
1076  1082  1100
1204  1210  1238
1333  1335  1347
1510  1512  1511
1638  1644  1650
1766  1777  1802
1911  1919  1951
2072  2080  2124
2280  2280  2280
964  979  964
964  979  973
964  979  982
964  989  1009
964  989  1024
964  984  1024
964  979  970
980  1005  1005
1076  1106  1124
1188  1213  1244
1317  1337  1373
1493  1514  1497
1622  1652  1646
1766  1802  1816
1895  1930  1965
2072  2097  2137
2280  2280  2280
1076  1108  1076
1076  1108  1088
1076  1108  1100
1044  1092  1098
1044  1092  1116
1044  1100  1149
1076  1116  1086
1076  1116  1101
1092  1132  1132
1172  1204  1216
1301  1333  1357
1510  1526  1512
1622  1662  1642
1766  1823  1816
1911  1959  1971
2104  2136  2156
2296  2296  2296
1204  1226  1204
1204  1249  1216
1204  1238  1222
1188  1233  1224
1188  1233  1237
1188  1233  1249
1204  1238  1210
1204  1238  1219
1204  1238  1228
1188  1255  1255
1317  1361  1373
1493  1527  1496
1622  1688  1646
1750  1839  1807
1911  1966  1961
2088  2154  2166
2296  2296  2296
1301  1371  1301
1301  1399  1322
1301  1385  1337
1301  1371  1346
1301  1371  1361
1301  1385  1391
1301  1385  1313
1301  1385  1331
1301  1385  1349
1301  1385  1367
1317  1387  1387
1526  1540  1527
1638  1680  1650
1783  1867  1825
1927  1969  1957
2104  2174  2169
2296  2296  2296
1477  1482  1477
1477  1484  1498
1477  1483  1514
1477  1483  1532
1477  1483  1550
1477  1482  1553
1477  1482  1487
1477  1482  1503
1477  1482  1518
1477  1482  1533
1477  1484  1576
1510  1515  1515
1622  1627  1642
1766  1773  1816
1911  1915  1951
2088  2093  2153
2296  2296  2296
1622  1638  1622
1622  1650  1643
1622  1642  1652
1622  1646  1676
1622  1646  1694
1622  1642  1697
1622  1642  1632
1622  1642  1647
1622  1642  1662
1622  1642  1677
1622  1650  1720
1622  1638  1626
1638  1658  1658
1750  1783  1807
1895  1923  1965
2072  2096  2150
2296  2296  2296
1750  1786  1750
1750  1800  1771
1750  1793  1787
1766  1802  1812
1766  1802  1827
1766  1809  1857
1766  1809  1779
1766  1809  1797
1766  1809  1815
1766  1809  1833
1766  1809  1851
1750  1800  1757
1750  1807  1783
1766  1809  1809
1911  1960  1981
2056  2105  2147
2296  2296  2296
1911  1951  1911
1911  1971  1929
1911  1971  1947
1927  1977  1972
1927  1977  1987
1927  1967  1987
1927  1967  1935
1927  1967  1947
1927  1967  1959
1927  1967  1971
1927  1977  1997
1911  1971  1917
1911  1971  1935
1911  1981  1960
1927  1967  1967
2072  2122  2137
2296  2296  2296
2039  2131  2039
2039  2157  2067
2039  2157  2094
2072  2163  2135
2072  2163  2156
2072  2150  2162
2056  2147  2070
2056  2147  2091
2088  2153  2128
2088  2153  2143
2088  2179  2186
2039  2170  2050
2039  2170  2080
2072  2176  2128
2072  2137  2122
2088  2179  2179
2296  2296  2296
2200  2200  2200
2216  2216  2216
2232  2232  2232
2264  2264  2264
2296  2296  2296
2312  2312  2312
2312  2312  2312
2329  2329  2329
2264  2264  2264
2280  2280  2280
2312  2312  2312
2264  2264  2264
2280  2280  2280
2280  2280  2280
2312  2312  2312
2361  2361  2361
2296  2296  2296
304  289  289
362  353  362
410  385  434
581  578  587
648  642  666
732  723  768
863  851  859
949  931  962
1130  1124  1140
1203  1188  1244
1313  1301  1357
1479  1461  1467
1588  1558  1598
1785  1766  1809
1900  1879  1949
2031  2007  2112
2312  2312  2312
329  329  305
410  410  410
545  545  560
628  628  664
693  693  747
779  779  875
963  963  958
1062  1062  1074
1184  1184  1204
1271  1271  1319
1415  1415  1481
1634  1634  1626
1758  1758  1766
1919  1919  1951
2058  2058  2100
2244  2244  2284
2393  2393  2393
443  452  434
533  536  533
552  558  558
635  644  653
742  745  751
844  853  880
973  982  970
1075  1090  1085
1193  1214  1228
1303  1321  1351
1438  1447  1471
1631  1640  1625
1768  1787  1774
1942  1957  1962
2081  2090  2102
2276  2288  2316
2457  2457  2457
552  564  546
632  644  632
635  653  644
641  671  671
703  727  739
815  839  863
976  1000  972
1081  1123  1095
1190  1226  1220
1300  1330  1340
1447  1483  1514
1640  1676  1628
1778  1832  1787
1896  1962  1940
2048  2096  2104
2202  2238  2262
2393  2393  2393
638  674  626
732  759  732
735  771  747
738  783  768
722  767  767
809  827  833
957  984  953
1075  1120  1085
1203  1249  1228
1300  1345  1340
1454  1481  1487
1634  1670  1626
1758  1831  1766
1922  2003  1958
2061  2124  2110
2247  2292  2297
2441  2441  2441
745  769  739
828  864  828
844  880  853
802  862  832
802  862  847
850  910  910
976  1024  972
1107  1167  1117
1203  1264  1228
1297  1345  1329
1457  1506  1502
1618  1666  1610
1761  1870  1770
1916  2000  1944
2055  2115  2090
2247  2307  2297
2441  2441  2441
863  859  851
960  956  960
966  960  984
963  958  993
949  943  1004
949  943  1022
982  976  976
1101  1098  1107
1203  1198  1228
1297  1293  1329
1457  1453  1502
1631  1628  1625
1788  1781  1795
1916  1909  1944
2058  2052  2100
2247  2242  2297
2409  2409  2409
952  967  931
1075  1085  1075
1065  1079  1086
1062  1074  1098
1062  1074  1116
1062  1074  1134
1056  1064  1052
1104  1112  1112
1209  1223  1245
1313  1321  1345
1470  1476  1504
1618  1626  1610
1761  1780  1770
1938  1956  1974
2080  2096  2136
2253  2267  2324
2473  2473  2473
1088  1108  1076
1203  1228  1203
1200  1220  1212
1200  1220  1224
1200  1220  1237
1203  1228  1264
1203  1228  1198
1203  1228  1213
1206  1237  1237
1297  1317  1329
1437  1477  1526
1630  1670  1614
1764  1815  1774
1932  1967  1960
2074  2104  2116
2244  2264  2284
2409  2409  2409
1200  1233  1188
1326  1350  1326
1313  1345  1325
1319  1367  1355
1319  1367  1373
1329  1361  1377
1329  1361  1325
1329  1361  1337
1332  1372  1357
1329  1361  1361
1396  1436  1451
1628  1644  1624
1739  1796  1746
1922  1994  1958
2061  2117  2110
2218  2266  2278
2441  2441  2441
1316  1371  1301
1444  1499  1444
1431  1497  1449
1447  1514  1483
1460  1516  1506
1463  1530  1536
1450  1528  1443
1450  1528  1464
1431  1497  1461
1447  1514  1495
1454  1487  1487
1634  1678  1626
1768  1835  1774
1929  1995  1953
2058  2124  2100
2228  2272  2268
2425  2425  2425
1506  1497  1493
1621  1611  1621
1608  1596  1626
1611  1597  1653
1624  1612  1678
1640  1628  1712
1614  1598  1606
1614  1598  1630
1595  1581  1630
1611  1597  1667
1588  1568  1698
1653  1643  1643
1795  1787  1799
1945  1933  1969
2071  2061  2106
2231  2221  2281
2377  2377  2377
1637  1642  1622
1765  1770  1765
1765  1770  1781
1755  1762  1798
1755  1762  1819
1752  1758  1825
1765  1770  1760
1765  1770  1776
1752  1758  1783
1755  1762  1812
1755  1762  1833
1755  1762  1741
1776  1779  1779
1941  1951  1981
2119  2124  2154
2280  2280  2280
2473  2473  2473
1785  1809  1766
1913  1937  1913
1922  1958  1949
1929  1953  1965
1929  1953  1983
1929  1953  2001
1903  1935  1895
1903  1935  1919
1926  1946  1951
1926  1946  1966
1929  1953  1995
1945  1969  1933
1929  1953  1935
1925  1965  1965
2051  2087  2114
2228  2244  2268
2409  2409  2409
1945  1987  1927
2074  2116  2074
2080  2136  2104
2106  2148  2142
2106  2148  2160
2103  2138  2163
2103  2138  2098
2103  2138  2113
2093  2142  2128
2093  2142  2149
2093  2142  2170
2087  2122  2077
2093  2142  2100
2106  2148  2130
2109  2158  2158
2221  2270  2291
2441  2441  2441
2115  2205  2088
2231  2281  2231
2249  2360  2282
2240  2320  2288
2231  2281  2276
2231  2281  2291
2234  2294  2228
2240  2320  2256
2250  2310  2280
2247  2297  2287
2241  2271  2274
2218  2278  2206
2221  2291  2228
2260  2300  2276
2237  2307  2286
2263  2313  2313
2441  2441  2441
2296  2296  2296
2425  2425  2425
2425  2425  2425
2409  2409  2409
2409  2409  2409
2409  2409  2409
2409  2409  2409
2409  2409  2409
2425  2425  2425
2425  2425  2425
2425  2425  2425
2409  2409  2409
2409  2409  2409
2393  2393  2393
2409  2409  2409
2425  2425  2425
2377  2377  2377
438  401  401
484  466  475
474  450  474
554  530  566
652  610  695
729  723  738
859  835  843
968  931  962
1096  1060  1108
1214  1172  1250
1323  1317  1331
1495  1477  1480
1642  1606  1630
1787  1750  1793
1925  1895  1945
2136  2088  2192
2280  2280  2280
464  449  434
542  536  536
582  564  582
650  638  662
731  719  755
843  831  879
982  973  970
1094  1085  1091
1218  1203  1228
1315  1300  1340
1453  1441  1485
1646  1634  1626
1797  1782  1787
1947  1929  1953
2086  2071  2106
2278  2263  2313
2409  2409  2409
464  464  434
568  568  565
644  644  644
727  727  745
811  811  835
925  925  989
1090  1090  1070
1192  1192  1186
1331  1331  1341
1439  1439  1474
1594  1594  1642
1777  1777  1741
1927  1927  1911
2088  2088  2096
2220  2220  2244
2403  2403  2452
2569  2569  2569
564  573  546
640  655  625
747  759  747
763  775  775
823  841  859
945  961  991
1084  1096  1068
1196  1208  1192
1331  1346  1341
1455  1476  1490
1598  1610  1630
1791  1803  1770
1947  1965  1935
2114  2135  2121
2252  2270  2276
2429  2447  2471
2585  2585  2585
644  662  626
731  755  719
837  855  837
821  839  830
843  867  867
945  976  991
1094  1112  1082
1214  1257  1207
1333  1381  1349
1433  1469  1463
1594  1630  1642
1803  1839  1772
1959  2007  1943
2104  2152  2112
2236  2272  2260
2417  2441  2445
2585  2585  2585
757  784  739
837  864  828
939  976  939
929  975  944
925  989  968
972  1008  1008
1088  1106  1080
1202  1248  1197
1343  1406  1357
1453  1489  1473
1608  1635  1632
1797  1842  1771
1953  2016  1939
2114  2177  2121
2262  2307  2282
2433  2469  2461
2585  2585  2585
895  887  883
982  970  973
1084  1068  1084
1096  1072  1114
1096  1072  1132
1084  1068  1120
1086  1058  1058
1208  1184  1202
1319  1307  1325
1447  1435  1462
1598  1582  1630
1791  1774  1770
1941  1921  1931
2108  2084  2114
2242  2214  2270
2421  2413  2435
2602  2602  2602
1008  1006  996
1090  1085  1075
1202  1197  1202
1212  1208  1224
1212  1208  1237
1212  1208  1249
1212  1208  1196
1228  1224  1224
1333  1325  1349
1455  1448  1490
1588  1583  1628
1791  1787  1770
1941  1936  1931
2098  2091  2105
2232  2224  2264
2417  2413  2445
2585  2585  2585
1096  1108  1060
1212  1220  1200
1305  1317  1305
1337  1349  1355
1337  1349  1373
1319  1325  1346
1321  1333  1297
1321  1333  1315
1347  1357  1357
1453  1461  1473
1588  1598  1628
1791  1799  1770
1941  1951  1931
2098  2112  2105
2252  2264  2276
2411  2417  2432
2602  2602  2602
1206  1221  1188
1325  1345  1313
1433  1463  1433
1459  1484  1474
1459  1484  1489
1459  1484  1505
1459  1484  1439
1459  1484  1454
1471  1507  1485
1453  1473  1473
1604  1629  1644
1787  1817  1756
1931  1961  1919
2094  2139  2103
2232  2272  2264
2403  2438  2452
2618  2618  2618
1335  1359  1317
1469  1502  1457
1568  1624  1568
1584  1640  1605
1584  1640  1626
1590  1654  1662
1590  1654  1558
1590  1654  1582
1590  1654  1606
1600  1656  1635
1610  1658  1658
1789  1797  1784
1935  1967  1927
2120  2184  2128
2262  2302  2282
2427  2451  2448
2618  2618  2618
1518  1497  1493
1652  1627  1637
1787  1756  1787
1783  1742  1807
1783  1742  1831
1777  1741  1840
1770  1740  1746
1789  1743  1780
1793  1757  1807
1793  1757  1828
1799  1758  1863
1797  1771  1771
1959  1919  1943
2102  2077  2107
2246  2221  2266
2409  2409  2409
2585  2585  2585
1646  1638  1622
1791  1783  1779
1941  1931  1941
1931  1919  1949
1931  1919  1967
1931  1919  1985
1937  1923  1909
1943  1927  1935
1941  1931  1951
1941  1931  1966
1947  1935  1995
1947  1935  1917
1957  1947  1947
2126  2108  2135
2258  2244  2286
2433  2425  2461
2585  2585  2585
1793  1800  1750
1937  1944  1916
2088  2096  2088
2098  2105  2119
2098  2105  2140
2086  2091  2131
2094  2103  2058
2088  2096  2080
2098  2105  2112
2098  2105  2133
2110  2119  2182
2104  2112  2064
2098  2105  2084
2110  2119  2119
2256  2260  2272
2417  2421  2445
2602  2602  2602
1947  1971  1911
2098  2126  2077
2254  2290  2254
2262  2282  2277
2262  2282  2292
2268  2292  2323
2258  2286  2230
2258  2286  2251
2262  2282  2272
2268  2292  2298
2268  2292  2316
2268  2292  2238
2268  2292  2256
2246  2266  2251
2268  2292  2292
2413  2437  2455
2602  2602  2602
2108  2150  2072
2258  2307  2237
2415  2478  2415
2421  2491  2451
2421  2491  2481
2415  2478  2496
2415  2478  2379
2415  2478  2406
2403  2452  2417
2409  2465  2449
2415  2478  2487
2415  2478  2370
2415  2478  2397
2401  2485  2413
2413  2455  2437
2473  2529  2529
2602  2602  2602
2280  2280  2280
2441  2441  2441
2521  2521  2521
2569  2569  2569
2585  2585  2585
2618  2618  2618
2553  2553  2553
2553  2553  2553
2585  2585  2585
2618  2618  2618
2666  2666  2666
2585  2585  2585
2618  2618  2618
2537  2537  2537
2569  2569  2569
2618  2618  2618
2618  2618  2618
543  498  498
571  562  565
601  610  604
580  562  580
662  626  674
736  691  766
901  883  887
1009  964  989
1121  1076  1116
1226  1172  1239
1330  1285  1355
1537  1510  1513
1669  1606  1634
1814  1750  1800
1953  1863  1963
2100  1991  2148
2248  2248  2248
573  555  546
618  570  570
639  609  624
669  651  669
752  722  767
825  789  861
993  963  958
1098  1062  1074
1234  1203  1228
1346  1316  1356
1458  1428  1483
1644  1608  1596
1807  1758  1766
1960  1906  1942
2087  2044  2094
2279  2237  2307
