PS/3DLUTs/WA-Filter-SW.3dl
#Created by: Generate3DLut
#Generator: Copyright 2012 by Linus Hechinger
0 128 256 384 512 639 767 895 1023
273  273  273
418  418  430
626  626  650
851  851  861
1060  1060  1100
1301  1301  1315
1606  1606  1626
1895  1895  1965
2296  2296  2296
450  462  450
466  484  484
626  644  662
867  891  875
1076  1118  1132
1317  1341  1373
1606  1648  1634
1911  1941  1961
2296  2296  2296
626  662  626
626  674  650
642  691  691
867  903  873
1060  1132  1108
1317  1353  1359
1622  1706  1650
1895  1967  1955
2280  2280  2280
851  859  851
851  859  875
851  861  911
851  861  861
1076  1082  1100
1333  1335  1347
1638  1644  1650
1911  1919  1951
2280  2280  2280
1076  1108  1076
1076  1108  1100
1044  1092  1116
1076  1116  1086
1092  1132  1132
1301  1333  1357
1622  1662  1642
1911  1959  1971
2296  2296  2296
1301  1371  1301
1301  1385  1337
1301  1371  1361
1301  1385  1313
1301  1385  1349
1317  1387  1387
1638  1680  1650
1927  1969  1957
2296  2296  2296
1622  1638  1622
1622  1642  1652
1622  1646  1694
1622  1642  1632
1622  1642  1662
1622  1650  1720
1638  1658  1658
1895  1923  1965
2296  2296  2296
1911  1951  1911
1911  1971  1947
1927  1977  1987
1927  1967  1935
1927  1967  1959
1927  1977  1997
1911  1971  1935
1927  1967  1967
2296  2296  2296
2200  2200  2200
2232  2232  2232
2296  2296  2296
2312  2312  2312
2264  2264  2264
2312  2312  2312
2280  2280  2280
2312  2312  2312
2296  2296  2296
438  401  401
474  450  474
652  610  695
859  835  843
1096  1060  1108
1323  1317  1331
1642  1606  1630
1925  1895  1945
2280  2280  2280
464  464  434
644  644  644
811  811  835
1090  1090  1070
1331  1331  1341
1594  1594  1642
1927  1927  1911
2220  2220  2244
2569  2569  2569
644  662  626
837  855  837
843  867  867
1094  1112  1082
1333  1381  1349
1594  1630  1642
1959  2007  1943
2236  2272  2260
2585  2585  2585
895  887  883
1084  1068  1084
1096  1072  1132
1086  1058  1058
1319  1307  1325
1598  1582  1630
1941  1921  1931
2242  2214  2270
2602  2602  2602
1096  1108  1060
1305  1317  1305
1337  1349  1373
1321  1333  1297
1347  1357  1357
1588  1598  1628
1941  1951  1931
2252  2264  2276
2602  2602  2602
1335  1359  1317
1568  1624  1568
1584  1640  1626
1590  1654  1558
1590  1654  1606
1610  1658  1658
1935  1967  1927
2262  2302  2282
2618  2618  2618
1646  1638  1622
1941  1931  1941
1931  1919  1967
1937  1923  1909
1941  1931  1951
1947  1935  1995
1957  1947  1947
2258  2244  2286
2585  2585  2585
1947  1971  1911
2254  2290  2254
2262  2282  2292
2258  2286  2230
2262  2282  2272
2268  2292  2316
2268  2292  2256
2268  2292  2292
2602  2602  2602
2280  2280  2280
2521  2521  2521
2585  2585  2585
2553  2553  2553
2585  2585  2585
2666  2666  2666
2618  2618  2618
2569  2569  2569
2618  2618  2618
638  626  626
654  642  648
678  642  678
911  851  861
1124  1076  1108
1345  1333  1347
1666  1606  1626
1987  1879  1969
2280  2280  2280
674  650  626
847  817  817
867  843  867
1136  1106  1086
1377  1347  1357
1630  1594  1642
1991  1943  1927
2280  2232  2264
2585  2585  2585
666  666  642
883  883  859
1072  1072  1072
1349  1349  1309
1638  1638  1606
1923  1923  1933
2292  2292  2220
2610  2610  2598
2875  2875  2875
899  859  851
1112  1082  1094
1349  1309  1349
1361  1311  1311
1622  1582  1606
1915  1885  1921
2296  2256  2264
2602  2561  2594
2923  2923  2923
1132  1108  1060
1349  1333  1325
1610  1582  1610
1642  1614  1572
1650  1630  1630
1923  1903  1933
2316  2288  2260
2610  2585  2598
2907  2907  2907
1365  1373  1317
1630  1642  1594
1903  1915  1903
1919  1931  1859
1935  1947  1911
1971  1989  1989
2308  2318  2268
2622  2636  2608
2891  2891  2891
1694  1646  1622
1995  1939  1953
2300  2244  2300
2304  2256  2244
2300  2244  2272
2308  2268  2318
2357  2284  2284
2618  2553  2602
2923  2923  2923
1975  1959  1879
2300  2286  2258
2606  2591  2606
2626  2614  2565
2638  2624  2610
2626  2614  2638
2626  2614  2577
2622  2608  2608
2907  2907  2907
2296  2296  2296
2521  2521  2521
2842  2842  2842
2891  2891  2891
2842  2842  2842
2923  2923  2923
2858  2858  2858
2891  2891  2891
2907  2907  2907
829  819  819
887  883  895
859  851  899
901  899  901
1084  1076  1108
1269  1253  1365
1602  1590  1614
1951  1943  1983
2264  2264  2264
831  855  819
1028  1060  1060
1068  1084  1108
1070  1090  1070
1313  1337  1349
1572  1600  1656
1947  1955  1951
2218  2254  2290
2618  2618  2618
829  879  819
1054  1104  1074
1295  1345  1345
1311  1361  1311
1544  1634  1598
1859  1919  1931
2216  2296  2232
2533  2594  2581
2923  2923  2923
875  875  867
1098  1098  1110
1295  1295  1345
1632  1632  1632
1909  1909  1951
2232  2232  2329
2604  2604  2622
2915  2915  2947
3212  3212  3212
1070  1100  1060
1297  1333  1321
1570  1606  1630
1893  1935  1893
1925  1967  1967
2220  2280  2341
2620  2674  2638
2907  2955  2971
3212  3212  3212
1313  1385  1301
1582  1630  1598
1859  1931  1919
2242  2302  2242
2246  2331  2288
2234  2343  2343
2630  2702  2642
2901  2961  2941
3228  3228  3228
1664  1674  1654
1955  1967  1979
2242  2252  2292
2598  2610  2598
2604  2622  2658
2596  2606  2656
2616  2630  2630
2963  2971  2995
3228  3228  3228
1937  1977  1927
2256  2288  2272
2533  2581  2594
2919  2967  2919
2923  2987  2971
2919  2967  2991
2933  2973  2943
2921  2977  2977
3228  3228  3228
2280  2280  2280
2602  2602  2602
2907  2907  2907
3228  3228  3228
3228  3228  3228
3228  3228  3228
3212  3212  3212
3196  3196  3196
3212  3212  3212
1060  996  996
1108  1076  1100
1124  1108  1132
1116  1092  1098
1148  1140  1148
1349  1301  1385
1670  1638  1654
1943  1895  1955
2296  2296  2296
1108  1100  1076
1309  1299  1299
1333  1325  1349
1341  1335  1323
1357  1347  1357
1638  1626  1674
1967  1961  1955
2272  2258  2286
2569  2569  2569
1084  1104  1044
1325  1345  1315
1574  1590  1590
1622  1646  1586
1606  1630  1606
1919  1931  1937
2272  2308  2236
2577  2606  2591
2891  2891  2891
1108  1084  1076
1349  1325  1341
1590  1578  1598
1935  1905  1905
1975  1939  1975
2288  2258  2318
2658  2616  2630
2947  2917  2957
3212  3212  3212
1100  1100  1060
1341  1341  1331
1622  1622  1654
1951  1951  1897
2296  2296  2296
2577  2577  2620
2947  2947  2919
3212  3212  3228
3469  3469  3469
1349  1385  1301
1614  1644  1604
1887  1929  1915
2272  2290  2254
2594  2636  2594
2618  2642  2642
2955  2991  2931
3220  3238  3226
3469  3469  3469
1678  1658  1638
1975  1951  1963
2264  2248  2280
2666  2642  2630
2939  2915  2939
2923  2907  2947
2987  2979  2979
3252  3240  3258
3469  3469  3469
1975  1991  1911
2288  2306  2270
2577  2587  2598
2955  2963  2931
3236  3246  3236
3252  3258  3270
3244  3252  3228
3236  3246  3246
3453  3453  3453
2264  2264  2264
2569  2569  2569
2907  2907  2907
3244  3244  3244
3437  3437  3437
3469  3469  3469
3453  3453  3453
3469  3469  3469
3469  3469  3469
1351  1253  1253
1405  1349  1373
1373  1317  1365
1371  1301  1311
1387  1317  1357
1379  1365  1379
1674  1590  1614
1997  1927  1977
2232  2232  2232
1385  1337  1301
1626  1578  1578
1614  1582  1606
1612  1572  1552
1642  1594  1606
1656  1600  1656
1971  1955  1951
2300  2252  2276
2585  2585  2585
1367  1353  1269
1640  1626  1584
1929  1915  1915
1929  1915  1845
1963  1951  1927
1931  1919  1931
2314  2300  2244
2620  2606  2591
2907  2907  2907
1385  1313  1301
1658  1586  1610
1929  1845  1915
2298  2214  2214
2312  2216  2264
2333  2260  2333
2716  2632  2646
2979  2931  2963
3228  3228  3228
1383  1341  1285
1656  1614  1600
1903  1879  1895
2331  2288  2246
2632  2577  2577
2636  2594  2636
2987  2939  2907
3262  3220  3234
3485  3485  3485
1387  1387  1317
1630  1630  1598
1933  1933  1923
2302  2302  2242
2666  2666  2618
2973  2973  2973
3266  3266  3216
3479  3479  3467
3677  3677  3677
1682  1662  1654
1983  1943  1951
2314  2244  2300
2688  2638  2628
3005  2935  2963
3252  3212  3252
3310  3240  3240
3511  3481  3499
3677  3677  3677
1993  1965  1895
2327  2290  2254
2622  2598  2610
2979  2963  2931
3278  3250  3236
3507  3487  3507
3509  3493  3469
3507  3487  3487
3677  3677  3677
2280  2280  2280
2585  2585  2585
2875  2875  2875
3244  3244  3244
3485  3485  3485
3677  3677  3677
3677  3677  3677
3661  3661  3661
3645  3645  3645
1626  1622  1622
1634  1622  1640
1642  1638  1650
1638  1622  1630
1630  1622  1638
1630  1622  1650
1654  1638  1654
1915  1895  1945
2248  2248  2248
1630  1642  1606
1899  1917  1917
1919  1931  1967
1919  1931  1907
1931  1941  1951
1935  1947  1995
1947  1957  1947
2224  2236  2260
2569  2569  2569
1634  1690  1606
1939  1995  1953
2228  2252  2252
2236  2276  2226
2240  2288  2264
2244  2300  2314
2260  2316  2260
2561  2610  2598
2875  2875  2875
1618  1604  1590
1923  1909  1937
2224  2212  2272
2598  2583  2583
2630  2616  2658
2626  2614  2686
2646  2632  2646
2927  2917  2957
3228  3228  3228
1642  1662  1622
1935  1959  1947
2224  2248  2272
2634  2650  2626
2903  2931  2931
2959  2979  3009
2951  2979  2951
3204  3228  3240
3469  3469  3469
1646  1706  1622
1947  1997  1957
2236  2286  2276
2638  2688  2628
2951  3021  2979
3204  3224  3224
3220  3280  3220
3453  3493  3477
3694  3694  3694
1670  1670  1654
1935  1935  1947
2244  2244  2300
2658  2658  2646
2935  2935  2963
3224  3224  3254
3489  3489  3489
3673  3673  3692
3870  3870  3870
1923  1965  1895
2260  2302  2274
2553  2602  2618
2931  2967  2919
3216  3246  3236
3449  3467  3479
3694  3718  3694
3681  3712  3712
3854  3854  3854
2264  2264  2264
2473  2473  2473
2842  2842  2842
3212  3212  3212
3421  3421  3421
3597  3597  3597
3822  3822  3822
3806  3806  3806
3854  3854  3854
1961  1911  1911
1971  1911  1947
1971  1911  1983
1967  1927  1935
1997  1927  1983
1957  1927  1969
1967  1927  1943
2001  1911  2001
2264  2264  2264
1987  1963  1927
2274  2238  2238
2286  2258  2300
2286  2258  2230
2296  2264  2280
2286  2258  2314
2286  2258  2244
2286  2258  2286
2585  2585  2585
1975  1991  1895
2296  2312  2264
2598  2610  2610
2604  2614  2563
2624  2638  2610
2620  2630  2640
2614  2626  2577
2624  2638  2624
2875  2875  2875
1965  1909  1895
2292  2244  2268
2604  2563  2614
2957  2917  2917
2987  2923  2971
2987  2923  3019
2987  2923  2939
2967  2919  2967
3228  3228  3228
1965  1951  1895
2292  2280  2268
2587  2577  2598
2979  2971  2947
3230  3220  3220
3256  3244  3280
3256  3244  3220
3252  3244  3252
3469  3469  3469
1987  2011  1927
2318  2347  2290
2587  2608  2598
2991  2999  2975
3262  3282  3252
3467  3479  3479
3487  3507  3457
3477  3493  3477
3694  3694  3694
1981  1939  1911
2302  2260  2274
2602  2553  2618
2973  2943  2933
3256  3220  3244
3467  3449  3479
3692  3673  3673
3718  3694  3718
3870  3870  3870
1981  1981  1911
2302  2302  2274
2608  2608  2622
2989  2989  2949
3256  3256  3244
3483  3483  3495
3728  3728  3698
3874  3874  3874
3983  3983  3983
2296  2296  2296
2521  2521  2521
2891  2891  2891
3180  3180  3180
3469  3469  3469
3629  3629  3629
3806  3806  3806
3967  3967  3967
3983  3983  3983
2232  2232  2232
2329  2329  2329
2296  2296  2296
2296  2296  2296
2312  2312  2312
2361  2361  2361
2296  2296  2296
2280  2280  2280
2296  2296  2296
2312  2312  2312
2569  2569  2569
2585  2585  2585
2569  2569  2569
2585  2585  2585
2585  2585  2585
2585  2585  2585
2569  2569  2569
2569  2569  2569
2248  2248  2248
2569  2569  2569
2875  2875  2875
2907  2907  2907
2923  2923  2923
2923  2923  2923
2907  2907  2907
2891  2891  2891
2891  2891  2891
2296  2296  2296
2618  2618  2618
2891  2891  2891
3212  3212  3212
3212  3212  3212
3212  3212  3212
3196  3196  3196
3228  3228  3228
3228  3228  3228
2248  2248  2248
2569  2569  2569
2858  2858  2858
3212  3212  3212
3421  3421  3421
3453  3453  3453
3469  3469  3469
3485  3485  3485
3469  3469  3469
2280  2280  2280
2602  2602  2602
2907  2907  2907
3244  3244  3244
3453  3453  3453
3629  3629  3629
3661  3661  3661
3661  3661  3661
3661  3661  3661
2296  2296  2296
2602  2602  2602
2907  2907  2907
3244  3244  3244
3469  3469  3469
3694  3694  3694
3838  3838  3838
3854  3854  3854
3854  3854  3854
2248  2248  2248
2569  2569  2569
2842  2842  2842
3212  3212  3212
3453  3453  3453
3677  3677  3677
3854  3854  3854
3950  3950  3950
3983  3983  3983
2264  2264  2264
2602  2602  2602
2907  2907  2907
3244  3244  3244
3453  3453  3453
3677  3677  3677
3854  3854  3854
3967  3967  3967
4095  4095  4095
