PS/3DLUTs/WA-Filter-SW.3dl
#Created by: Generate3DLut
#Generator: Copyright 2012 by Linus Hechinger
0 256 512 767 1023
273  273  273
626  626  650
1060  1060  1100
1606  1606  1626
2296  2296  2296
626  662  626
642  691  691
1060  1132  1108
1622  1706  1650
2280  2280  2280
1076  1108  1076
1044  1092  1116
1092  1132  1132
1622  1662  1642
2296  2296  2296
1622  1638  1622
1622  1646  1694
1622  1642  1662
1638  1658  1658
2296  2296  2296
2200  2200  2200
2296  2296  2296
2264  2264  2264
2280  2280  2280
2296  2296  2296
638  626  626
678  642  678
1124  1076  1108
1666  1606  1626
2280  2280  2280
666  666  642
1072  1072  1072
1638  1638  1606
2292  2292  2220
2875  2875  2875
1132  1108  1060
1610  1582  1610
1650  1630  1630
2316  2288  2260
2907  2907  2907
1694  1646  1622
2300  2244  2300
2300  2244  2272
2357  2284  2284
2923  2923  2923
2296  2296  2296
2842  2842  2842
2842  2842  2842
2858  2858  2858
2907  2907  2907
1060  996  996
1124  1108  1132
1148  1140  1148
1670  1638  1654
2296  2296  2296
1084  1104  1044
1574  1590  1590
1606  1630  1606
2272  2308  2236
2891  2891  2891
1100  1100  1060
1622  1622  1654
2296  2296  2296
2947  2947  2919
3469  3469  3469
1678  1658  1638
2264  2248  2280
2939  2915  2939
2987  2979  2979
3469  3469  3469
2264  2264  2264
2907  2907  2907
3437  3437  3437
3453  3453  3453
3469  3469  3469
1626  1622  1622
1642  1638  1650
1630  1622  1638
1654  1638  1654
2248  2248  2248
1634  1690  1606
2228  2252  2252
2240  2288  2264
2260  2316  2260
2875  2875  2875
1642  1662  1622
2224  2248  2272
2903  2931  2931
2951  2979  2951
3469  3469  3469
1670  1670  1654
2244  2244  2300
2935  2935  2963
3489  3489  3489
3870  3870  3870
2264  2264  2264
2842  2842  2842
3421  3421  3421
3822  3822  3822
3854  3854  3854
2232  2232  2232
2296  2296  2296
2312  2312  2312
2296  2296  2296
2296  2296  2296
2248  2248  2248
2875  2875  2875
2923  2923  2923
2907  2907  2907
2891  2891  2891
2248  2248  2248
2858  2858  2858
3421  3421  3421
3469  3469  3469
3469  3469  3469
2296  2296  2296
2907  2907  2907
3469  3469  3469
3838  3838  3838
3854  3854  3854
2264  2264  2264
2907  2907  2907
3453  3453  3453
3854  3854  3854
4095  4095  4095
