PS/3DLUTs/WA-Filter-Kühl.3dl
#Created by: Generate3DLut
#Generator: Copyright 2012 by Linus Hechinger
0 128 256 384 512 639 767 895 1023
32  273  385
0  209  859
0  112  1441
0  112  1933
0  96  2537
0  80  3095
0  96  3501
0  177  3788
64  305  3886
64  697  385
80  676  889
32  628  1554
0  524  2070
0  488  2754
0  450  3501
16  430  3766
32  528  4035
96  658  4063
16  1228  257
64  1237  747
64  1233  1377
16  1152  2007
0  1092  2682
0  1048  3344
0  1024  3786
0  1100  3973
64  1124  4079
0  1913  305
16  1903  731
32  1905  1333
80  1905  2021
32  1847  2698
0  1748  3406
0  1686  3838
16  1704  4017
112  1734  4047
48  2537  321
48  2553  743
64  2553  1369
0  2594  2039
48  2585  2754
0  2489  3515
32  2409  3842
64  2385  4065
112  2280  4095
0  3184  177
0  3212  618
0  3202  1265
48  3200  1903
64  3224  2650
96  3178  3507
0  3111  3830
16  3011  4055
209  2875  4063
48  3738  353
48  3754  634
32  3742  1241
64  3738  1873
48  3742  2553
48  3734  3400
48  3726  3794
161  3617  4007
209  3485  4079
64  4025  401
64  4067  719
80  4051  1305
96  4057  1919
80  4039  2602
64  4047  3224
80  4037  3718
225  3987  3981
209  3790  4031
16  4063  514
0  4047  755
32  4079  1333
48  4079  1847
48  4079  2377
48  4047  2987
64  4079  3517
128  4063  3822
321  3983  4095
291  305  434
309  321  701
289  257  1269
239  161  1891
185  128  2473
136  96  3210
136  112  3453
191  112  3808
337  289  3999
249  584  530
311  697  823
267  570  1481
167  488  2100
76  393  2682
16  273  3410
28  295  3746
128  528  4035
273  691  4079
331  1136  498
299  1228  759
235  1228  1409
197  1120  2041
114  1028  2730
60  903  3521
44  851  3946
181  1044  4057
337  1140  4095
301  1893  385
281  1865  795
283  1833  1345
249  1901  1949
193  1817  2722
132  1716  3541
128  1626  3938
259  1690  4033
305  1766  4031
237  2585  321
221  2577  622
205  2553  1257
225  2553  1855
177  2594  2634
102  2505  3463
108  2473  3830
249  2417  3981
353  2296  3983
181  3198  305
165  3198  648
181  3170  1289
143  3186  1879
122  3244  2642
104  3232  3487
120  3135  3890
271  3011  4051
337  2907  4095
209  3770  305
183  3746  604
199  3734  1233
161  3770  1807
143  3822  2618
153  3822  3412
181  3810  3914
299  3597  4059
418  3501  4079
183  4063  418
173  4089  775
161  4075  1277
215  4055  1795
195  4075  2489
163  4085  3244
231  4063  3673
363  4015  3987
401  3870  4095
369  3983  771
353  4031  964
401  3967  1606
466  4031  1863
418  4031  2393
466  3999  3003
434  4015  3549
418  3983  3742
466  3950  4095
598  482  658
630  466  787
622  434  1136
687  450  1714
590  209  2585
506  128  3493
498  161  3814
534  193  3973
626  353  3983
727  691  674
807  757  879
831  747  1233
843  624  1977
703  412  2850
562  261  3649
498  227  3918
695  516  4065
691  707  4095
634  960  658
723  1080  917
799  1212  1321
650  1096  1935
506  1004  2746
478  863  3505
381  815  3890
650  1016  4047
691  1156  4031
859  1612  691
855  1756  859
799  1831  1245
687  1883  1953
590  1797  2698
526  1696  3499
450  1590  3918
678  1686  4071
723  1799  4063
951  2345  546
899  2481  809
723  2513  1277
674  2537  1969
622  2553  2690
554  2489  3463
518  2393  3886
687  2393  4019
771  2329  4015
783  3095  289
755  3190  654
634  3186  1212
606  3144  1823
562  3216  2577
590  3188  3445
570  3101  3922
715  3025  4063
739  2939  4095
642  3822  385
614  3838  650
550  3782  1196
534  3786  1797
518  3810  2537
538  3810  3364
614  3790  3826
779  3617  3999
867  3501  4095
735  4041  466
727  4083  767
707  4067  1301
691  4069  1855
687  4095  2481
630  4095  3326
735  4051  3694
859  4009  3956
851  3870  4047
739  4031  803
787  4063  1060
787  4015  1477
835  4079  1734
835  4047  2457
803  3983  2987
883  3983  3710
899  3967  3886
964  4015  4015
1058  674  546
1104  691  881
1084  642  1269
1072  658  1594
1168  691  2160
1184  562  3047
1136  385  3710
1140  289  4025
1156  418  4095
1030  865  803
1128  951  1112
1150  966  1381
1182  917  1648
1287  935  2320
1259  757  3220
1114  534  3766
1148  636  4037
1237  755  4095
1016  1116  771
1142  1228  1112
1255  1333  1502
1299  1309  1708
1395  1249  2521
1190  1028  3394
1084  927  3922
1212  1116  4035
1253  1269  4095
1098  1349  867
1235  1459  1178
1313  1558  1506
1497  1704  2043
1369  1640  2714
1062  1648  3509
956  1481  3914
1100  1668  4033
1333  1783  4095
1226  1959  947
1389  2056  1142
1451  2296  1465
1365  2473  1738
1218  2513  2634
1098  2497  3346
1046  2361  3882
1102  2401  3991
1317  2425  4095
1389  2748  739
1467  2907  958
1361  3045  1305
1365  3144  1807
1237  3206  2602
1182  3196  3394
1202  3097  3806
1309  3051  4019
1429  2923  4047
1510  3364  707
1447  3545  897
1343  3710  1212
1214  3714  1736
1140  3766  2513
1094  3754  3318
1233  3702  3766
1355  3629  4017
1477  3517  4079
1457  3858  530
1433  4009  817
1321  4075  1265
1269  4065  1845
1224  4089  2521
1235  4075  3290
1307  4057  3702
1417  4005  3997
1526  3902  4063
1413  4095  723
1477  4079  947
1542  4015  1477
1445  4079  1975
1445  4095  2537
1477  4095  3212
1526  4047  3710
1558  4015  3967
1574  4031  4095
1566  851  867
1582  931  1138
1510  867  1433
1614  803  1606
1574  803  2104
1726  883  2690
1951  674  3288
1983  610  3669
1927  562  3822
1477  1058  915
1582  1116  1239
1630  1120  1606
1686  1112  1710
1710  1126  2136
1823  1237  2720
1991  933  3240
2039  827  3816
1959  771  3999
1566  1297  931
1654  1381  1257
1758  1489  1662
1791  1497  1897
1791  1461  2288
1967  1449  2963
2031  1297  3641
1967  1200  3946
1943  1253  4095
1558  1522  931
1686  1636  1297
1783  1760  1658
1991  1897  2045
1999  1921  2433
2048  1827  3218
1959  1638  3818
1943  1670  4015
1975  1831  4095
1574  1879  996
1686  1967  1291
1823  2080  1638
1975  2288  2080
2096  2417  2561
2023  2304  3346
1815  2232  3826
1879  2312  4027
2007  2441  4095
1758  2345  1156
1895  2475  1431
1991  2634  1762
2160  2895  2092
2104  3083  2577
2015  3075  3332
1935  3005  3814
1959  3005  4037
2023  2939  4079
2039  2959  1012
2096  3119  1297
2152  3304  1594
2104  3589  1843
2007  3661  2505
1951  3702  3300
1959  3677  3762
1991  3617  4001
2072  3517  4063
2184  3406  867
2208  3583  1194
2192  3770  1546
2088  4039  1777
1991  4049  2521
1887  4095  3266
2007  4065  3722
2080  4057  4009
2168  3870  4095
2104  3710  883
2216  3838  1140
2264  3983  1477
2104  4079  2088
2120  4015  2602
2136  4079  2971
2200  4015  3726
2296  3950  4063
2088  4079  4095
2086  931  1220
2084  947  1385
2066  980  1598
2076  915  1797
2112  899  2232
2128  931  2644
2208  1012  2979
2325  1060  3398
2280  964  3726
2088  1192  1140
2154  1257  1425
2140  1277  1678
2158  1228  1865
2218  1208  2312
2226  1212  2718
2339  1343  3079
2467  1289  3497
2441  1220  3758
2072  1449  1108
2172  1542  1415
2266  1662  1799
2284  1626  2007
2331  1606  2417
2335  1578  2814
2477  1718  3208
2606  1606  3667
2569  1477  3870
2068  1670  1204
2178  1785  1504
2300  1851  1811
2505  2060  2246
2521  2009  2602
2497  1997  2927
2670  2025  3421
2704  1913  3836
2585  1815  4031
2080  2015  1188
2204  2128  1461
2286  2232  1799
2495  2417  2242
2591  2537  2722
2598  2529  3059
2688  2465  3665
2700  2329  3922
2585  2409  4079
2078  2379  1156
2158  2461  1433
2274  2557  1779
2463  2758  2226
2618  2897  2714
2732  3043  3250
2650  2985  3681
2575  2953  3967
2746  2987  4095
2280  2750  1349
2367  2846  1630
2467  2927  1927
2636  3172  2339
2784  3437  2690
2690  3617  3208
2732  3569  3690
2736  3549  4015
2698  3549  4095
2341  3067  1397
2483  3232  1606
2600  3382  1907
2788  3661  2150
2776  3938  2594
2698  4043  3214
2744  3993  3653
2836  3993  4019
2810  3886  4031
2425  3356  1381
2521  3501  1558
2618  3710  1766
2730  3967  2168
2698  4095  2602
2762  4079  3019
2746  4079  3661
2778  4047  3967
2762  4031  4095
2505  1140  1381
2513  1140  1606
2517  1124  1907
2517  1108  2048
2517  1076  2385
2525  1092  2756
2533  1060  2959
2594  1108  3330
2634  1220  3437
2505  1355  1285
2573  1431  1558
2549  1435  1851
2585  1415  2058
2634  1361  2441
2682  1335  2850
2626  1365  2999
2710  1425  3340
2762  1429  3517
2493  1610  1269
2614  1702  1614
2690  1791  1971
2714  1799  2210
2722  1758  2553
2754  1730  2915
2746  1746  3152
2854  1827  3461
2875  1799  3613
2473  1847  1301
2577  1961  1606
2658  2084  1951
2866  2230  2351
2879  2204  2690
2919  2188  3033
2887  2186  3292
2951  2264  3555
3051  2264  3742
2497  2168  1285
2602  2272  1594
2702  2385  1959
2858  2561  2359
2971  2690  2866
2991  2698  3232
3047  2690  3364
3135  2746  3716
3164  2618  3838
2493  2505  1301
2598  2604  1580
2706  2688  1931
2887  2895  2383
3027  3035  2883
3148  3135  3296
3168  3119  3529
3240  3135  3834
3308  2971  4047
2509  2730  1301
2606  2826  1586
2710  2927  1971
2923  3111  2379
3039  3244  2891
3212  3408  3312
3392  3557  3726
3372  3473  3981
3324  3533  4095
2634  3005  1461
2714  3101  1728
2842  3214  2096
3003  3396  2529
3140  3577  2931
3308  3786  3288
3376  3942  3665
3396  3932  3954
3421  3854  4095
2569  3212  1253
2650  3276  1526
2794  3421  1927
2987  3581  2329
3196  3790  2714
3340  3934  3067
3421  4095  3565
3437  4095  3886
3437  4095  3999
2806  1285  1397
2826  1285  1594
2790  1269  1859
2875  1237  2124
2877  1188  2521
2929  1156  2943
2893  1124  2995
2903  1124  3282
2891  1188  3372
2788  1447  1397
2856  1512  1708
2889  1554  2019
2915  1508  2156
2947  1485  2489
2979  1443  2854
2989  1443  3063
2991  1427  3328
2987  1477  3469
2786  1686  1397
2905  1770  1696
3005  1891  2056
2981  1915  2290
3055  1863  2634
3093  1843  2969
3091  1827  3192
3085  1843  3441
3099  1831  3581
2822  1925  1397
2915  2048  1708
3043  2160  2088
3184  2325  2477
3240  2312  2834
3246  2320  3113
3258  2250  3408
3264  2262  3603
3260  2296  3710
2842  2280  1413
2941  2385  1714
3035  2481  2068
3214  2658  2483
3352  2778  2971
3398  2786  3240
3394  2762  3517
3400  2778  3718
3388  2778  3758
2846  2573  1445
2965  2702  1760
3065  2794  2092
3228  2959  2513
3392  3113  2971
3537  3204  3435
3559  3244  3653
3571  3216  3798
3613  3196  3950
2844  2814  1413
2937  2923  1730
3043  3019  2064
3222  3208  2499
3374  3340  2979
3557  3497  3431
3730  3637  3726
3766  3633  3900
3790  3629  4031
2871  3003  1429
2961  3083  1714
3079  3202  2104
3262  3398  2501
3410  3543  3011
3521  3704  3435
3754  3856  3690
3866  3896  3894
3854  3886  4079
2794  3212  1445
2858  3276  1686
2971  3372  2023
3148  3661  2329
3324  3774  2794
3469  3886  3164
3694  4063  3613
3790  4095  3838
3790  4095  3967
3035  1220  1510
3083  1269  1718
3035  1253  1943
3051  1220  2168
3083  1204  2473
3131  1204  2762
3228  1220  3276
3148  1092  3421
3180  1124  3485
2955  1493  1477
3035  1558  1734
3035  1590  1991
3083  1558  2200
3115  1542  2521
3131  1510  2762
3164  1461  3228
3131  1445  3356
3148  1445  3469
2939  1702  1445
3035  1799  1702
3164  1927  2088
3196  1943  2329
3212  1895  2634
3228  1879  2875
3260  1831  3308
3228  1815  3453
3260  1831  3565
3003  1959  1510
3099  2039  1783
3212  2184  2152
3340  2345  2521
3372  2329  2842
3404  2312  3099
3453  2264  3501
3453  2296  3677
3421  2280  3758
3019  2280  1493
3099  2361  1783
3196  2473  2136
3372  2650  2553
3549  2810  2987
3549  2810  3228
3581  2794  3517
3597  2778  3726
3613  2794  3854
2971  2585  1461
3083  2682  1766
3228  2778  2136
3356  2971  2521
3517  3131  2971
3677  3276  3340
3677  3228  3581
3710  3244  3742
3710  3228  3838
2955  2858  1445
3067  2971  1718
3180  3083  2088
3372  3244  2505
3533  3421  2971
3710  3597  3340
3870  3694  3758
3918  3661  3870
3886  3677  3950
3003  3035  1477
3115  3148  1799
3196  3244  2104
3388  3404  2489
3565  3565  2955
3726  3726  3340
3934  3886  3774
4063  3967  3999
4031  3967  3983
3003  3131  1477
3115  3260  1799
3212  3388  2136
3421  3565  2521
3597  3726  2971
3758  3870  3340
3934  3999  3758
4063  4079  3983
4079  4079  4095
