PS/3DLUTs/WA-Filter-Chrom.3dl
#Created by: Generate3DLut
#Generator: Copyright 2012 by Linus Hechinger
0 64 128 192 256 320 384 448 512 575 639 703 767 831 895 959 1023
48  0  578
16  0  661
0  0  685
0  16  827
16  0  1196
48  0  1734
48  16  2088
16  0  2564
16  0  2786
0  0  3099
16  0  3402
0  0  3458
0  0  3690
0  0  3829
0  0  3908
0  0  3990
16  0  4047
32  69  530
0  60  587
0  60  616
0  89  749
0  76  1136
16  66  1652
32  83  1993
0  63  2483
0  76  2714
0  79  3008
0  60  3350
0  76  3379
0  63  3605
0  63  3733
0  76  3812
0  89  3909
0  64  3950
32  108  530
32  80  608
0  90  658
0  100  805
0  86  1228
0  86  1772
48  114  2023
32  102  2529
16  112  2770
0  102  3107
0  90  3465
0  100  3401
0  96  3645
0  86  3787
0  86  3896
0  96  4011
0  112  3950
96  233  594
96  208  666
64  215  711
48  229  867
32  224  1269
64  208  1792
80  206  2084
48  217  2561
80  240  2826
64  233  3161
48  224  3501
64  231  3465
64  215  3702
48  215  3832
64  215  3958
48  222  4036
48  145  4031
32  711  562
32  699  622
16  699  630
0  715  763
0  711  1132
32  695  1744
16  691  2015
0  695  2484
16  723  2722
0  711  3002
0  719  3354
0  727  3425
0  723  3637
0  707  3728
0  723  3818
0  719  3948
0  594  3983
16  1315  498
0  1315  583
0  1315  618
0  1287  744
0  1316  1132
0  1285  1711
0  1270  1983
0  1270  2456
16  1332  2714
0  1317  3008
0  1317  3366
0  1316  3365
0  1315  3593
0  1301  3726
0  1317  3824
0  1333  3975
16  1076  3999
32  1865  562
32  1845  625
0  1843  680
0  1843  792
0  1803  1192
64  1815  1774
16  1827  2074
32  1827  2548
0  1833  2770
0  1819  3063
0  1829  3382
32  1821  3381
32  1821  3645
32  1807  3768
32  1807  3884
32  1803  3985
16  1783  3983
0  2305  482
0  2295  579
0  2295  630
0  2306  757
0  2278  1188
32  2294  1803
0  2284  2037
0  2295  2535
0  2305  2746
0  2305  3053
0  2284  3417
0  2278  3369
0  2294  3601
0  2262  3743
0  2278  3856
16  2284  3966
0  2248  3934
32  2674  562
32  2650  632
16  2642  658
32  2650  781
32  2650  1180
64  2626  1774
48  2642  2084
64  2650  2543
48  2674  2754
32  2666  3045
32  2650  3382
64  2658  3442
48  2666  3657
32  2650  3758
16  2650  3850
32  2658  3941
32  2569  3999
32  2984  562
32  2984  616
0  2984  630
0  2973  756
32  2963  1128
64  2974  1684
32  2973  2050
32  2968  2517
64  3000  2746
0  2995  3040
32  2995  3312
32  3005  3436
16  3000  3633
16  2984  3744
16  2984  3814
32  3000  3915
0  2907  3967
0  3250  482
0  3234  576
0  3234  626
0  3228  787
32  3238  1208
32  3236  1788
16  3210  2035
16  3222  2514
0  3254  2770
0  3250  3091
0  3238  3374
0  3252  3364
0  3250  3593
0  3238  3768
0  3252  3852
0  3242  4001
0  3196  3934
16  3444  546
0  3443  628
0  3443  666
0  3459  801
16  3444  1192
48  3427  1729
48  3427  2001
16  3428  2514
32  3443  2754
16  3428  3073
32  3443  3370
16  3458  3458
32  3444  3617
16  3443  3750
0  3443  3906
16  3444  3997
48  3421  3983
48  3649  594
48  3633  658
32  3649  646
16  3641  770
64  3617  1132
64  3621  1684
64  3641  2037
64  3637  2505
48  3645  2754
16  3637  3035
48  3633  3346
64  3633  3470
48  3645  3605
32  3629  3777
48  3625  3876
48  3629  3937
64  3613  4031
16  3797  530
16  3790  600
0  3781  656
0  3797  751
16  3770  1164
48  3754  1668
32  3790  2041
16  3770  2516
16  3813  2738
0  3795  3046
0  3797  3352
32  3795  3426
16  3788  3597
16  3772  3743
16  3779  3870
16  3770  3974
16  3758  3999
16  3954  530
16  3938  610
0  3954  618
0  3938  756
0  3936  1124
48  3916  1698
0  3920  2009
0  3932  2499
0  3954  2714
0  3965  3018
0  3928  3324
16  3928  3406
16  3938  3581
16  3922  3713
0  3932  3840
0  3896  3915
0  3918  3967
48  4054  562
48  4038  624
32  4041  626
32  4038  725
48  4032  1072
80  4016  1640
32  4018  2029
16  4035  2501
32  4044  2690
0  4051  2968
0  4028  3272
64  4038  3448
48  4038  3597
48  4022  3703
48  4035  3812
48  4032  4000
16  3999  3999
0  4095  514
0  4063  562
0  4047  594
0  4063  642
0  4063  1108
0  4063  1365
0  4079  1959
0  4063  2473
0  4079  2618
0  4063  3003
0  4063  3180
0  4063  3421
0  4063  3581
0  4095  3661
0  4063  3806
0  4079  3854
0  4079  3950
93  32  594
96  16  684
57  32  713
35  48  836
61  32  1224
71  32  1780
84  32  2052
87  0  2557
68  32  2802
58  16  3138
64  16  3370
77  32  3431
64  32  3625
74  32  3759
74  32  3882
68  16  4010
48  16  3983
29  47  578
6  41  636
12  38  660
0  51  745
0  41  1132
0  28  1672
13  25  2009
0  25  2478
0  41  2714
0  41  3035
0  38  3312
0  38  3395
0  38  3565
0  38  3720
3  41  3818
0  44  3915
0  32  3967
35  92  578
28  80  639
28  80  656
16  90  761
29  86  1140
55  76  1716
45  74  2054
16  70  2538
29  80  2770
16  70  3066
13  70  3358
3  64  3429
16  54  3665
29  70  3797
32  80  3866
29  86  3931
16  96  3983
32  245  562
67  204  638
28  220  654
12  261  817
77  249  1208
94  197  1745
38  202  2045
64  206  2542
35  227  2778
22  229  3094
32  236  3400
55  213  3433
29  204  3669
35  229  3814
64  231  3910
80  231  4007
16  193  4015
45  731  546
77  711  629
38  715  652
26  707  756
58  739  1168
84  687  1729
61  695  2072
80  707  2553
29  691  2754
16  699  3072
26  727  3330
58  719  3429
29  719  3653
26  703  3745
42  715  3838
68  711  3935
0  530  4015
32  1335  498
6  1305  599
3  1334  634
0  1323  781
6  1318  1164
71  1322  1745
45  1305  2015
9  1304  2499
29  1336  2762
19  1335  3078
35  1351  3368
22  1322  3415
58  1305  3641
6  1319  3761
9  1321  3848
38  1308  3988
0  1076  3950
26  1797  546
0  1795  623
0  1781  640
13  1821  761
29  1795  1140
52  1793  1671
39  1774  2033
26  1762  2512
52  1795  2746
52  1795  3049
52  1811  3320
29  1809  3441
39  1774  3637
29  1791  3783
13  1795  3840
29  1807  3938
48  1734  3999
0  2283  530
0  2272  581
26  2261  624
13  2288  731
6  2272  1124
3  2299  1654
39  2250  2078
19  2234  2517
26  2255  2722
0  2255  3024
19  2244  3282
13  2282  3440
0  2267  3593
26  2272  3756
19  2261  3846
13  2250  3934
32  2216  4015
41  2642  546
54  2618  625
74  2610  680
67  2642  808
37  2634  1220
28  2650  1746
18  2642  2104
18  2626  2580
15  2666  2802
18  2658  3116
18  2666  3372
73  2626  3475
57  2618  3645
57  2626  3814
31  2618  3906
28  2618  4029
0  2618  4047
6  3010  498
19  2994  596
55  3005  644
42  3015  767
25  3004  1176
3  3009  1728
42  2962  2013
45  2968  2483
42  2989  2730
29  2995  3042
42  2968  3316
32  2972  3412
16  2983  3589
3  2978  3741
3  2967  3848
3  3005  3988
48  2939  3950
0  3340  498
13  3324  594
52  3338  618
13  3350  706
0  3352  1100
0  3326  1667
78  3302  1993
81  3314  2462
91  3306  2706
81  3306  3003
65  3292  3248
0  3310  3373
0  3294  3521
0  3308  3690
0  3294  3812
13  3296  3896
96  3180  3934
80  3442  594
64  3442  681
110  3427  703
78  3428  800
29  3444  1164
58  3426  1704
28  3455  2096
31  3441  2554
15  3470  2770
15  3441  3051
9  3441  3356
64  3412  3440
38  3411  3601
90  3411  3770
71  3414  3888
90  3425  3967
0  3469  4031
35  3665  514
32  3649  577
13  3653  620
0  3686  742
6  3657  1160
13  3641  1697
19  3661  2017
25  3637  2515
25  3649  2730
12  3649  3063
9  3645  3350
9  3657  3381
22  3653  3589
29  3649  3720
19  3649  3880
22  3649  3941
0  3645  3950
100  3802  578
74  3795  626
55  3802  646
39  3827  761
58  3811  1152
78  3809  1701
71  3795  2052
58  3786  2538
58  3786  2754
35  3788  3039
39  3770  3318
39  3786  3438
68  3795  3601
68  3788  3742
58  3788  3872
74  3797  3950
64  3758  3999
96  3938  546
87  3938  603
48  3938  652
32  3965  767
51  3952  1168
55  3952  1714
35  3928  2029
61  3916  2526
45  3928  2762
22  3938  3073
32  3932  3354
48  3926  3395
22  3926  3585
45  3932  3736
58  3922  3864
45  3932  3957
16  3902  3967
77  4067  530
51  4041  632
38  4041  648
32  4083  781
32  4083  1160
61  4067  1791
67  4041  2052
38  4051  2552
45  4070  2794
32  4067  3116
32  4051  3328
22  4051  3407
35  4061  3573
48  4067  3738
48  4080  3866
57  4038  3957
48  3999  3983
48  4095  514
48  4079  562
0  4095  626
0  4095  642
16  4095  1140
32  4095  1397
32  4095  1991
48  4079  2521
32  4095  2666
16  4095  3051
16  4095  3228
32  4095  3388
16  4079  3581
48  4095  3694
32  4079  3870
48  4095  3918
16  4095  3967
66  0  691
50  0  731
44  0  727
32  32  817
28  0  1172
56  0  1678
64  80  1871
50  48  2384
58  80  2658
44  48  3006
48  64  3304
38  48  3303
38  48  3481
22  64  3651
22  64  3812
44  64  3936
48  0  4095
52  93  498
50  74  599
50  74  640
38  87  785
34  32  1172
56  51  1727
58  45  2154
38  19  2605
20  32  2802
26  32  3091
16  19  3286
16  19  3544
12  19  3681
16  29  3819
22  32  3894
22  41  3945
48  64  3934
64  122  530
82  110  618
72  110  666
70  100  778
76  70  1176
82  70  1741
54  58  2114
48  34  2576
32  74  2802
16  70  3098
28  64  3338
18  64  3457
24  58  3621
48  58  3761
38  80  3878
54  76  3961
64  80  3950
100  274  546
118  240  631
110  238  652
78  252  801
52  231  1196
44  224  1787
76  215  2039
46  217  2508
68  222  2786
54  224  3090
64  222  3386
60  206  3417
60  208  3690
34  215  3823
60  208  3910
46  247  3991
32  225  4015
88  707  578
94  682  626
80  674  646
60  699  772
74  695  1148
72  699  1761
68  642  2058
62  650  2553
40  654  2762
30  662  3088
30  654  3330
52  654  3474
46  638  3698
46  610  3820
42  662  3912
46  642  3944
64  562  4015
68  1346  514
66  1301  612
56  1316  638
22  1287  733
56  1317  1164
74  1362  1744
64  1316  2013
38  1301  2510
42  1317  2730
40  1360  3079
54  1317  3354
10  1271  3411
28  1284  3653
26  1256  3793
42  1286  3890
46  1317  3975
64  1060  3967
98  1845  498
102  1845  604
50  1847  586
46  1879  722
52  1823  1108
80  1859  1744
70  1855  2001
96  1857  2510
60  1859  2754
40  1833  3058
34  1833  3336
44  1863  3392
50  1849  3609
50  1833  3738
34  1835  3832
46  1833  3890
48  1783  3934
139  2256  610
106  2218  648
110  2245  695
104  2272  820
90  2239  1176
130  2255  1673
126  2272  2068
126  2261  2549
118  2272  2770
94  2261  3060
92  2250  3419
78  2250  3458
78  2234  3673
94  2239  3834
84  2255  3922
94  2261  4010
145  2184  4031
44  2674  530
38  2666  593
6  2682  616
0  2674  742
32  2658  1144
52  2658  1622
54  2674  1985
38  2666  2453
32  2706  2690
22  2690  2986
22  2690  3378
16  2690  3410
12  2690  3573
22  2682  3732
16  2682  3874
28  2666  3965
64  2569  3902
96  2956  594
96  2951  639
80  2989  650
58  2979  763
96  2963  1132
116  2925  1745
112  2924  2031
108  2946  2531
90  2935  2778
76  2951  3078
84  2957  3318
80  2967  3468
84  2973  3609
74  2962  3731
80  2957  3862
96  2962  3964
48  2923  3999
60  3250  514
54  3250  590
38  3264  622
58  3296  776
76  3290  1172
94  3220  1728
92  3206  2001
104  3218  2514
76  3236  2746
72  3248  3079
70  3264  3338
76  3262  3409
54  3248  3565
74  3250  3713
80  3250  3860
86  3248  3965
48  3196  3967
50  3505  466
38  3489  571
12  3505  590
22  3505  726
54  3491  1108
50  3478  1666
56  3476  2005
52  3476  2501
52  3476  2714
48  3461  3018
42  3461  3326
52  3506  3376
52  3490  3545
42  3490  3695
58  3476  3832
32  3475  3906
80  3437  3967
90  3661  546
84  3645  622
64  3657  654
58  3669  781
98  3641  1176
82  3633  1698
114  3625  2084
116  3609  2543
116  3629  2770
112  3617  3088
106  3617  3376
110  3629  3442
106  3629  3605
100  3637  3754
116  3621  3896
96  3629  3957
16  3645  4031
64  3818  450
48  3811  554
28  3811  598
44  3836  762
30  3818  1144
70  3820  1710
66  3797  1955
68  3781  2466
68  3813  2714
42  3811  3047
50  3806  3360
78  3797  3334
76  3795  3541
70  3788  3698
78  3788  3856
70  3797  3945
96  3758  3902
58  3954  450
38  3944  531
16  3954  584
16  3963  748
24  3944  1148
46  3950  1693
34  3920  1929
46  3938  2454
44  3934  2706
36  3934  3021
50  3924  3374
70  3940  3350
56  3934  3521
72  3918  3705
60  3928  3844
76  3934  3952
32  3934  3870
155  4055  530
155  4026  632
124  4026  668
141  4048  788
147  4049  1160
136  4042  1688
145  4026  2066
151  4036  2554
141  4042  2746
153  4039  3061
141  4016  3358
151  4039  3426
151  4026  3617
161  4013  3745
151  4026  3876
167  4026  3967
193  3934  4015
193  4031  450
177  4015  546
161  4031  562
128  4031  594
128  4015  1076
161  3999  1333
177  4015  1927
145  3999  2441
177  4031  2602
161  4015  3003
145  4015  3164
161  4031  3340
161  4031  3517
128  4015  3613
145  3999  3790
161  4015  3838
161  4031  3918
177  112  626
177  96  700
196  80  743
182  96  863
184  80  1233
182  80  1782
198  112  2118
209  64  2591
175  96  2826
168  80  3125
175  64  3449
175  112  3505
184  96  3726
191  96  3859
200  112  3961
191  96  3993
64  80  4063
293  12  466
300  9  581
319  12  604
321  12  724
316  6  1072
305  9  1622
305  3  1985
307  3  2463
296  6  2690
275  9  2970
289  9  3296
291  9  3360
275  9  3581
266  3  3684
275  6  3786
309  12  3874
