PS/3DLUTs/WA-Filter-Pop.3dl
#Created by: Generate3DLut
#Generator: Copyright 2012 by Linus Hechinger
0 64 128 192 256 320 384 448 512 575 639 703 767 831 895 959 1023
16  0  80
16  32  130
0  16  343
0  0  693
0  0  1048
0  0  1488
32  0  1744
0  0  2236
32  0  2497
0  0  2811
0  0  3182
0  0  3208
0  0  3497
0  16  3711
0  16  3840
0  16  4005
0  16  4015
0  195  145
0  220  193
0  214  371
0  208  735
0  169  1068
0  166  1480
0  160  1799
0  163  2286
0  166  2521
0  156  2826
0  160  3176
0  150  3267
32  136  3565
16  120  3722
0  120  3854
16  133  3948
0  128  4079
0  407  128
0  424  195
0  430  416
0  401  807
0  381  1184
0  365  1585
0  369  1831
0  359  2343
0  369  2569
0  349  2904
0  353  3298
0  343  3276
0  339  3597
0  333  3794
0  333  3950
16  327  4062
0  353  4095
0  675  48
0  690  104
0  708  363
0  690  786
0  666  1192
16  641  1597
0  639  1772
0  643  2282
16  648  2545
0  650  2878
0  632  3264
0  637  3259
0  639  3565
0  639  3778
0  639  3928
0  628  4050
0  594  4047
0  1088  32
0  1116  86
0  1120  297
0  1096  677
16  1116  1040
48  1068  1493
0  1024  1728
0  1012  2231
0  1020  2473
0  1016  2790
0  1028  3077
0  1048  3264
0  1020  3521
0  996  3682
0  1020  3812
0  1048  4001
0  947  4063
0  1436  48
0  1452  130
0  1468  353
0  1437  730
0  1451  1108
0  1515  1481
0  1465  1783
0  1449  2254
0  1466  2497
0  1465  2804
0  1435  3184
0  1417  3286
16  1430  3601
32  1401  3770
0  1432  3902
32  1417  3984
64  1237  4095
16  1859  32
0  1873  115
0  1851  351
0  1833  696
0  1837  1056
16  1851  1531
0  1835  1795
0  1821  2300
0  1835  2529
0  1819  2854
0  1811  3154
0  1799  3270
0  1783  3569
0  1813  3768
0  1787  3890
0  1817  4056
0  1799  4047
0  2257  80
0  2246  112
0  2251  337
0  2246  682
0  2234  1036
0  2252  1519
0  2236  1750
0  2214  2257
0  2236  2521
0  2220  2822
0  2215  3164
0  2209  3300
0  2193  3581
0  2172  3754
0  2177  3860
0  2193  4062
0  2152  3999
0  2529  0
0  2529  79
0  2553  347
0  2521  689
0  2521  1040
0  2561  1423
0  2537  1708
0  2521  2205
0  2537  2433
0  2537  2736
0  2521  3190
0  2521  3272
0  2513  3581
0  2497  3771
0  2505  3894
0  2473  3985
32  2377  4095
0  2855  0
0  2878  48
0  2872  283
0  2850  627
0  2856  972
32  2878  1379
0  2855  1702
0  2856  2185
0  2884  2433
0  2879  2719
0  2856  3079
0  2850  3250
0  2845  3537
16  2823  3729
0  2829  3838
0  2834  4014
0  2698  4031
0  3073  16
0  3089  79
0  3089  335
0  3089  705
0  3101  1028
0  3117  1470
0  3085  1799
0  3095  2286
0  3115  2537
0  3127  2841
0  3087  3166
0  3087  3268
0  3055  3569
0  3059  3775
0  3071  3900
0  3073  4059
0  3019  3983
16  3315  80
0  3331  89
0  3316  289
0  3300  667
16  3286  1052
48  3285  1442
0  3314  1726
0  3315  2236
16  3315  2473
0  3316  2773
0  3301  3152
0  3315  3256
0  3315  3537
0  3298  3728
0  3283  3900
16  3282  4065
0  3276  4095
16  3525  80
32  3541  116
16  3541  275
0  3525  647
32  3517  1016
32  3525  1383
16  3537  1748
16  3529  2217
0  3553  2457
0  3545  2745
0  3541  3095
0  3525  3252
0  3529  3525
16  3509  3725
16  3509  3876
32  3501  4029
32  3453  4095
0  3704  0
0  3729  76
0  3722  263
0  3722  644
0  3720  1004
0  3729  1440
0  3738  1712
0  3727  2220
0  3754  2465
0  3745  2774
0  3743  3148
0  3736  3225
0  3736  3501
0  3697  3705
0  3688  3884
0  3690  4046
0  3629  4031
0  3878  0
0  3900  51
0  3916  249
0  3900  583
0  3914  927
0  3880  1364
0  3876  1690
0  3874  2205
0  3902  2425
0  3894  2730
0  3880  3045
0  3894  3188
0  3890  3465
0  3890  3669
0  3894  3830
0  3834  4036
0  3822  4031
0  4013  16
0  4055  77
0  4055  243
0  4045  586
0  4052  947
32  4042  1321
0  4016  1712
0  4039  2196
0  4061  2409
0  4058  2723
0  4058  3009
0  4061  3244
0  4058  3485
0  4042  3659
0  4052  3796
0  3987  4068
16  3886  4063
0  4047  64
0  4063  80
0  4079  273
0  4095  514
0  4079  964
0  4095  1188
0  4095  1670
0  4063  2200
0  4079  2361
0  4063  2746
0  4063  2923
0  4079  3228
0  4079  3469
0  4079  3597
0  4063  3806
0  4079  3886
0  4047  4015
184  32  48
190  48  132
154  32  357
131  32  668
115  0  1100
144  16  1572
157  32  1783
144  0  2344
134  16  2577
108  16  2885
112  16  3176
121  48  3287
134  16  3637
127  16  3784
114  0  3928
109  16  3986
177  32  4063
193  147  80
209  127  152
160  138  410
128  82  694
73  66  1096
78  41  1600
26  9  1799
39  9  2300
13  15  2577
26  18  2903
39  12  3232
0  28  3304
13  12  3609
26  9  3798
26  9  3934
57  21  3977
112  112  4063
171  379  0
180  371  113
151  381  412
93  377  670
29  325  1072
52  279  1696
13  259  1857
0  227  2390
0  247  2666
0  231  2989
0  227  3340
0  221  3386
0  217  3714
0  211  3899
0  223  4043
24  253  4022
145  369  4047
128  708  0
145  682  144
134  701  420
132  740  692
32  710  1072
0  623  1639
13  566  1903
0  520  2403
3  541  2666
6  509  2987
0  527  3302
0  518  3443
26  493  3714
45  509  3919
32  527  4061
51  579  3975
96  626  4095
130  1108  0
141  1084  153
147  1104  438
99  1116  679
47  1192  1180
0  1144  1593
13  1068  1943
0  1024  2420
0  984  2658
0  956  3009
13  984  3334
0  951  3445
0  947  3714
0  939  3855
3  956  3999
53  984  4037
177  915  4095
77  1455  0
90  1454  113
133  1438  347
73  1488  692
12  1552  1072
0  1630  1694
0  1520  1885
3  1484  2406
0  1438  2674
3  1406  3012
0  1391  3384
0  1361  3374
3  1360  3669
6  1329  3897
9  1330  4019
33  1377  4074
193  1269  4079
141  1795  0
177  1781  102
207  1766  303
169  1815  619
16  1921  1000
0  1969  1560
13  1965  1953
0  1893  2432
0  1871  2658
26  1799  2949
0  1795  3300
13  1793  3428
0  1762  3681
39  1758  3839
0  1746  3965
34  1758  3989
112  1783  4095
93  2219  0
99  2214  38
96  2208  275
71  2239  636
26  2282  956
52  2368  1473
13  2358  1889
0  2325  2395
0  2293  2610
0  2260  2921
0  2229  3264
0  2224  3365
0  2186  3661
0  2176  3836
0  2176  3952
18  2187  3992
96  2120  4063
154  2513  48
167  2521  107
151  2505  359
142  2537  730
86  2561  1024
91  2658  1488
3  2698  1851
12  2690  2382
9  2690  2658
0  2642  2971
0  2618  3388
3  2594  3420
3  2553  3738
3  2537  3910
3  2529  4037
33  2521  4095
48  2473  4095
96  2849  0
121  2822  72
118  2817  321
115  2849  681
44  2882  992
52  2979  1426
13  2983  1770
19  2995  2290
0  3045  2594
26  3023  2935
13  2952  3362
0  2925  3402
0  2915  3714
0  2888  3910
0  2888  4041
30  2810  4079
177  2746  4095
79  3148  0
80  3178  12
83  3176  243
90  3164  586
15  3168  915
26  3276  1349
13  3260  1676
16  3312  2237
26  3328  2521
52  3300  2886
39  3256  3204
26  3254  3393
26  3236  3661
0  3190  3848
0  3162  3967
9  3150  4015
177  2987  4063
141  3328  32
138  3329  82
118  3315  293
121  3329  687
56  3344  1016
65  3443  1411
3  3473  1746
6  3431  2334
0  3416  2569
0  3430  2923
3  3398  3324
0  3444  3399
0  3414  3746
3  3395  3908
9  3379  4045
27  3372  4086
64  3308  4079
101  3549  48
121  3553  102
128  3561  293
99  3537  624
50  3549  988
65  3613  1369
13  3649  1734
0  3649  2242
0  3673  2537
0  3653  2865
13  3669  3232
0  3665  3337
0  3653  3657
0  3641  3876
3  3621  4001
24  3593  4061
64  3517  4015
89  3740  32
99  3749  67
122  3763  267
109  3747  626
60  3756  972
65  3855  1368
0  3875  1720
0  3885  2225
0  3896  2513
0  3903  2838
0  3891  3216
0  3889  3349
0  3894  3669
0  3866  3864
0  3850  3989
21  3778  4080
128  3677  4095
69  3896  0
73  3912  24
92  3926  249
96  3942  628
18  3938  968
52  4007  1336
6  4031  1680
9  4049  2209
0  4065  2489
0  4053  2834
0  4025  3210
0  4055  3319
0  4059  3649
3  4029  3862
12  4003  3981
24  3948  4074
112  3838  4063
78  4051  0
98  4038  78
111  4048  255
92  4064  556
56  4061  960
69  4086  1455
75  4056  1726
59  4063  2226
69  4082  2465
46  4079  2772
53  4069  3198
40  4095  3235
43  4082  3545
56  4053  3759
59  4053  3920
75  4030  4036
96  3967  4079
145  4095  96
161  4095  145
177  4095  321
161  4079  546
80  4079  1028
96  4095  1204
177  4095  1734
145  4063  2232
161  4095  2425
112  4079  2810
161  4095  3019
128  4095  3180
145  4095  3501
128  4095  3661
145  4079  3806
145  4095  3854
96  4079  4063
335  64  0
345  80  30
325  80  271
303  48  639
329  16  1016
345  48  1519
333  32  1692
337  16  2197
305  32  2417
307  32  2761
299  48  3075
271  80  3042
287  64  3388
277  32  3616
283  48  3774
275  64  3948
305  48  4095
399  156  209
369  156  247
361  146  458
331  130  727
311  53  1076
307  12  1528
259  3  1963
249  0  2432
247  0  2698
227  0  3003
217  0  3392
191  0  3515
179  0  3794
173  13  3942
191  0  3999
223  34  3906
337  161  4015
373  391  80
349  401  152
331  403  397
329  371  708
297  313  1108
255  285  1600
139  231  1973
106  179  2465
70  179  2754
42  114  3039
24  80  3342
6  24  3572
0  24  3830
22  46  3995
96  118  4085
225  243  4017
321  385  4095
349  688  0
381  678  102
391  671  418
353  697  697
249  664  1116
169  655  1631
179  561  1881
136  519  2435
96  474  2730
54  437  3067
34  404  3400
6  410  3517
0  393  3822
0  386  3968
141  462  4071
271  567  4056
337  610  4015
279  1072  0
337  1032  172
321  1040  393
307  1088  673
241  1116  1088
239  1080  1640
161  1000  1873
124  951  2403
58  915  2658
48  887  2987
36  843  3406
12  819  3591
12  787  3930
24  787  4033
108  863  4095
249  911  4004
273  980  4095
283  1483  0
305  1453  120
321  1453  341
259  1469  556
243  1578  1028
241  1566  1621
112  1485  1847
76  1450  2376
54  1451  2706
48  1432  3041
6  1341  3410
0  1308  3560
0  1277  3862
24  1277  3993
92  1338  4061
213  1358  4001
289  1301  4079
355  1883  0
383  1879  102
373  1867  307
343  1893  567
275  1897  935
285  1989  1450
151  2007  1939
106  1963  2502
54  1901  2778
46  1851  3115
18  1815  3435
10  1777  3544
0  1779  3826
24  1756  3923
122  1756  3987
239  1801  4024
321  1783  4047
311  2230  16
313  2225  145
313  2209  379
301  2263  688
225  2262  1008
229  2347  1437
104  2455  1879
94  2449  2497
58  2401  2746
30  2343  3110
18  2295  3513
0  2218  3623
0  2218  3934
12  2192  4045
70  2187  4083
187  2209  4082
305  2152  4095
283  2577  0
315  2561  49
319  2537  293
287  2545  662
265  2577  996
205  2674  1377
86  2802  1793
6  2850  2410
0  2858  2738
6  2762  3104
6  2714  3521
0  2690  3534
0  2650  3834
0  2594  4005
110  2561  4053
223  2529  4064
257  2457  3967
319  2816  48
373  2827  134
389  2828  357
329  2812  677
309  2833  980
261  2904  1398
128  3031  1781
36  3117  2408
12  3144  2778
40  3118  3165
58  3064  3499
0  3047  3637
0  2989  3934
24  2918  4038
104  2871  4059
181  2826  4040
321  2730  4095
283  3103  0
305  3075  76
315  3073  303
335  3107  668
287  3137  968
251  3186  1352
112  3288  1728
24  3408  2361
0  3457  2690
18  3465  3089
38  3433  3439
0  3388  3605
0  3352  3898
36  3252  4059
100  3186  4079
179  3097  4050
289  3003  4079
257  3376  0
287  3377  15
297  3348  279
283  3345  642
233  3362  972
209  3410  1437
128  3569  1652
30  3636  2249
0  3701  2626
0  3658  2984
0  3673  3314
30  3658  3530
30  3582  3886
66  3510  4016
151  3414  4027
205  3390  4005
241  3308  4031
327  3557  16
327  3561  69
337  3541  297
321  3521  638
289  3537  956
259  3597  1470
185  3706  1698
62  3802  2266
10  3878  2650
10  3862  2999
60  3858  3376
0  3882  3512
0  3842  3902
72  3798  4070
136  3673  4095
183  3613  4089
321  3501  4095
297  3738  0
307  3761  18
303  3777  203
297  3763  582
315  3752  964
277  3793  1423
139  3921  1612
78  4009  2184
18  4029  2553
18  4059  2903
34  4059  3332
18  4068  3435
24  4068  3738
48  4015  3938
141  3882  4045
255  3760  4071
305  3661  4015
251  3906  0
267  3938  18
261  3944  175
289  3944  573
261  3912  935
259  3965  1483
157  4063  1580
116  4095  2130
84  4095  2473
84  4085  2779
116  4095  3222
70  4095  3274
66  4095  3597
72  4075  3819
149  4047  3948
213  3938  4020
257  3854  3983
353  4010  16
363  4026  70
363  4042  283
379  4032  649
373  4007  976
381  4016  1535
293  4057  1680
279  4083  2186
291  4086  2489
333  4054  2810
353  4054  3144
313  4083  3280
267  4089  3581
259  4092  3788
289  4083  3914
329  4051  4042
369  3918  4063
434  4031  0
418  4063  0
434  4031  209
450  4063  466
418  4031  980
450  4015  1108
450  4015  1622
385  4031  2168
385  4031  2312
418  3999  2698
466  3983  2891
418  4015  3148
418  4015  3469
434  4031  3645
418  4031  3806
401  4031  3838
369  4047  3999
594  145  48
599  112  236
576  145  454
595  145  701
592  64  1108
595  80  1547
574  112  1781
567  64  2295
583  112  2569
578  80  2871
558  112  3248
585  80  3335
592  80  3581
576  96  3762
571  96  3944
508  80  4068
498  96  4095
725  100  0
714  104  108
714  94  317
714  107  547
702  55  943
716  21  1462
669  9  1728
635  6  2253
592  3  2537
569  0  2886
583  0  3308
608  0  3307
601  0  3633
578  0  3789
596  0  3892
639  27  3988
